;PYCAM-META-DATA: Filename: /home/jeanmarc/Documents/Electronics/duet/atx-power/atx-power-brd.svg
;PYCAM-META-DATA: Timestamp: 2013-09-10 15:54:15.829903
;PYCAM-META-DATA: Version: 0.5.1
;Estimated machine time: 13 minutes
G40 (disable tool radius compensation)
G49 (disable tool length compensation)
G80 (cancel modal motion)
G54 (select coordinate system 1)
G90 (disable incremental moves)
G21 (metric)
G61 (exact path mode)
F200.00000
S1000.00000
;PYCAM_TOOLPATH_SETTINGS: START
;[Bounds]
;maxz = 0.0
;maxx = 135.1022
;maxy = 27.6308474479
;minx = -12.1002
;miny = -2.3297219269
;minz = 0.0
;
;[Tool]
;torus_radius = 0.25
;speed = 1000.0
;shape = CylindricalCutter
;tool_radius = 0.2
;feedrate = 200.0
;
;[Process]
;engrave_offset = 0.0
;step_down = 1.0
;generator = EngraveCutter
;postprocessor = SimpleCutter
;overlap_percent = 0
;milling_style = conventional
;material_allowance = 0.0
;pocketing_type = none
;path_direction = x
;
;PYCAM_TOOLPATH_SETTINGS: END
T1 M6
G0 Z1.0
M3 (start spindle)
G04 P3 (wait for 3 seconds)
 X3.9356 Y8.1456
G1 Z0.0
 X3.6282 Y8.2101
 X3.3396 Y8.3183
 X3.0737 Y8.4670
 X2.8342 Y8.6529
 X2.6246 Y8.8727
 X2.4487 Y9.1229
 X2.3103 Y9.4004
 X2.2130 Y9.7017
 X2.1803 Y9.9015
 X2.1673 Y10.1336
 X2.1744 Y10.3647
 X2.2020 Y10.5615
 X2.2771 Y10.8219
 X2.3813 Y11.0655
 X2.5128 Y11.2903
 X2.6699 Y11.4943
 X2.8508 Y11.6755
 X3.0536 Y11.8318
 X3.2767 Y11.9614
 X3.5182 Y12.0622
 X3.7127 Y12.1206
 X3.8941 Y12.1564
 X4.0791 Y12.1720
 X4.2845 Y12.1698
 X4.4897 Y12.1516
 X4.6787 Y12.1165
 X4.8585 Y12.0625
 X5.0366 Y11.9877
 X5.2335 Y11.8816
 X5.4136 Y11.7597
 X5.5768 Y11.6221
 X5.7230 Y11.4691
 X5.8517 Y11.3009
 X5.9631 Y11.1178
 X6.0566 Y10.9200
 X6.1323 Y10.7075
 X6.1498 Y10.6484
 X6.1634 Y10.5961
 X6.1737 Y10.5461
 X6.1810 Y10.4939
 X6.1860 Y10.4348
 X6.1891 Y10.3645
 X6.1908 Y10.2783
 X6.1916 Y10.1717
 X6.1908 Y10.0343
 X6.1857 Y9.9134
 X6.1757 Y9.8051
 X6.1600 Y9.7054
 X6.1380 Y9.6105
 X6.1088 Y9.5165
 X6.0717 Y9.4196
 X6.0262 Y9.3158
 X5.8654 Y9.0319
 X5.6642 Y8.7806
 X5.4284 Y8.5655
 X5.1638 Y8.3897
 X4.8764 Y8.2565
 X4.5719 Y8.1693
 X4.2564 Y8.1312
 X3.9356 Y8.1456
G0 Z1.0
 X20.5161 Y8.2561
G1 Z0.0
 X17.8524 Y10.9199
 Y16.9693
 X16.3696 Y16.9650
 X16.0915 Y16.9644
 X15.8469 Y16.9642
 X15.6333 Y16.9643
 X15.4478 Y16.9649
 X15.2882 Y16.9662
 X15.1515 Y16.9683
 X15.0357 Y16.9715
 X14.9378 Y16.9757
 X14.8553 Y16.9811
 X14.7858 Y16.9879
 X14.7267 Y16.9962
 X14.6754 Y17.0061
 X14.6293 Y17.0178
 X14.5860 Y17.0313
 X14.5426 Y17.0469
 X14.4971 Y17.0646
 X14.4646 Y17.0754
 X14.4254 Y17.0843
 X14.3749 Y17.0915
 X14.3083 Y17.0975
 X14.2211 Y17.1022
 X14.1088 Y17.1061
 X13.9665 Y17.1094
 X13.7901 Y17.1125
 X13.1780 Y17.1238
 X13.1657 Y17.8100
 X13.1624 Y17.9962
 X13.1587 Y18.1531
 X13.1545 Y18.2844
 X13.1492 Y18.3937
 X13.1431 Y18.4849
 X13.1356 Y18.5613
 X13.1267 Y18.6268
 X13.1163 Y18.6849
 X13.0928 Y18.8750
 X13.0884 Y19.0915
 X13.1023 Y19.3029
 X13.1339 Y19.4775
 X13.1429 Y19.5157
 X13.1502 Y19.5635
 X13.1560 Y19.6243
 X13.1604 Y19.7019
 X13.1636 Y19.7999
 X13.1656 Y19.9219
 X13.1667 Y20.0714
 X13.1671 Y20.2519
 Y20.9119
 X13.7982
 X13.9910 Y20.9122
 X14.1442 Y20.9133
 X14.2644 Y20.9154
 X14.3589 Y20.9193
 X14.4344 Y20.9250
 X14.4981 Y20.9329
 X14.5565 Y20.9437
 X14.6169 Y20.9575
 X14.8144 Y20.9900
 X15.0422 Y21.0028
 X15.2763 Y20.9957
 X15.4933 Y20.9685
 X15.5101 Y20.9657
 X15.5304 Y20.9631
 X15.5546 Y20.9606
 X15.5836 Y20.9582
 X15.6183 Y20.9561
 X15.6596 Y20.9540
 X15.7081 Y20.9521
 X15.7646 Y20.9501
 X15.8303 Y20.9485
 X15.9056 Y20.9469
 X15.9915 Y20.9454
 X16.0889 Y20.9442
 X16.1985 Y20.9428
 X16.3211 Y20.9417
 X16.4576 Y20.9406
 X16.6089 Y20.9396
 X16.7756 Y20.9387
 X16.9588 Y20.9379
 X17.1589 Y20.9372
 X17.3772 Y20.9365
 X17.6142 Y20.9360
 X17.8708 Y20.9354
 X18.1479 Y20.9350
 X18.4463 Y20.9346
 X18.7667 Y20.9342
 X19.1101 Y20.9339
 X19.4772 Y20.9336
 X19.8688 Y20.9333
 X20.2858 Y20.9332
 X20.7290 Y20.9331
 X21.1992 Y20.9329
 X21.6972 Y20.9328
 X23.1131
 X23.5310 Y20.9326
 X23.9233 Y20.9325
 X24.2908 Y20.9324
 X24.6344 Y20.9321
 X24.9549 Y20.9318
 X25.2531 Y20.9315
 X25.5297 Y20.9313
 X25.7857 Y20.9308
 X26.0219 Y20.9303
 X26.2392 Y20.9297
 X26.4382 Y20.9290
 X26.6199 Y20.9283
 X26.7850 Y20.9274
 X26.9344 Y20.9265
 X27.0690 Y20.9256
 X27.1896 Y20.9243
 X27.2969 Y20.9231
 X27.3918 Y20.9218
 X27.4751 Y20.9203
 X27.5478 Y20.9188
 X27.6104 Y20.9171
 X27.6640 Y20.9151
 X27.7094 Y20.9132
 X27.7474 Y20.9111
 X27.7786 Y20.9089
 X27.8042 Y20.9064
 X27.8247 Y20.9039
 X27.8411 Y20.9011
 X27.8543 Y20.8982
 X27.8987 Y20.8888
 X27.9529 Y20.8810
 X28.0203 Y20.8744
 X28.1046 Y20.8690
 X28.2093 Y20.8647
 X28.3382 Y20.8611
 X28.4947 Y20.8582
 X28.6826 Y20.8556
 X29.3744 Y20.8457
 Y20.1954
 X29.3747 Y20.0099
 X29.3757 Y19.8583
 X29.3776 Y19.7358
 X29.3808 Y19.6381
 X29.3854 Y19.5601
 X29.3917 Y19.4975
 X29.3997 Y19.4453
 X29.4100 Y19.3989
 X29.4262 Y19.3164
 X29.4374 Y19.2178
 X29.4439 Y19.0974
 X29.4460 Y18.9494
 X29.4439 Y18.8018
 X29.4374 Y18.6815
 X29.4262 Y18.5829
 X29.4100 Y18.5004
 X29.3997 Y18.4540
 X29.3917 Y18.4019
 X29.3854 Y18.3392
 X29.3808 Y18.2613
 X29.3776 Y18.1635
 X29.3757 Y18.0411
 X29.3747 Y17.8894
 X29.3744 Y17.7038
 Y17.0522
 X28.6826 Y17.0438
 X28.5047 Y17.0411
 X28.3526 Y17.0379
 X28.2242 Y17.0343
 X28.1172 Y17.0300
 X28.0300 Y17.0250
 X27.9601 Y17.0190
 X27.9060 Y17.0121
 X27.8653 Y17.0039
 X27.7386 Y16.9735
 X27.7315 Y16.7986
 X27.7276 Y16.7092
 X27.7303 Y16.6436
 X27.7503 Y16.5979
 X27.7985 Y16.5687
 X27.8857 Y16.5522
 X28.0228 Y16.5450
 X28.2204 Y16.5433
 X28.4896 Y16.5435
 X28.6917 Y16.5433
 X28.8517 Y16.5424
 X28.9747 Y16.5407
 X29.0658 Y16.5378
 X29.1303 Y16.5336
 X29.1731 Y16.5278
 X29.1994 Y16.5201
 X29.2143 Y16.5104
 X29.2240 Y16.4853
 X29.2282 Y16.4581
 X29.2317 Y16.4176
 X29.2349 Y16.3615
 X29.2376 Y16.2869
 X29.2399 Y16.1914
 X29.2418 Y16.0722
 X29.2433 Y15.9269
 X29.2446 Y15.7529
 X29.2456 Y15.5476
 X29.2462 Y15.3082
 X29.2468 Y15.0324
 X29.2471 Y14.7175
 X29.2474 Y14.3607
 Y13.5742
 X29.2471 Y13.2290
 X29.2468 Y12.9220
 X29.2464 Y12.6510
 X29.2457 Y12.4139
 X29.2447 Y12.2084
 X29.2436 Y12.0325
 X29.2421 Y11.8838
 X29.2403 Y11.7603
 X29.2382 Y11.6598
 X29.2358 Y11.5801
 X29.2329 Y11.5190
 X29.2297 Y11.4743
 X29.2260 Y11.4440
 X29.2217 Y11.4257
 X29.2003 Y11.4107
 X29.1662 Y11.4053
 X29.1133 Y11.4010
 X29.0397 Y11.3979
 X28.9439 Y11.3957
 X28.8239 Y11.3944
 X28.6781 Y11.3938
 X28.5047 Y11.3940
 X28.3053 Y11.3946
 X28.1471 Y11.3942
 X28.0249 Y11.3927
 X27.9335 Y11.3899
 X27.8681 Y11.3857
 X27.8233 Y11.3798
 X27.7942 Y11.3721
 X27.7756 Y11.3622
 X27.7494 Y11.3387
 X27.7351 Y11.3011
 X27.7289 Y11.2306
 X27.7276 Y11.1086
 Y10.8895
 X28.5446 Y10.8839
 X29.3631 Y10.8786
 X29.3688 Y8.9835
 X29.3744 Y7.0901
 X27.7276
 Y6.8724
 X27.7289 Y6.7591
 X27.7344 Y6.6873
 X27.7460 Y6.6448
 X27.7661 Y6.6188
 X27.7821 Y6.6083
 X27.8081 Y6.6003
 X27.8494 Y6.5942
 X27.9118 Y6.5900
 X28.0006 Y6.5871
 X28.1214 Y6.5856
 X28.2797 Y6.5848
 X28.4811 Y6.5846
 X28.6865 Y6.5844
 X28.8469 Y6.5834
 X28.9682 Y6.5815
 X29.0565 Y6.5784
 X29.1181 Y6.5736
 X29.1587 Y6.5671
 X29.1846 Y6.5584
 X29.2019 Y6.5472
 X29.2157 Y6.5337
 X29.2264 Y6.5168
 X29.2343 Y6.4920
 X29.2399 Y6.4548
 X29.2436 Y6.4008
 X29.2461 Y6.3254
 X29.2476 Y6.2241
 X29.2487 Y6.0924
 X29.2494 Y5.9671
 Y5.8684
 X29.2482 Y5.7927
 X29.2456 Y5.7365
 X29.2411 Y5.6962
 X29.2346 Y5.6680
 X29.2257 Y5.6483
 X29.2143 Y5.6335
 X29.1940 Y5.6199
 X29.1731 Y5.6144
 X29.1389 Y5.6097
 X29.0876 Y5.6057
 X29.0150 Y5.6023
 X28.9167 Y5.5996
 X28.7883 Y5.5974
 X28.6260 Y5.5957
 X28.4251 Y5.5945
 X28.1818 Y5.5935
 X27.8917 Y5.5929
 X27.5506 Y5.5926
 X27.1542 Y5.5923
 X26.1786 Y5.5922
 X23.1800
 X20.5161 Y8.2561
G0 Z1.0
 X42.2713 Y7.1219
G1 Z0.0
 X42.0524 Y7.1841
 X41.8458 Y7.2689
 X41.6531 Y7.3753
 X41.4751 Y7.5021
 X41.3135 Y7.6486
 X41.1692 Y7.8136
 X41.0433 Y7.9962
 X40.9374 Y8.1954
 X40.8931 Y8.2957
 X40.8574 Y8.3868
 X40.8297 Y8.4729
 X40.8090 Y8.5588
 X40.7946 Y8.6489
 X40.7853 Y8.7476
 X40.7804 Y8.8595
 X40.7790 Y8.9892
 X40.7813 Y9.1212
 X40.7875 Y9.2372
 X40.7986 Y9.3411
 X40.8157 Y9.4371
 X40.8397 Y9.5293
 X40.8714 Y9.6218
 X40.9119 Y9.7187
 X40.9621 Y9.8242
 X41.0540 Y9.9887
 X41.1611 Y10.1419
 X41.2824 Y10.2830
 X41.4172 Y10.4113
 X41.5647 Y10.5264
 X41.7244 Y10.6274
 X41.8953 Y10.7138
 X42.0769 Y10.7848
 X42.1933 Y10.8219
 X42.2942 Y10.8435
 X42.4128 Y10.8551
 X42.5828 Y10.8620
 X42.7322 Y10.8648
 X42.8529 Y10.8623
 X42.9522 Y10.8542
 X43.0375 Y10.8398
 X43.3086 Y10.7613
 X43.5611 Y10.6464
 X43.7919 Y10.4980
 X43.9983 Y10.3193
 X44.1769 Y10.1130
 X44.3253 Y9.8822
 X44.4403 Y9.6297
 X44.5188 Y9.3585
 X44.5411 Y9.1858
 X44.5479 Y8.9777
 X44.5392 Y8.7688
 X44.5149 Y8.5936
 X44.4428 Y8.3409
 X44.3386 Y8.1039
 X44.2046 Y7.8853
 X44.0431 Y7.6873
 X43.8562 Y7.5125
 X43.6464 Y7.3632
 X43.4160 Y7.2418
 X43.1669 Y7.1508
 X43.0796 Y7.1311
 X42.9710 Y7.1155
 X42.8483 Y7.1043
 X42.7188 Y7.0976
 X42.5890 Y7.0958
 X42.4665 Y7.0991
 X42.3582 Y7.1077
 X42.2713 Y7.1219
G0 Z1.0
 X42.3375 Y17.0797
G1 Z0.0
 X42.1399 Y17.1272
 X41.9525 Y17.1918
 X41.7757 Y17.2732
 X41.6101 Y17.3711
 X41.4560 Y17.4854
 X41.3138 Y17.6156
 X41.1839 Y17.7615
 X41.0668 Y17.9229
 X40.9437 Y18.1450
 X40.8528 Y18.3814
 X40.7942 Y18.6278
 X40.7681 Y18.8796
 X40.7746 Y19.1325
 X40.8140 Y19.3819
 X40.8865 Y19.6239
 X40.9924 Y19.8536
 X41.1703 Y20.1218
 X41.3856 Y20.3517
 X41.6324 Y20.5410
 X41.9046 Y20.6871
 X42.1965 Y20.7872
 X42.5019 Y20.8390
 X42.8150 Y20.8397
 X43.1299 Y20.7867
 X43.3624 Y20.7122
 X43.5719 Y20.6142
 X43.7668 Y20.4881
 X43.9554 Y20.3292
 X44.0928 Y20.1860
 X44.2126 Y20.0333
 X44.3146 Y19.8721
 X44.3985 Y19.7024
 X44.4640 Y19.5249
 X44.5111 Y19.3399
 X44.5396 Y19.1479
 X44.5492 Y18.9494
 X44.5229 Y18.6288
 X44.4467 Y18.3253
 X44.3235 Y18.0436
 X44.1568 Y17.7879
 X43.9499 Y17.5625
 X43.7061 Y17.3715
 X43.4289 Y17.2193
 X43.1214 Y17.1101
 X42.9436 Y17.0779
 X42.7294 Y17.0613
 X42.5154
 X42.3375 Y17.0797
G0 Z1.0
 X56.0144 Y12.2305
G1 Z0.0
 X55.8703 Y12.2781
 X55.7114 Y12.3498
 X55.5581 Y12.4353
 X55.4303 Y12.5240
 X55.2626 Y12.6880
 X55.1204 Y12.8870
 X55.0108 Y13.1087
 X54.9410 Y13.3410
 X54.9090 Y13.5850
 X54.9190 Y13.8191
 X54.9718 Y14.0503
 X55.0679 Y14.2850
 X55.2133 Y14.5186
 X55.4008 Y14.7182
 X55.6250 Y14.8793
 X55.8807 Y14.9972
 X56.0632 Y15.0418
 X56.2799 Y15.0644
 X56.4968 Y15.0635
 X56.6801 Y15.0375
 X56.8710 Y14.9754
 X57.0489 Y14.8904
 X57.2119 Y14.7840
 X57.3586 Y14.6581
 X57.4871 Y14.5140
 X57.5957 Y14.3536
 X57.6828 Y14.1785
 X57.7465 Y13.9901
 X57.7737 Y13.8316
 X57.7831 Y13.6437
 X57.7749 Y13.4550
 X57.7493 Y13.2941
 X57.6886 Y13.1096
 X57.6053 Y12.9376
 X57.4988 Y12.7776
 X57.3690 Y12.6287
 X57.2599 Y12.5268
 X57.1513 Y12.4406
 X57.0411 Y12.3693
 X56.9274 Y12.3121
 X56.8079 Y12.2680
 X56.6807 Y12.2361
 X56.5436 Y12.2156
 X56.3947 Y12.2054
 X56.2726 Y12.2038
 X56.1718 Y12.2071
 X56.0876 Y12.2159
 X56.0158 Y12.2305
G0 X56.0144 Z1.0
 X60.1871 Y12.2400
G1 Z0.0
 X60.0483 Y12.2804
 X59.9303 Y12.3269
 X59.8207 Y12.3851
 X59.7076 Y12.4604
 X59.5699 Y12.5722
 X59.4450 Y12.7011
 X59.3378 Y12.8416
 X59.2529 Y12.9882
 X59.1808 Y13.1508
 X59.1351 Y13.2996
 X59.1110 Y13.4537
 X59.1040 Y13.6317
 X59.1110 Y13.8103
 X59.1351 Y13.9643
 X59.1808 Y14.1128
 X59.2529 Y14.2751
 X59.4168 Y14.5364
 X59.6261 Y14.7500
 X59.8785 Y14.9140
 X60.1719 Y15.0263
 X60.3686 Y15.0597
 X60.5897 Y15.0657
 X60.8096 Y15.0446
 X61.0017 Y14.9972
 X61.2046 Y14.9088
 X61.3878 Y14.7947
 X61.5493 Y14.6574
 X61.6875 Y14.4990
 X61.8004 Y14.3225
 X61.8864 Y14.1299
 X61.9436 Y13.9236
 X61.9704 Y13.7061
 X61.9660 Y13.4938
 X61.9328 Y13.2901
 X61.8719 Y13.0969
 X61.7847 Y12.9161
 X61.6719 Y12.7495
 X61.5347 Y12.5991
 X61.3743 Y12.4667
 X61.1918 Y12.3543
 X60.9551 Y12.2594
 X60.6992 Y12.2073
 X60.4383 Y12.2001
 X60.1871 Y12.2400
G0 Z1.0
 X64.3915 Y12.2305
G1 Z0.0
 X64.2479 Y12.2781
 X64.0890 Y12.3498
 X63.9353 Y12.4353
 X63.8072 Y12.5240
 X63.6942 Y12.6275
 X63.5925 Y12.7463
 X63.5031 Y12.8777
 X63.4274 Y13.0194
 X63.3665 Y13.1686
 X63.3218 Y13.3228
 X63.2942 Y13.4794
 X63.2851 Y13.6359
 X63.2946 Y13.8012
 X63.3236 Y13.9611
 X63.3733 Y14.1207
 X63.4450 Y14.2850
 X63.5906 Y14.5186
 X63.7781 Y14.7182
 X64.0021 Y14.8793
 X64.2578 Y14.9972
 X64.4400 Y15.0418
 X64.6564 Y15.0644
 X64.8733 Y15.0635
 X65.0572 Y15.0375
 X65.2786 Y14.9615
 X65.4900 Y14.8490
 X65.6817 Y14.7065
 X65.8443 Y14.5397
 X65.9811 Y14.3389
 X66.0800 Y14.1194
 X66.1401 Y13.8832
 X66.1610 Y13.6317
 X66.1353 Y13.3494
 X66.0578 Y13.0888
 X65.9278 Y12.8490
 X65.7447 Y12.6287
 X65.6360 Y12.5268
 X65.5276 Y12.4406
 X65.4175 Y12.3693
 X65.3038 Y12.3121
 X65.1843 Y12.2680
 X65.0571 Y12.2361
 X64.9203 Y12.2156
 X64.7718 Y12.2054
 X64.6497 Y12.2038
 X64.5486 Y12.2071
 X64.4642 Y12.2159
 X64.3915 Y12.2305
G0 Z1.0
 X60.1651 Y17.7260
G1 Z0.0
 X59.9889 Y17.7844
 X59.8289 Y17.8637
 X59.6771 Y17.9690
 X59.5256 Y18.1049
 X59.4319 Y18.2018
 X59.3629 Y18.2847
 X59.3082 Y18.3675
 X59.2572 Y18.4644
 X59.1826 Y18.6329
 X59.1356 Y18.7839
 X59.1111 Y18.9386
 X59.1040 Y19.1178
 X59.1111 Y19.2978
 X59.1356 Y19.4528
 X59.1826 Y19.6040
 X59.2572 Y19.7725
 X59.3726 Y19.9600
 X59.5237 Y20.1349
 X59.6990 Y20.2853
 X59.8868 Y20.3993
 X60.0515 Y20.4706
 X60.2074 Y20.5183
 X60.3644 Y20.5451
 X60.5332 Y20.5536
 X60.6808 Y20.5461
 X60.8242 Y20.5244
 X60.9625 Y20.4890
 X61.0953 Y20.4408
 X61.2214 Y20.3804
 X61.3403 Y20.3085
 X61.4514 Y20.2260
 X61.5539 Y20.1333
 X61.6468 Y20.0314
 X61.7299 Y19.9208
 X61.8021 Y19.8025
 X61.8628 Y19.6769
 X61.9112 Y19.5450
 X61.9467 Y19.4074
 X61.9685 Y19.2647
 X61.9760 Y19.1178
 X61.9668 Y18.9519
 X61.9383 Y18.7924
 X61.8899 Y18.6347
 X61.8201 Y18.4743
 X61.7421 Y18.3362
 X61.6514 Y18.2096
 X61.5483 Y18.0947
 X61.4336 Y17.9922
 X61.3078 Y17.9025
 X61.1714 Y17.8261
 X61.0250 Y17.7633
 X60.8693 Y17.7147
 X60.7121 Y17.6907
 X60.5235 Y17.6847
 X60.3318 Y17.6965
 X60.1651 Y17.7260
G0 Z1.0
 X64.3601 Y17.7246
G1 Z0.0
 X64.0651 Y17.8381
 X63.8124 Y18.0018
 X63.6036 Y18.2144
 X63.4407 Y18.4743
 X63.3615 Y18.6639
 X63.3099 Y18.8553
 X63.2856 Y19.0475
 X63.2885 Y19.2393
 X63.3185 Y19.4293
 X63.3756 Y19.6163
 X63.4596 Y19.7990
 X63.5701 Y19.9764
 X63.7379 Y20.1679
 X63.9368 Y20.3226
 X64.1599 Y20.4390
 X64.4006 Y20.5154
 X64.6517 Y20.5504
 X64.9065 Y20.5424
 X65.1585 Y20.4899
 X65.4004 Y20.3908
 X65.5764 Y20.2758
 X65.7465 Y20.1231
 X65.8944 Y19.9497
 X66.0040 Y19.7725
 X66.0761 Y19.6058
 X66.1249 Y19.4504
 X66.1524 Y19.2951
 X66.1610 Y19.1288
 X66.1539 Y18.9554
 X66.1300 Y18.8032
 X66.0854 Y18.6556
 X66.0164 Y18.4961
 X65.8521 Y18.2276
 X65.6422 Y18.0085
 X65.3899 Y17.8410
 X65.0985 Y17.7275
 X64.9249 Y17.6953
 X64.7271 Y17.6842
 X64.5304 Y17.6939
 X64.3601 Y17.7246
G0 Z1.0
 X68.5176 Y17.7314
G1 Z0.0
 X68.3339 Y17.8001
 X68.1650 Y17.8881
 X68.0118 Y17.9939
 X67.8753 Y18.1168
 X67.7563 Y18.2557
 X67.6558 Y18.4099
 X67.5749 Y18.5781
 X67.5143 Y18.7593
 X67.4862 Y18.9236
 X67.4769 Y19.1183
 X67.4862 Y19.3128
 X67.5143 Y19.4761
 X67.5808 Y19.6711
 X67.6724 Y19.8494
 X67.7914 Y20.0154
 X67.9400 Y20.1732
 X68.1838 Y20.3567
 X68.4542 Y20.4799
 X68.7408 Y20.5435
 X69.0331 Y20.5485
 X69.3204 Y20.4957
 X69.5925 Y20.3861
 X69.8386 Y20.2206
 X70.0483 Y19.9997
 X70.1785 Y19.7975
 X70.2721 Y19.5840
 X70.3294 Y19.3628
 X70.3501 Y19.1372
 X70.3346 Y18.9110
 X70.2825 Y18.6876
 X70.1939 Y18.4706
 X70.0690 Y18.2633
 X69.9356 Y18.1042
 X69.7790 Y17.9676
 X69.5985 Y17.8535
 X69.3939 Y17.7617
 X69.2953 Y17.7276
 X69.2067 Y17.7074
 X69.1007 Y17.6963
 X68.9501 Y17.6900
 X68.8010 Y17.6882
 X68.6961 Y17.6928
 X68.6101 Y17.7061
 X68.5176 Y17.7314
G0 Z1.0
 X72.7494 Y17.7175
G1 Z0.0
 X72.5364 Y17.7908
 X72.3287 Y17.9042
 X72.1371 Y18.0503
 X71.9724 Y18.2219
 X71.8496 Y18.4025
 X71.7575 Y18.5994
 X71.6962 Y18.8082
 X71.6664 Y19.0239
 X71.6679 Y19.2419
 X71.7014 Y19.4575
 X71.7668 Y19.6657
 X71.8647 Y19.8618
 X72.0156 Y20.0665
 X72.1999 Y20.2410
 X72.4115 Y20.3806
 X72.6447 Y20.4806
 X72.7538 Y20.5136
 X72.8471 Y20.5324
 X72.9550 Y20.5407
 X73.1075 Y20.5426
 X73.2592 Y20.5410
 X73.3651 Y20.5331
 X73.4543 Y20.5153
 X73.5556 Y20.4833
 X73.7676 Y20.3918
 X73.9581 Y20.2719
 X74.1247 Y20.1265
 X74.2657 Y19.9586
 X74.3789 Y19.7710
 X74.4622 Y19.5664
 X74.5138 Y19.3476
 X74.5314 Y19.1178
 X74.5069 Y18.8269
 X74.4310 Y18.5669
 X74.2997 Y18.3292
 X74.1094 Y18.1049
 X73.9581 Y17.9675
 X73.8060 Y17.8619
 X73.6440 Y17.7828
 X73.4632 Y17.7246
 X73.2961 Y17.6961
 X73.1042 Y17.6854
 X72.9132 Y17.6925
 X72.7494 Y17.7175
G0 Z1.0
 X81.1208 Y12.2400
G1 Z0.0
 X80.9817 Y12.2804
 X80.8633 Y12.3269
 X80.7538 Y12.3851
 X80.6401 Y12.4604
 X80.5018 Y12.5710
 X80.3810 Y12.6931
 X80.2775 Y12.8262
 X80.1922 Y12.9696
 X80.1253 Y13.1226
 X80.0769 Y13.2844
 X80.0476 Y13.4543
 X80.0379 Y13.6317
 X80.0449 Y13.8119
 X80.0694 Y13.9672
 X80.1163 Y14.1186
 X80.1907 Y14.2864
 X80.2417 Y14.3832
 X80.2961 Y14.4657
 X80.3651 Y14.5485
 X80.4594 Y14.6460
 X80.6094 Y14.7818
 X80.7592 Y14.8857
 X80.9201 Y14.9649
 X81.1043 Y15.0263
 X81.3018 Y15.0597
 X81.5232 Y15.0657
 X81.7426 Y15.0446
 X81.9340 Y14.9972
 X82.0831 Y14.9356
 X82.2214 Y14.8601
 X82.3485 Y14.7722
 X82.4638 Y14.6729
 X82.5669 Y14.5633
 X82.6576 Y14.4447
 X82.7350 Y14.3179
 X82.7989 Y14.1846
 X82.8487 Y14.0454
 X82.8839 Y13.9018
 X82.9042 Y13.7548
 X82.9089 Y13.6055
 X82.8976 Y13.4552
 X82.8700 Y13.3048
 X82.8254 Y13.1558
 X82.7635 Y13.0090
 X82.6406 Y12.7989
 X82.4910 Y12.6195
 X82.3115 Y12.4677
 X82.0994 Y12.3405
 X81.8710 Y12.2535
 X81.6206 Y12.2065
 X81.3649 Y12.2014
 X81.1208 Y12.2400
G0 Z1.0
 X80.0421 Y3.6011
G1 Z0.0
 X80.0144 Y3.6247
 X79.9483 Y3.6870
 X79.8465 Y3.7854
 X79.7114 Y3.9174
 X79.5456 Y4.0803
 X79.3517 Y4.2717
 X79.1324 Y4.4889
 X78.8900 Y4.7294
 X78.6272 Y4.9906
 X78.3467 Y5.2699
 X78.0508 Y5.5647
 X77.7424 Y5.8726
 X77.4237 Y6.1908
 X77.0975 Y6.5169
 X76.7664 Y6.8482
 X76.4328 Y7.1822
 X76.0994 Y7.5163
 X75.7688 Y7.8479
 X75.4435 Y8.1745
 X75.1260 Y8.4935
 X74.8189 Y8.8023
 X74.5249 Y9.0983
 X74.2464 Y9.3790
 X73.9861 Y9.6418
 X73.7465 Y9.8841
 X73.5301 Y10.1033
 X73.3397 Y10.2969
 X73.1776 Y10.4623
 X73.0467 Y10.5969
 X72.9492 Y10.6982
 X72.8878 Y10.7636
 X72.8651 Y10.7904
 X72.8558 Y10.8618
 X72.8489 Y11.0156
 X72.8444 Y11.2418
 X72.8431 Y11.5302
 Y12.2110
 X72.7149 Y12.2467
 X72.4817 Y12.3334
 X72.2719 Y12.4553
 X72.0886 Y12.6086
 X71.9344 Y12.7890
 X71.8124 Y12.9927
 X71.7253 Y13.2157
 X71.6760 Y13.4539
 X71.6675 Y13.7033
 X71.7078 Y13.9886
 X71.7989 Y14.2503
 X71.9400 Y14.4869
 X72.1307 Y14.6971
 X72.3438 Y14.8606
 X72.5756 Y14.9758
 X72.8287 Y15.0440
 X73.1061 Y15.0664
 X73.3935 Y15.0419
 X73.6510 Y14.9662
 X73.8872 Y14.8356
 X74.1108 Y14.6460
 X74.2464 Y14.4961
 X74.3500 Y14.3468
 X74.4292 Y14.1858
 X74.4911 Y14.0010
 X74.5246 Y13.8042
 X74.5306 Y13.5827
 X74.5094 Y13.3630
 X74.4622 Y13.1717
 X74.3958 Y13.0133
 X74.3132 Y12.8656
 X74.2153 Y12.7297
 X74.1033 Y12.6067
 X73.9785 Y12.4978
 X73.8418 Y12.4039
 X73.6944 Y12.3263
 X73.5376 Y12.2661
 X73.3503 Y12.2068
 Y10.9830
 X80.2611 Y4.0725
 X105.8790
 X108.8480 Y7.0432
 X111.8180 Y10.0129
 Y14.8968
 X111.6540 Y14.9024
 X111.4920 Y14.9076
 X111.4850 Y15.2192
 X111.4790 Y15.5307
 X112.6200
 Y14.8982
 X112.3030
 Y9.8023
 X106.0880 Y3.5874
 X93.0921 Y3.5818
 X91.3347 Y3.5811
 X90.5119 Y3.5808
 X89.7258 Y3.5807
 X88.9754 Y3.5805
 X88.2604
 X87.5801
 X86.9338
 X86.3210 Y3.5806
 X85.7408 Y3.5808
 X85.1931 Y3.5810
 X84.6768 Y3.5813
 X83.7365 Y3.5821
 X83.3114 Y3.5826
 X82.9154 Y3.5832
 X82.5479 Y3.5838
 X82.2083 Y3.5845
 X81.8960 Y3.5852
 X81.6104 Y3.5860
 X81.3508 Y3.5869
 X81.1167 Y3.5878
 X80.9075 Y3.5889
 X80.7225 Y3.5900
 X80.5610 Y3.5911
 X80.4226 Y3.5923
 X80.3065 Y3.5936
 X80.2124 Y3.5950
 X80.1392 Y3.5964
 X80.0867 Y3.5979
 X80.0540 Y3.5995
 X80.0407 Y3.6011
G0 X80.0421 Z1.0
 X81.9312 Y5.1005
G1 Z0.0
 X81.9256 Y5.1504
 X81.9213 Y5.2774
 X81.9185 Y5.4623
 X81.9175 Y5.6861
 Y6.2565
 X80.5547 Y7.6179
 X80.4157 Y7.7567
 X80.2806 Y7.8920
 X80.1496 Y8.0231
 X80.0239 Y8.1493
 X79.9040 Y8.2698
 X79.7907 Y8.3839
 X79.6846 Y8.4909
 X79.5864 Y8.5902
 X79.4968 Y8.6809
 X79.4167 Y8.7624
 X79.3465 Y8.8339
 X79.2871 Y8.8947
 X79.2390 Y8.9441
 X79.2033 Y8.9814
 X79.1804 Y9.0058
 X79.1667 Y9.0734
 X79.1628 Y9.2240
 X79.1594 Y9.4659
 X79.1568 Y9.7963
 X79.1546 Y10.2125
 X79.1529 Y10.7119
 X79.1521 Y11.2917
 X79.1517 Y11.9493
 Y14.8444
 X78.4504 Y15.5458
 X77.7490 Y16.2486
 X71.6510
 X70.8215 Y15.4192
 X69.9904 Y14.5894
 X70.0582 Y14.5069
 X70.0906 Y14.4614
 X70.1292 Y14.3985
 X70.1692 Y14.3267
 X70.2056 Y14.2547
 X70.3056 Y13.9775
 X70.3468 Y13.6956
 X70.3322 Y13.4166
 X70.2644 Y13.1482
 X70.1461 Y12.8978
 X69.9799 Y12.6731
 X69.7688 Y12.4817
 X69.5151 Y12.3310
 X69.3497 Y12.2632
 X69.1935 Y12.2213
 X69.0300 Y12.2022
 X68.8428 Y12.2026
 X68.7001 Y12.2145
 X68.5685 Y12.2361
 X68.4458 Y12.2683
 X68.3304 Y12.3121
 X68.2203 Y12.3681
 X68.1136 Y12.4373
 X68.0083 Y12.5207
 X67.9026 Y12.6189
 X67.8125 Y12.7123
 X67.7424 Y12.7958
 X67.6854 Y12.8779
 X67.6357 Y12.9674
 X67.5458 Y13.1762
 X67.4899 Y13.3863
 X67.4678 Y13.5971
 X67.4797 Y13.8081
 X67.5154 Y13.9886
 X67.5699 Y14.1592
 X67.6425 Y14.3187
 X67.7324 Y14.4660
 X67.8386 Y14.5997
 X67.9604 Y14.7188
 X68.0969 Y14.8217
 X68.2474 Y14.9076
 X68.4207 Y14.9849
 X68.5742 Y15.0336
 X68.7289 Y15.0590
 X68.9060 Y15.0664
 X69.0708 Y15.0599
 X69.2196 Y15.0394
 X69.3574 Y15.0047
 X69.4890 Y14.9546
 X69.6035 Y14.9024
 X70.5210 Y15.8186
 X71.4403 Y16.7336
 X75.1785
 X75.6217 Y16.7335
 X76.0162 Y16.7332
 X76.3653 Y16.7326
 X76.6713 Y16.7319
 X76.9369 Y16.7311
 X77.1651 Y16.7299
 X77.3588 Y16.7285
 X77.5203 Y16.7267
 X77.6525 Y16.7246
 X77.7583 Y16.7221
 X77.8403 Y16.7193
 X77.9013 Y16.7160
 X77.9440 Y16.7122
 X77.9713 Y16.7081
 X77.9858 Y16.7033
 X78.0135 Y16.6811
 X78.0706 Y16.6290
 X78.1535 Y16.5506
 X78.2589 Y16.4492
 X78.3831 Y16.3281
 X78.5228 Y16.1907
 X78.6746 Y16.0404
 X78.8349 Y15.8807
 X79.6258 Y15.0869
 X79.6314 Y12.1712
 X79.6368 Y9.2537
 X80.9611 Y7.9294
 X82.2840 Y6.6050
 X83.4347
 Y5.0853
 X82.6893
 X82.5389 Y5.0856
 X82.3983 Y5.0865
 X82.2703 Y5.0879
 X82.1581 Y5.0897
 X82.0649 Y5.0920
 X81.9936 Y5.0946
 X81.9476 Y5.0974
 X81.9299 Y5.1005
G0 X81.9312 Z1.0
 X85.0706 Y5.1057
G1 Z0.0
 X84.9022 Y5.1605
 X84.7575 Y5.2478
 X84.6372 Y5.3670
 X84.5425 Y5.5178
 X84.5014 Y5.6068
 X84.4782 Y5.6763
 X84.4679 Y5.7469
 X84.4656 Y5.8388
 X84.4767 Y5.9897
 X84.5115 Y6.1230
 X84.5718 Y6.2441
 X84.6596 Y6.3585
 X84.8239 Y6.4944
 X85.0139 Y6.5777
 X85.2194 Y6.6055
 X85.4300 Y6.5747
 X85.5543 Y6.5377
 X86.5325 Y7.5159
 X87.5097 Y8.4945
 Y13.5617
 X87.5100 Y14.0581
 X87.5104 Y14.5250
 X87.5110 Y14.9621
 X87.5117 Y15.3683
 X87.5124 Y15.7431
 X87.5135 Y16.0858
 X87.5146 Y16.3958
 X87.5158 Y16.6724
 X87.5172 Y16.9149
 X87.5189 Y17.1225
 X87.5206 Y17.2947
 X87.5224 Y17.4308
 X87.5243 Y17.5301
 X87.5265 Y17.5919
 X87.5287 Y17.6156
 X87.5425 Y17.6324
 X87.5739 Y17.6667
 X87.6211 Y17.7162
 X87.6819 Y17.7793
 X87.7544 Y17.8536
 X87.8368 Y17.9369
 X87.9267 Y18.0275
 X88.0224 Y18.1229
 X88.4950 Y18.5942
 X88.4533 Y18.7346
 X88.4219 Y18.9033
 X88.4101 Y19.1050
 X88.4183 Y19.3072
 X88.4467 Y19.4775
 X88.4929 Y19.6144
 X88.5561 Y19.7503
 X88.6342 Y19.8825
 X88.7247 Y20.0082
 X88.8257 Y20.1247
 X88.9350 Y20.2292
 X89.0506 Y20.3187
 X89.1703 Y20.3908
 X89.4133 Y20.4899
 X89.6658 Y20.5424
 X89.9210 Y20.5504
 X90.1721 Y20.5153
 X90.4125 Y20.4386
 X90.6353 Y20.3219
 X90.8339 Y20.1669
 X91.0015 Y19.9750
 X91.1250 Y19.7715
 X91.2133 Y19.5592
 X91.2664 Y19.3408
 X91.2844 Y19.1196
 X91.2672 Y18.8983
 X91.2147 Y18.6804
 X91.1272 Y18.4686
 X91.0043 Y18.2661
 X90.8697 Y18.1040
 X90.7142 Y17.9675
 X90.5350 Y17.8542
 X90.3292 Y17.7617
 X90.2315 Y17.7289
 X90.1431 Y17.7082
 X90.0411 Y17.6961
 X89.9033 Y17.6886
 X89.7672 Y17.6854
 X89.6660 Y17.6889
 X89.5790 Y17.7008
 X89.4856 Y17.7232
 X89.3031 Y17.7846
 X89.1361 Y17.8644
 X88.9874 Y17.9608
 X88.8601 Y18.0717
 X88.8300 Y18.1008
 X88.8021 Y18.1246
 X88.7793 Y18.1410
 X88.7649 Y18.1475
 X88.7274 Y18.1181
 X88.6890 Y18.0835
 X88.6400 Y18.0376
 X88.5818 Y17.9822
 X88.5162 Y17.9186
 X88.4449 Y17.8483
 X88.3694 Y17.7729
 X87.9947 Y17.3979
 Y8.2836
 X86.9488 Y7.2362
 X85.9014 Y6.1877
 X85.9374 Y6.0773
 X85.9622 Y5.9528
 X85.9654 Y5.8094
 X85.9479 Y5.6669
 X85.9110 Y5.5453
 X85.8489 Y5.4355
 X85.7675 Y5.3376
 X85.6701 Y5.2535
 X85.5606 Y5.1851
 X85.4422 Y5.1342
 X85.3188 Y5.1028
 X85.1938 Y5.0927
 X85.0706 Y5.1057
G0 Z1.0
 X89.5985 Y12.2110
G1 Z0.0
 X89.3917 Y12.2645
 X89.1913 Y12.3533
 X89.0008 Y12.4758
 X88.8242 Y12.6298
 X88.7339 Y12.7251
 X88.6665 Y12.8082
 X88.6108 Y12.8952
 X88.5553 Y13.0020
 X88.4758 Y13.1975
 X88.4253 Y13.3953
 X88.4037 Y13.5936
 X88.4107 Y13.7908
 X88.4460 Y13.9850
 X88.5096 Y14.1746
 X88.6013 Y14.3579
 X88.7208 Y14.5331
 X88.8272 Y14.6551
 X88.9428 Y14.7590
 X89.0717 Y14.8485
 X89.2182 Y14.9271
 X89.3890 Y14.9997
 X89.5436 Y15.0432
 X89.7069 Y15.0624
 X89.9033 Y15.0622
 X90.0497 Y15.0517
 X90.1847 Y15.0311
 X90.3100 Y14.9994
 X90.4278 Y14.9558
 X90.5401 Y14.8993
 X90.6488 Y14.8293
 X90.7560 Y14.7446
 X90.8636 Y14.6446
 X90.9424 Y14.5629
 X91.0072 Y14.4844
 X91.0619 Y14.4043
 X91.1106 Y14.3182
 X91.1567 Y14.2257
 X91.1935 Y14.1428
 X91.2221 Y14.0658
 X91.2433 Y13.9908
 X91.2583 Y13.9139
 X91.2678 Y13.8309
 X91.2728 Y13.7382
 X91.2742 Y13.6317
 X91.2719 Y13.4888
 X91.2633 Y13.3850
 X91.2457 Y13.2964
 X91.2164 Y13.1992
 X91.1453 Y13.0214
 X91.0538 Y12.8570
 X90.9436 Y12.7075
 X90.8160 Y12.5740
 X90.6728 Y12.4581
 X90.5153 Y12.3611
 X90.3450 Y12.2842
 X90.1636 Y12.2291
 X90.0419 Y12.2111
 X89.8832 Y12.2014
 X89.7233 Y12.2010
 X89.5985 Y12.2110
G0 Z1.0
 X97.8807 Y12.2305
G1 Z0.0
 X97.6972 Y12.2892
 X97.5236 Y12.3732
 X97.3622 Y12.4800
 X97.2154 Y12.6072
 X97.0856 Y12.7526
 X96.9750 Y12.9136
 X96.8860 Y13.0881
 X96.8210 Y13.2736
 X96.7900 Y13.4581
 X96.7839 Y13.6691
 X96.8018 Y13.8802
 X96.8432 Y14.0646
 X96.9060 Y14.2257
 X96.9856 Y14.3762
 X97.0806 Y14.5153
 X97.1900 Y14.6415
 X97.3126 Y14.7540
 X97.4476 Y14.8515
 X97.5938 Y14.9331
 X97.7497 Y14.9972
 X97.8514 Y15.0293
 X97.9421 Y15.0472
 X98.0538 Y15.0549
 X98.2182 Y15.0565
 X98.3828 Y15.0549
 X98.4944 Y15.0472
 X98.5851 Y15.0293
 X98.6868 Y14.9972
 X98.8432 Y14.9328
 X98.9893 Y14.8514
 X99.1240 Y14.7542
 X99.2465 Y14.6421
 X99.3557 Y14.5161
 X99.4506 Y14.3772
 X99.5301 Y14.2264
 X99.5935 Y14.0646
 X99.6347 Y13.8802
 X99.6525 Y13.6691
 X99.6458 Y13.4581
 X99.6142 Y13.2736
 X99.5492 Y13.0865
 X99.4600 Y12.9111
 X99.3487 Y12.7496
 X99.2181 Y12.6043
 X99.0700 Y12.4775
 X98.9069 Y12.3714
 X98.7311 Y12.2883
 X98.5449 Y12.2305
 X98.3932 Y12.2073
 X98.2122 Y12.1998
 X98.0315 Y12.2076
 X97.8807 Y12.2305
G0 Z1.0
 X102.0580 Y12.2386
G1 Z0.0
 X101.9250 Y12.2764
 X101.8180 Y12.3169
 X101.7180 Y12.3686
 X101.6040 Y12.4397
 X101.3990 Y12.6081
 X101.2240 Y12.8153
 X101.0900 Y13.0483
 X101.0040 Y13.2941
 X100.9810 Y13.4537
 X100.9730 Y13.6436
 X100.9810 Y13.8303
 X101.0040 Y13.9806
 X101.0240 Y14.0433
 X101.0530 Y14.1221
 X101.0880 Y14.2064
 X101.1240 Y14.2864
 X101.1730 Y14.3746
 X101.2330 Y14.4640
 X101.3030 Y14.5526
 X101.3810 Y14.6378
 X101.4640 Y14.7178
 X101.5500 Y14.7899
 X101.6370 Y14.8522
 X101.7230 Y14.9024
 X101.8870 Y14.9753
 X102.0580 Y15.0272
 X102.2340 Y15.0585
 X102.4110 Y15.0690
 X102.5870 Y15.0587
 X102.7610 Y15.0278
 X102.9280 Y14.9763
 X103.0870 Y14.9037
 X103.2010 Y14.8344
 X103.3100 Y14.7525
 X103.4120 Y14.6596
 X103.5060 Y14.5574
 X103.5900 Y14.4474
 X103.6630 Y14.3315
 X103.7240 Y14.2111
 X103.7720 Y14.0878
 X103.8120 Y13.9376
 X103.8350 Y13.7875
 X103.8430 Y13.6382
 X103.8350 Y13.4909
 X103.8130 Y13.3465
 X103.7770 Y13.2061
 X103.7270 Y13.0705
 X103.6630 Y12.9409
 X103.5870 Y12.8183
 X103.5000 Y12.7036
 X103.4000 Y12.5977
 X103.2900 Y12.5018
 X103.1690 Y12.4168
 X103.0390 Y12.3437
 X102.8990 Y12.2835
 X102.7510 Y12.2371
 X102.5840 Y12.2078
 X102.4030 Y12.1982
 X102.2230 Y12.2084
 X102.0590 Y12.2386
G0 X102.0580 Z1.0
 X97.8697 Y17.7161
G1 Z0.0
 X97.7358 Y17.7617
 X97.5928 Y17.8260
 X97.4532 Y17.9029
 X97.3296 Y17.9864
 X97.1725 Y18.1267
 X97.0376 Y18.2917
 X96.9272 Y18.4787
 X96.8432 Y18.6849
 X96.8018 Y18.8696
 X96.7839 Y19.0808
 X96.7900 Y19.2917
 X96.8210 Y19.4747
 X96.9046 Y19.7062
 X97.0210 Y19.9154
 X97.1669 Y20.0994
 X97.3388 Y20.2560
 X97.5332 Y20.3822
 X97.7468 Y20.4757
 X97.9764 Y20.5338
 X98.2182 Y20.5536
 X98.4511 Y20.5354
 X98.6722 Y20.4825
 X98.8789 Y20.3968
 X99.0682 Y20.2804
 X99.2371 Y20.1356
 X99.3828 Y19.9642
 X99.5025 Y19.7685
 X99.5935 Y19.5506
 X99.6226 Y19.4535
 X99.6399 Y19.3651
 X99.6481 Y19.2613
 X99.6501 Y19.1178
 X99.6481 Y18.9749
 X99.6399 Y18.8710
 X99.6226 Y18.7824
 X99.5935 Y18.6849
 X99.5236 Y18.5100
 X99.4339 Y18.3478
 X99.3257 Y18.1994
 X99.2004 Y18.0667
 X99.0596 Y17.9504
 X98.9044 Y17.8521
 X98.7367 Y17.7731
 X98.5572 Y17.7147
 X98.4044 Y17.6924
 X98.2124 Y17.6853
 X98.0208 Y17.6935
 X97.8697 Y17.7175
G0 Y17.7161 Z1.0
 X102.0320 Y17.7246
G1 Z0.0
 X101.8540 Y17.7840
 X101.6940 Y17.8640
 X101.5430 Y17.9696
 X101.3930 Y18.1049
 X101.2040 Y18.3283
 X101.0720 Y18.5643
 X100.9960 Y18.8217
 X100.9720 Y19.1096
 X100.9960 Y19.4025
 X101.0700 Y19.6631
 X101.1980 Y19.8993
 X101.3840 Y20.1196
 X101.5180 Y20.2447
 X101.6490 Y20.3419
 X101.7880 Y20.4194
 X101.9460 Y20.4847
 X102.0370 Y20.5144
 X102.1230 Y20.5311
 X102.2300 Y20.5388
 X102.3860 Y20.5411
 X102.5450 Y20.5403
 X102.6560 Y20.5325
 X102.7490 Y20.5140
 X102.8590 Y20.4806
 X103.0160 Y20.4194
 X103.1610 Y20.3417
 X103.2960 Y20.2481
 X103.4180 Y20.1396
 X103.5280 Y20.0168
 X103.6240 Y19.8807
 X103.7050 Y19.7318
 X103.7720 Y19.5711
 X103.8030 Y19.4726
 X103.8210 Y19.3844
 X103.8290 Y19.2761
 X103.8310 Y19.1178
 X103.8290 Y18.9569
 X103.8210 Y18.8487
 X103.8020 Y18.7585
 X103.7660 Y18.6521
 X103.7010 Y18.4969
 X103.6210 Y18.3524
 X103.5270 Y18.2193
 X103.4190 Y18.0982
 X103.2980 Y17.9903
 X103.1660 Y17.8961
 X103.0220 Y17.8165
 X102.8680 Y17.7521
 X102.6780 Y17.7071
 X102.4550 Y17.6867
 X102.2280 Y17.6921
 X102.0320 Y17.7246
G0 Z1.0
 X111.4940 Y16.4321
G1 Z0.0
 X111.4890 Y16.4608
 X111.4850 Y16.5299
 X111.4820 Y16.6289
 X111.4810 Y16.7474
 Y17.0479
 X111.6450 Y17.0547
 X111.8070 Y17.0603
 X111.8130 Y17.5938
 X111.8200 Y18.1268
 X111.6710
 Y18.9290
 X112.4510
 Y18.1268
 X112.3030
 Y17.0508
 X112.6200
 Y16.4169
 X112.0650
 X111.8480 Y16.4181
 X111.6680 Y16.4212
 X111.5440 Y16.4261
 X111.4940 Y16.4321
G0 Z1.0
 X117.5840 Y8.1470
G1 Z0.0
 X117.3510 Y8.1917
 X117.1250 Y8.2635
 X116.9090 Y8.3606
 X116.7060 Y8.4813
 X116.5190 Y8.6241
 X116.3480 Y8.7871
 X116.1980 Y8.9686
 X116.0710 Y9.1669
 X115.9750 Y9.3625
 X115.9020 Y9.5630
 X115.8510 Y9.7669
 X115.8220 Y9.9725
 X115.8150 Y10.1784
 X115.8280 Y10.3828
 X115.8620 Y10.5842
 X115.9160 Y10.7810
 X115.9880 Y10.9715
 X116.0800 Y11.1542
 X116.1900 Y11.3275
 X116.3170 Y11.4897
 X116.4620 Y11.6393
 X116.6230 Y11.7747
 X116.8010 Y11.8942
 X116.9940 Y11.9962
 X117.1930 Y12.0783
 X117.3820 Y12.1296
 X117.5900 Y12.1559
 X117.8430 Y12.1627
 X117.9840 Y12.1609
 X118.1060 Y12.1547
 X118.2150 Y12.1430
 X118.3150 Y12.1249
 X118.4120 Y12.0993
 X118.5100 Y12.0653
 X118.6140 Y12.0216
 X118.7290 Y11.9673
 X118.9200 Y11.8595
 X119.0960 Y11.7326
 X119.2580 Y11.5881
 X119.4040 Y11.4276
 X119.5320 Y11.2527
 X119.6410 Y11.0649
 X119.7300 Y10.8657
 X119.7980 Y10.6567
 X119.8200 Y10.5523
 X119.8360 Y10.4300
 X119.8450 Y10.2958
 X119.8480 Y10.1561
 X119.8450 Y10.0167
 X119.8360 Y9.8838
 X119.8200 Y9.7634
 X119.7980 Y9.6615
 X119.6930 Y9.3625
 X119.5500 Y9.0894
 X119.3720 Y8.8448
 X119.1630 Y8.6315
 X118.9250 Y8.4524
 X118.6620 Y8.3101
 X118.3770 Y8.2074
 X118.0730 Y8.1470
 X117.9350 Y8.1332
 X117.8220 Y8.1285
 X117.7110 Y8.1332
 X117.5830 Y8.1470
G0 X117.5840 Z1.0
 X13.3367 Y1.0763
G1 Z0.0
 X13.3226 Y1.0992
 X13.3169 Y1.1249
 X13.3121 Y1.1679
 X13.3079 Y1.2342
 X13.3045 Y1.3295
 X13.3017 Y1.4599
 X13.2994 Y1.6310
 X13.2976 Y1.8490
 X13.2963 Y2.1196
 X13.2954 Y2.4486
 X13.2947 Y2.8421
 X13.2943 Y3.3058
 X13.2941 Y3.8457
 Y9.2357
 X13.2387 Y9.3708
 X13.1859 Y9.5100
 X13.1381 Y9.6534
 X13.1306 Y9.6801
 X13.1240 Y9.7076
 X13.1182 Y9.7389
 X13.1132 Y9.7774
 X13.1088 Y9.8261
 X13.1051 Y9.8884
 X13.1021 Y9.9673
 X13.0994 Y10.0661
 X13.0972 Y10.1880
 X13.0954 Y10.3361
 X13.0940 Y10.5136
 X13.0927 Y10.7238
 X13.0916 Y10.9698
 X13.0907 Y11.2548
 X13.0897 Y11.5820
 X13.0888 Y11.9546
 X13.0876 Y12.4667
 X13.0872 Y12.9132
 X13.0877 Y13.2948
 X13.0890 Y13.6121
 X13.0913 Y13.8661
 X13.0946 Y14.0574
 X13.0987 Y14.1867
 X13.1039 Y14.2547
 X13.1183 Y14.3282
 X13.1408 Y14.4192
 X13.1683 Y14.5161
 X13.1974 Y14.6075
 X13.2929 Y14.8386
 X13.4158 Y15.0532
 X13.5640 Y15.2493
 X13.7355 Y15.4253
 X13.9281 Y15.5792
 X14.1400 Y15.7092
 X14.3688 Y15.8136
 X14.6128 Y15.8906
 X14.8157 Y15.9250
 X15.0488 Y15.9390
 X15.2815 Y15.9319
 X15.4837 Y15.9029
 X15.7876 Y15.8104
 X16.0676 Y15.6758
 X16.3201 Y15.5032
 X16.5418 Y15.2960
 X16.7290 Y15.0582
 X16.8782 Y14.7933
 X16.9861 Y14.5054
 X17.0490 Y14.1982
 X17.0539 Y14.1329
 X17.0583 Y14.0190
 X17.0621 Y13.8598
 X17.0653 Y13.6587
 X17.0679 Y13.4191
 X17.0697 Y13.1444
 X17.0708 Y12.8379
 X17.0713 Y12.5032
 Y10.9830
 X20.0311 Y8.0246
 X22.9913 Y5.0645
 X31.0197
 X30.9343 Y5.1749
 X30.8879 Y5.2411
 X30.8387 Y5.3213
 X30.7888 Y5.4116
 X30.7399 Y5.5080
 X30.6939 Y5.6066
 X30.6531 Y5.7035
 X30.6190 Y5.7947
 X30.5940 Y5.8762
 X30.5860 Y5.9070
 X30.5789 Y5.9398
 X30.5726 Y5.9807
 X30.5674 Y6.0355
 X30.5626 Y6.1103
 X30.5585 Y6.2111
 X30.5549 Y6.3438
 X30.5517 Y6.5143
 X30.5488 Y6.7288
 X30.5461 Y6.9931
 X30.5435 Y7.3133
 X30.5410 Y7.6952
 X30.5383 Y8.1450
 X30.5354 Y8.6685
 X30.5325 Y9.2718
 X30.5290 Y9.9607
 X30.5256 Y10.8081
 X30.5228 Y11.6479
 X30.5208 Y12.4742
 X30.5196 Y13.2809
 X30.5190 Y14.0618
 X30.5192 Y14.8108
 X30.5201 Y15.5221
 X30.5215 Y16.1893
 X30.5237 Y16.8064
 X30.5267 Y17.3674
 X30.5301 Y17.8661
 X30.5343 Y18.2965
 X30.5389 Y18.6525
 X30.5443 Y18.9279
 X30.5501 Y19.1168
 X30.5565 Y19.2131
 X30.6014 Y19.4390
 X30.6711 Y19.6589
 X30.7638 Y19.8678
 X30.8776 Y20.0603
 X30.9507 Y20.1694
 X30.8529 Y20.2657
 X30.8229 Y20.2951
 X30.7982 Y20.3175
 X30.7774 Y20.3339
 X30.7587 Y20.3449
 X30.7411 Y20.3511
 X30.7231 Y20.3536
 X30.7029 Y20.3528
 X30.6793 Y20.3496
 X30.6399 Y20.3457
 X30.6094 Y20.3490
 X30.5836 Y20.3606
 X30.5579 Y20.3814
 X30.5139 Y20.4268
 Y22.6499
 X30.5140 Y22.9290
 X30.5143 Y23.1739
 X30.5149 Y23.3867
 X30.5156 Y23.5697
 X30.5165 Y23.7254
 X30.5178 Y23.8561
 X30.5194 Y23.9642
 X30.5214 Y24.0515
 X30.5239 Y24.1210
 X30.5268 Y24.1746
 X30.5303 Y24.2147
 X30.5342 Y24.2436
 X30.5388 Y24.2638
 X30.5439 Y24.2772
 X30.5869 Y24.3321
 X44.5879 Y24.3735
 X45.6678 Y24.3765
 X46.7287 Y24.3794
 X47.7750 Y24.3821
 X48.8108 Y24.3847
 X49.8400 Y24.3872
 X50.8668 Y24.3894
 X51.8956 Y24.3917
 X52.9300 Y24.3937
 X53.9746 Y24.3957
 X55.0332 Y24.3975
 X56.1100 Y24.3992
 X57.2092 Y24.4008
 X58.3349 Y24.4022
 X59.4910 Y24.4037
 X60.6819 Y24.4050
 X61.9117 Y24.4061
 X63.1842 Y24.4072
 X64.5039 Y24.4082
 X65.8747 Y24.4092
 X67.3007 Y24.4100
 X68.7862 Y24.4108
 X70.3351 Y24.4114
 X71.9518 Y24.4121
 X73.6401 Y24.4126
 X75.4043 Y24.4132
 X77.2483 Y24.4135
 X79.1765 Y24.4139
 X81.1929 Y24.4142
 X83.3017 Y24.4144
 X87.8125 Y24.4150
 X100.3610
 X101.4500 Y24.4149
 X102.5020
 X103.5170 Y24.4147
 X104.4970
 X105.4400 Y24.4146
 X106.3490 Y24.4144
 X107.2240
 X108.8740 Y24.4142
 X109.6510 Y24.4139
 X110.3960 Y24.4138
 X111.1100 Y24.4136
 X111.7940 Y24.4135
 X112.4480 Y24.4132
 X113.0730 Y24.4129
 X113.6710 Y24.4126
 X114.2400 Y24.4124
 X114.7830 Y24.4121
 X115.3000 Y24.4117
 X115.7900 Y24.4114
 X116.2560 Y24.4110
 X116.6980 Y24.4106
 X117.1160 Y24.4101
 X117.5100 Y24.4097
 X117.8830 Y24.4092
 X118.2330 Y24.4088
 X118.5630 Y24.4082
 X118.8730 Y24.4075
 X119.1620 Y24.4069
 X119.4320 Y24.4064
 X119.6840 Y24.4057
 X119.9180 Y24.4050
 X120.1350 Y24.4043
 X120.3360 Y24.4035
 X120.5200 Y24.4026
 X120.6900 Y24.4018
 X120.8450 Y24.4010
 X120.9860 Y24.4000
 X121.1130 Y24.3990
 X121.2290 Y24.3981
 X121.3320 Y24.3971
 X121.4240 Y24.3960
 X121.5050 Y24.3949
 X121.5770 Y24.3937
 X121.6380 Y24.3925
 X121.6920 Y24.3913
 X121.7370 Y24.3900
 X121.7750 Y24.3886
 X121.8060 Y24.3874
 X121.8320 Y24.3858
 X121.8510 Y24.3844
 X121.8660 Y24.3829
 X121.8850 Y24.3797
 X121.8970 Y24.3646
 X121.9020 Y24.3393
 X121.9070 Y24.2949
 X121.9100 Y24.2256
 X121.9140 Y24.1258
 X121.9160 Y23.9903
 X121.9190 Y23.8133
 X121.9210 Y23.5892
 X121.9220 Y23.3125
 X121.9230 Y22.9776
 X121.9240 Y22.5789
 X121.9250 Y22.1110
 X121.9260 Y21.5682
 Y17.2932
 X121.9250 Y16.7493
 X121.9240 Y16.2810
 X121.9230 Y15.8825
 X121.9220 Y15.5482
 X121.9210 Y15.2725
 X121.9190 Y15.0496
 X121.9160 Y14.8740
 X121.9140 Y14.7399
 X121.9100 Y14.6414
 X121.9070 Y14.5733
 X121.9020 Y14.5296
 X121.8970 Y14.5049
 X121.8830 Y14.4867
 X121.8660 Y14.4808
 X121.8360 Y14.4757
 X121.7870 Y14.4714
 X121.7140 Y14.4676
 X121.6110 Y14.4644
 X121.4730 Y14.4619
 X121.2940 Y14.4599
 X121.0700 Y14.4581
 X120.7940 Y14.4568
 X120.4610 Y14.4558
 X120.0660 Y14.4551
 X119.6030 Y14.4547
 X119.0670 Y14.4546
 X118.4530 Y14.4544
 X117.7550 Y14.4543
 X117.0380 Y14.4544
 X116.4090
 X115.8640 Y14.4547
 X115.3950 Y14.4551
 X114.9980 Y14.4557
 X114.6650 Y14.4567
 X114.3920 Y14.4579
 X114.1720 Y14.4597
 X113.9990 Y14.4621
 X113.8680 Y14.4649
 X113.7710 Y14.4682
 X113.7040 Y14.4725
 X113.6610 Y14.4774
 X113.6350 Y14.4831
 X113.6210 Y14.4896
 X113.6050 Y14.5054
 X113.5930 Y14.5353
 X113.5880 Y14.5642
 X113.5840 Y14.6069
 X113.5810 Y14.6675
 X113.5780 Y14.7492
 X113.5760 Y14.8556
 X113.5740 Y14.9904
 X113.5720 Y15.1571
 X113.5710 Y15.3594
 Y15.6007
 X113.5700 Y15.8847
 Y19.5189
 X110.2780
 Y11.9327
 X102.9270 Y4.5794
 X95.6868
 X95.0782 Y4.5795
 X94.5044
 X93.9644
 X93.4574 Y4.5796
 X92.9819 Y4.5797
 X92.5371 Y4.5799
 X92.1221 Y4.5801
 X91.7357 Y4.5804
 X91.3771 Y4.5807
 X91.0449 Y4.5811
 X90.7383 Y4.5815
 X90.4564 Y4.5820
 X90.1979 Y4.5826
 X89.9621 Y4.5833
 X89.7476 Y4.5840
 X89.5536 Y4.5849
 X89.3792 Y4.5858
 X89.2231 Y4.5868
 X89.0843 Y4.5879
 X88.9619 Y4.5891
 X88.8549 Y4.5905
 X88.7622 Y4.5920
 X88.6828 Y4.5935
 X88.6157 Y4.5952
 X88.5597 Y4.5971
 X88.5140 Y4.5990
 X88.4775 Y4.6011
 X88.4492 Y4.6034
 X88.4279 Y4.6059
 X88.4129 Y4.6084
 X88.3969 Y4.6140
 X88.3710 Y4.6354
 X88.3579 Y4.6601
 X88.3554 Y4.6973
 X88.3614 Y4.7558
 X88.3736 Y4.8634
 X88.2219 Y5.0162
 X88.1722 Y5.0662
 X88.1340 Y5.1035
 X88.1047 Y5.1293
 X88.0821 Y5.1453
 X88.0631 Y5.1528
 X88.0456 Y5.1533
 X88.0268 Y5.1482
 X88.0043 Y5.1389
 X87.8689 Y5.1023
 X87.7197 Y5.0954
 X87.5663 Y5.1183
 X87.4186 Y5.1707
 X87.3103 Y5.2319
 X87.2188 Y5.3082
 X87.1411 Y5.4024
 X87.0740 Y5.5178
 X87.0329 Y5.6068
 X87.0096 Y5.6763
 X86.9992 Y5.7469
 X86.9968 Y5.8388
 X87.0079 Y5.9897
 X87.0431 Y6.1230
 X87.1039 Y6.2441
 X87.1925 Y6.3585
 X87.3561 Y6.4937
 X87.5463 Y6.5768
 X87.7521 Y6.6048
 X87.9631 Y6.5747
 X88.0854 Y6.5391
 X88.2304 Y6.6823
 X88.2981 Y6.7524
 X88.3450 Y6.8095
 X88.3708 Y6.8558
 X88.3747 Y6.8940
 X88.3564 Y6.9266
 X88.3153 Y6.9561
 X88.2508 Y6.9850
 X88.1626 Y7.0157
 X88.0215 Y7.0648
 X87.9383 Y7.1046
 X87.8986 Y7.1444
 X87.8886 Y7.1935
 X87.8914 Y7.2131
 X87.9008 Y7.2361
 X87.9189 Y7.2644
 X87.9469 Y7.3000
 X87.9868 Y7.3449
 X88.0401 Y7.4013
 X88.1089 Y7.4710
 X88.1944 Y7.5561
 X88.5003 Y7.8578
 Y10.2679
 X88.5004 Y10.5810
 X88.5006 Y10.8532
 X88.5010 Y11.0874
 X88.5015 Y11.2866
 X88.5025 Y11.4537
 X88.5039 Y11.5916
 X88.5057 Y11.7033
 X88.5079 Y11.7918
 X88.5107 Y11.8600
 X88.5142 Y11.9108
 X88.5183 Y11.9472
 X88.5232 Y11.9720
 X88.5289 Y11.9883
 X88.5429 Y12.0072
 X88.5828 Y12.0368
 X88.6239 Y12.0472
 X88.6674 Y12.0384
 X88.7140 Y12.0100
 X88.7601 Y11.9841
 X88.8489 Y11.9416
 X88.9672 Y11.8885
 X89.1025 Y11.8307
 X89.4401 Y11.6900
 X90.2490
 X90.6032 Y11.8375
 X90.9560 Y11.9835
 X91.4908 Y12.5155
 X91.6421 Y12.8792
 X91.7939 Y13.2419
 Y14.0271
 X91.4989 Y14.7383
 X91.2400 Y14.9988
 X91.1347 Y15.1026
 X91.0392 Y15.1925
 X90.9642 Y15.2585
 X90.9204 Y15.2908
 X90.8735 Y15.3137
 X90.7901 Y15.3519
 X90.6825 Y15.3999
 X90.5619 Y15.4521
 X90.2628 Y15.5804
 X89.4965 Y15.5969
 X89.2267 Y15.4894
 X89.1082 Y15.4408
 X88.9856 Y15.3883
 X88.8736 Y15.3381
 X88.7871 Y15.2964
 X88.6187 Y15.2125
 X88.5113 Y15.2922
 X88.5074 Y16.2390
 X88.5017 Y17.1856
 X88.6217 Y17.3083
 X88.6736 Y17.3569
 X88.7213 Y17.3953
 X88.7606 Y17.4207
 X88.7871 Y17.4297
 X88.8276 Y17.4193
 X88.9069 Y17.3911
 X89.0135 Y17.3494
 X89.1357 Y17.2989
 X89.4401 Y17.1665
 X90.1897 Y17.1528
 X90.5647 Y17.3031
 X90.9394 Y17.4543
 X91.2178 Y17.7299
 X91.4961 Y18.0072
 X91.6450 Y18.3653
 X91.7939 Y18.7222
 Y19.5089
 X91.4961 Y20.2283
 X91.2290 Y20.4957
 X90.9603 Y20.7617
 X90.2547 Y21.0594
 X89.4372
 X89.1011 Y20.9201
 X88.7649 Y20.7825
 X88.4769 Y20.4943
 X88.1874 Y20.2078
 X87.8900 Y19.4938
 Y18.7014
 X87.7947 Y18.6147
 X87.7247 Y18.5578
 X87.6682 Y18.5325
 X87.6190 Y18.5376
 X87.5714 Y18.5719
 X87.5501 Y18.5968
 X87.5392 Y18.6204
 X87.5374 Y18.6475
 X87.5439 Y18.6824
 X87.5507 Y18.7399
 X87.5557 Y18.8463
 X87.5586 Y18.9869
 X87.5590 Y19.1467
 X87.5562 Y19.5435
 X87.4339 Y19.8399
 X87.3943 Y19.9353
 X87.3631 Y20.0083
 X87.3378 Y20.0625
 X87.3161 Y20.1015
 X87.2958 Y20.1292
 X87.2746 Y20.1490
 X87.2501 Y20.1649
 X87.2200 Y20.1803
 X87.1290 Y20.2244
 X86.8507 Y19.9461
 X86.9379 Y19.7696
 X87.0115 Y19.6026
 X87.0585 Y19.4519
 X87.0833 Y19.2971
 X87.0906 Y19.1178
 X87.0833 Y18.9386
 X87.0583 Y18.7839
 X87.0110 Y18.6329
 X86.9365 Y18.4644
 X86.8851 Y18.3675
 X86.8304 Y18.2844
 X86.7613 Y18.2012
 X86.6676 Y18.1035
 X86.5501 Y17.9956
 X86.4300 Y17.9046
 X86.3062 Y17.8304
 X86.1774 Y17.7721
 X86.0418 Y17.7294
 X85.8983 Y17.7017
 X85.7454 Y17.6882
 X85.5818 Y17.6886
 X85.4003 Y17.7040
 X85.2426 Y17.7356
 X85.0975 Y17.7868
 X84.9531 Y17.8611
 X84.8350 Y17.9313
 X84.6900 Y17.7867
 X84.5467 Y17.6417
 X84.5894 Y17.5535
 X84.6040 Y17.5249
 X84.6197 Y17.5015
 X84.6408 Y17.4807
 X84.6717 Y17.4601
 X84.7164 Y17.4374
 X84.7796 Y17.4099
 X84.8654 Y17.3750
 X84.9782 Y17.3306
 X85.3253 Y17.1940
 X85.7113 Y17.2078
 X86.0957 Y17.2215
 X86.3864 Y17.3415
 X86.4797 Y17.3806
 X86.5511 Y17.4115
 X86.6042 Y17.4365
 X86.6426 Y17.4579
 X86.6697 Y17.4781
 X86.6892 Y17.4992
 X86.7047 Y17.5236
 X86.7199 Y17.5535
 X86.7743 Y17.6382
 X86.8328 Y17.6807
 X86.8942 Y17.6799
 X86.9569 Y17.6350
 X87.0038 Y17.5853
 Y15.9897
 X87.0035 Y15.8301
 X87.0031 Y15.6925
 X87.0025 Y15.5753
 X87.0015 Y15.4767
 X87.0001 Y15.3947
 X86.9983 Y15.3278
 X86.9960 Y15.2742
 X86.9931 Y15.2321
 X86.9894 Y15.1999
 X86.9851 Y15.1754
 X86.9801 Y15.1574
 X86.9743 Y15.1437
 X86.9597 Y15.1229
 X86.8996 Y15.0724
 X86.8372 Y15.0685
 X86.7763 Y15.1101
 X86.7199 Y15.1960
 X86.7049 Y15.2258
 X86.6893 Y15.2503
 X86.6686 Y15.2715
 X86.6386 Y15.2922
 X86.5949 Y15.3150
 X86.5332 Y15.3424
 X86.4489 Y15.3767
 X86.3381 Y15.4207
 X86.0006 Y15.5554
 X85.6107 Y15.5417
 X85.2206 Y15.5293
 X84.9271 Y15.4093
 X84.8328 Y15.3703
 X84.7608 Y15.3393
 X84.7072 Y15.3142
 X84.6686 Y15.2926
 X84.6411 Y15.2726
 X84.6215 Y15.2518
 X84.6058 Y15.2279
 X84.5908 Y15.1988
 X84.5467 Y15.1076
 X84.8265 Y14.8279
 X85.0015 Y14.9147
 X85.1632 Y14.9854
 X85.3185 Y15.0324
 X85.4808 Y15.0585
 X85.6643 Y15.0664
 X85.8685 Y15.0533
 X86.0635 Y15.0133
 X86.2474 Y14.9479
 X86.4186 Y14.8581
 X86.5753 Y14.7447
 X86.7156 Y14.6090
 X86.8378 Y14.4521
 X86.9403 Y14.2751
 X87.0114 Y14.1151
 X87.0574 Y13.9671
 X87.0824 Y13.8147
 X87.0906 Y13.6415
 X87.0736 Y13.4111
 X87.0214 Y13.1902
 X86.9365 Y12.9826
 X86.8214 Y12.7919
 X86.6788 Y12.6215
 X86.5111 Y12.4752
 X86.3210 Y12.3564
 X86.1110 Y12.2689
 X85.8296 Y12.2073
 X85.5465 Y12.2019
 X85.2686 Y12.2521
 X85.0029 Y12.3571
 X84.9361 Y12.3915
 X84.8858 Y12.4154
 X84.8471 Y12.4277
 X84.8150 Y12.4273
 X84.7849 Y12.4131
 X84.7517 Y12.3841
 X84.7107 Y12.3391
 X84.6572 Y12.2770
 X84.5496 Y12.1532
 X84.5865 Y12.0692
 X84.6103 Y12.0256
 X84.6381 Y11.9944
 X84.6768 Y11.9699
 X84.7331 Y11.9465
 X84.8203 Y11.9030
 X84.8708 Y11.8524
 X84.8833 Y11.7961
 X84.8568 Y11.7355
 X84.8142 Y11.6790
 X83.6292 Y11.6748
 X83.3513 Y11.6738
 X83.1088 Y11.6737
 X82.9018 Y11.6743
 X82.7304 Y11.6758
 X82.5949 Y11.6782
 X82.4949 Y11.6813
 X82.4308 Y11.6853
 X82.4025 Y11.6900
 X82.3696 Y11.7204
 X82.3501 Y11.7631
 X82.3464 Y11.8111
 X82.3599 Y11.8569
 X82.3767 Y11.8770
 X82.4057 Y11.9003
 X82.4428 Y11.9236
 X82.4836 Y11.9436
 X82.5447 Y11.9788
 X82.6233 Y12.0395
 X82.7240 Y12.1302
 X82.8517 Y12.2552
 X83.1190 Y12.5240
 X83.2679 Y12.8767
 X83.4154 Y13.2281
 Y14.0271
 X83.3011 Y14.3097
 X83.2546 Y14.4256
 X83.2115 Y14.5311
 X83.1767 Y14.6149
 X83.1550 Y14.6653
 X83.1203 Y14.7161
 X83.0497 Y14.7992
 X82.9536 Y14.9031
 X82.8421 Y15.0167
 X82.5610 Y15.2936
 X82.2138 Y15.4382
 X81.8653 Y15.5832
 X81.0631
 X80.7282 Y15.4411
 X80.5921 Y15.3808
 X80.4701 Y15.3221
 X80.3756 Y15.2714
 X80.3219 Y15.2358
 X80.2794 Y15.2015
 X80.2425 Y15.1799
 X80.2090 Y15.1719
 X80.1764 Y15.1786
 X80.1426 Y15.2007
 X80.1051 Y15.2393
 X80.0618 Y15.2953
 X80.0104 Y15.3694
 X79.9671 Y15.4260
 X79.8981 Y15.5064
 X79.8071 Y15.6071
 X79.6975 Y15.7244
 X79.5731 Y15.8549
 X79.4372 Y15.9947
 X79.2939 Y16.1404
 X79.1464 Y16.2885
 X78.9983 Y16.4353
 X78.8533 Y16.5771
 X78.7151 Y16.7104
 X78.5872 Y16.8317
 X78.4732 Y16.9372
 X78.3765 Y17.0236
 X78.3011 Y17.0869
 X78.2503 Y17.1238
 X78.1396 Y17.2108
 X78.0967 Y17.2935
 X78.1215 Y17.3682
 X78.2147 Y17.4311
 X78.2607 Y17.4539
 X78.2971 Y17.4806
 X78.3268 Y17.5142
 X78.3526 Y17.5578
 X78.3978 Y17.6474
 X78.2574 Y17.7881
 X78.1171 Y17.9299
 X77.9335 Y17.8375
 X77.7683 Y17.7635
 X77.6179 Y17.7160
 X77.4633 Y17.6907
 X77.2858 Y17.6833
 X77.0767 Y17.6967
 X76.8793 Y17.7357
 X76.6982 Y17.7996
 X76.5376 Y17.8872
 X76.4632 Y17.9367
 X76.1739 Y17.6474
 X76.2399 Y17.5179
 X76.2832 Y17.4250
 X76.3006 Y17.3643
 X76.2931 Y17.3215
 X76.2621 Y17.2822
 X76.2456 Y17.2686
 X76.2190 Y17.2582
 X76.1714 Y17.2506
 X76.0915 Y17.2454
 X75.9682 Y17.2422
 X75.7907 Y17.2404
 X75.5478 Y17.2397
 X75.2285 Y17.2396
 X74.9092 Y17.2397
 X74.6664 Y17.2404
 X74.4890 Y17.2422
 X74.3661 Y17.2454
 X74.2862 Y17.2506
 X74.2385 Y17.2582
 X74.2117 Y17.2686
 X74.1949 Y17.2822
 X74.1701 Y17.3110
 X74.1572 Y17.3397
 X74.1588 Y17.3722
 X74.1765 Y17.4122
 X74.2129 Y17.4636
 X74.2703 Y17.5301
 X74.3510 Y17.6154
 X74.4569 Y17.7232
 X74.7614 Y18.0319
 X74.9117 Y18.3971
 X75.0631 Y18.7607
 X75.0562 Y19.1357
 X75.0493 Y19.5089
 X74.9046 Y19.8607
 X74.7586 Y20.2121
 X74.4801 Y20.4890
 X74.2019 Y20.7674
 X73.8572 Y20.9133
 X73.5143 Y21.0594
 X72.6956
 X72.3469 Y20.9176
 X71.9999 Y20.7740
 X71.7186 Y20.4904
 X71.4375 Y20.2050
 X71.2971 Y19.8632
 X71.1564 Y19.5228
 Y18.7153
 X71.2957 Y18.3738
 X71.4361 Y18.0319
 X71.7392 Y17.7246
 X71.8458 Y17.6158
 X71.9275 Y17.5290
 X71.9861 Y17.4607
 X72.0236 Y17.4075
 X72.0419 Y17.3657
 X72.0435 Y17.3321
 X72.0300 Y17.3031
 X72.0038 Y17.2751
 X71.9751 Y17.2581
 X71.9286 Y17.2471
 X71.8549 Y17.2413
 X71.7447 Y17.2396
 X71.5811 Y17.2329
 X71.4331 Y17.2161
 X71.3097 Y17.1900
 X71.2199 Y17.1556
 X71.1657 Y17.1235
 X71.1025 Y17.0778
 X71.0249 Y17.0137
 X70.9276 Y16.9265
 X70.8056 Y16.8114
 X70.6535 Y16.6635
 X70.4662 Y16.4779
 X70.2387 Y16.2500
 X70.0872 Y16.0993
 X69.9476 Y15.9615
 X69.8219 Y15.8390
 X69.7126 Y15.7339
 X69.6219 Y15.6483
 X69.5519 Y15.5844
 X69.5050 Y15.5446
 X69.4835 Y15.5307
 X69.4600 Y15.5333
 X69.4261 Y15.5406
 X69.3856 Y15.5511
 X69.3428 Y15.5639
 X69.2768 Y15.5797
 X69.1879 Y15.5888
 X69.0596 Y15.5919
 X68.8757 Y15.5900
 X68.5076 Y15.5832
 X68.1592 Y15.4368
 X67.8119 Y15.2922
 X67.5351 Y15.0153
 X67.2578 Y14.7397
 X67.1187 Y14.4050
 X66.9781 Y14.0699
 Y13.2087
 X67.1089 Y12.8877
 X67.2387 Y12.5666
 X67.5251 Y12.2745
 X67.6672 Y12.1322
 X67.7737 Y12.0338
 X67.8553 Y11.9704
 X67.9221 Y11.9327
 X67.9861 Y11.8998
 X68.0224 Y11.8684
 X68.0365 Y11.8306
 X68.0339 Y11.7782
 X68.0415 Y11.7459
 X68.0667 Y11.7094
 X68.0817 Y11.6967
 X68.1067 Y11.6870
 X68.1511 Y11.6799
 X68.2240 Y11.6751
 X68.3349 Y11.6720
 X68.4925 Y11.6704
 X68.7067 Y11.6697
 X68.9861 Y11.6695
 X69.8694
 X69.8267 Y11.7108
 X69.7968 Y11.7540
 X69.7860 Y11.8012
 X69.7942 Y11.8466
 X69.8211 Y11.8844
 X69.8432 Y11.9003
 X69.8754 Y11.9197
 X69.9136 Y11.9399
 X69.9533 Y11.9588
 X70.0115 Y11.9936
 X70.0890 Y12.0561
 X70.1882 Y12.1485
 X70.3118 Y12.2731
 X70.5764 Y12.5444
 X70.6808 Y12.7981
 X70.7869 Y13.0517
 Y14.2325
 X70.7292 Y14.3553
 X70.6885 Y14.4479
 X70.6739 Y14.5110
 X70.6847 Y14.5575
 X70.7210 Y14.6004
 X70.7428 Y14.6258
 X70.7617 Y14.6588
 X70.7763 Y14.6963
 X70.7856 Y14.7356
 X70.7928 Y14.7657
 X70.8085 Y14.7992
 X70.8378 Y14.8415
 X70.8861 Y14.8990
 X70.9586 Y14.9776
 X71.0606 Y15.0831
 X71.1974 Y15.2214
 X71.3740 Y15.3983
 X71.9486 Y15.9744
 X73.6742
 X74.1078 Y15.9742
 X74.4736 Y15.9732
 X74.7754 Y15.9714
 X75.0165 Y15.9688
 X75.2006 Y15.9654
 X75.3311 Y15.9611
 X75.4118 Y15.9560
 X75.4461 Y15.9499
 X75.4733 Y15.9325
 X75.5119 Y15.9025
 X75.5569 Y15.8640
 X75.6035 Y15.8214
 X75.7150 Y15.7181
 X76.2318 Y15.7222
 X76.3899 Y15.7235
 X76.5129 Y15.7237
 X76.6058 Y15.7228
 X76.6735 Y15.7203
 X76.7208 Y15.7158
 X76.7528 Y15.7094
 X76.7740 Y15.7007
 X76.7899 Y15.6890
 X76.8197 Y15.6499
 X76.8307 Y15.6060
 X76.8228 Y15.5628
 X76.7956 Y15.5250
 X76.7617 Y15.5043
 X76.6958 Y15.4714
 X76.6078 Y15.4310
 X76.5072 Y15.3875
 X76.3982 Y15.3400
 X76.3163 Y15.2996
 X76.2629 Y15.2669
 X76.2399 Y15.2428
 X76.2404 Y15.2162
 X76.2481 Y15.1989
 X76.2615 Y15.1781
 X76.2811 Y15.1526
 X76.3076 Y15.1222
 X76.3415 Y15.0858
 X76.3835 Y15.0428
 X76.5418 Y14.8815
 X76.6714 Y14.9394
 X76.8340 Y15.0032
 X76.9924 Y15.0431
 X77.1607 Y15.0614
 X77.3536 Y15.0608
 X77.6335 Y15.0274
 X77.8801 Y14.9492
 X78.1025 Y14.8224
 X78.3096 Y14.6431
 X78.4240 Y14.5136
 X78.5201 Y14.3756
 X78.5987 Y14.2267
 X78.6614 Y14.0646
 X78.7033 Y13.8802
 X78.7214 Y13.6691
 X78.7149 Y13.4581
 X78.6832 Y13.2736
 X78.6367 Y13.1331
 X78.5754 Y12.9970
 X78.5008 Y12.8670
 X78.4143 Y12.7450
 X78.3171 Y12.6325
 X78.2106 Y12.5313
 X78.0960 Y12.4430
 X77.9749 Y12.3695
 X77.8272 Y12.2998
 X77.6818 Y12.2504
 X77.5285 Y12.2189
 X77.3575 Y12.2026
 X77.1604 Y12.2023
 X76.9839 Y12.2253
 X76.8136 Y12.2745
 X76.6353 Y12.3529
 X76.4551 Y12.4425
 X76.3143 Y12.3007
 X76.1725 Y12.1585
 X76.2233 Y12.0678
 X76.2519 Y12.0221
 X76.2828 Y11.9884
 X76.3197 Y11.9629
 X76.3668 Y11.9422
 X76.4575 Y11.8947
 X76.5068 Y11.8374
 X76.5131 Y11.7747
 X76.4742 Y11.7108
 X76.4567 Y11.6972
 X76.4275 Y11.6871
 X76.4042 Y11.6832
 X76.3726 Y11.6799
 X76.3314 Y11.6774
 X76.2787 Y11.6754
 X76.2128 Y11.6739
 X76.1318 Y11.6730
 X76.0342 Y11.6725
 X75.9183 Y11.6724
 X75.7824 Y11.6727
 X75.6246 Y11.6732
 X75.4433 Y11.6739
 X75.2369 Y11.6748
 X74.0407 Y11.6790
 X73.9965 Y11.7383
 X73.9737 Y11.7717
 X73.9646 Y11.7966
 X73.9683 Y11.8209
 X73.9842 Y11.8527
 X74.0033 Y11.8775
 X74.0306 Y11.9010
 X74.0635 Y11.9215
 X74.1000 Y11.9370
 X74.1547 Y11.9649
 X74.2297 Y12.0227
 X74.3331 Y12.1171
 X74.4732 Y12.2552
 X74.7614 Y12.5444
 X74.9046 Y12.8821
 X75.0464 Y13.2196
 X75.0631 Y13.9858
 X74.9131 Y14.3525
 X74.7642 Y14.7204
 X74.4746 Y15.0086
 X74.3804 Y15.1015
 X74.3060 Y15.1732
 X74.2460 Y15.2278
 X74.1950 Y15.2693
 X74.1476 Y15.3019
 X74.0985 Y15.3299
 X74.0422 Y15.3569
 X73.9732 Y15.3875
 X73.7624 Y15.4785
 X72.4546
 X72.0051 Y15.2936
 X71.7215 Y15.0057
 X71.6306 Y14.9139
 X71.5601 Y14.8410
 X71.5064 Y14.7819
 X71.4658 Y14.7325
 X71.4346 Y14.6875
 X71.4090 Y14.6421
 X71.3856 Y14.5918
 X71.3603 Y14.5317
 X71.2831 Y14.3443
 Y12.9166
 X71.3687 Y12.7194
 X71.3960 Y12.6573
 X71.4213 Y12.6053
 X71.4476 Y12.5590
 X71.4785 Y12.5142
 X71.5168 Y12.4666
 X71.5663 Y12.4118
 X71.6294 Y12.3454
 X71.7101 Y12.2632
 X71.8294 Y12.1466
 X71.9283 Y12.0570
 X72.0067 Y11.9948
 X72.0644 Y11.9602
 X72.1035 Y11.9411
 X72.1414 Y11.9204
 X72.1733 Y11.9006
 X72.1953 Y11.8844
 X72.2228 Y11.8466
 X72.2308 Y11.8012
 X72.2197 Y11.7540
 X72.1900 Y11.7108
 X72.1743 Y11.6976
 X72.1526 Y11.6876
 X72.1181 Y11.6803
 X72.0637 Y11.6752
 X71.9826 Y11.6721
 X71.8681 Y11.6704
 X71.7131 Y11.6697
 X71.5106 Y11.6695
 X70.8724
 X70.6272 Y11.4254
 X70.3835 Y11.1816
 X69.1706
 X68.9267 Y11.1821
 X68.6974 Y11.1825
 X68.4881 Y11.1827
 X68.3038 Y11.1829
 X68.1494 Y11.1830
 X68.0306 Y11.1831
 X67.9193
 X67.8840 Y11.2020
 X67.8189 Y11.2539
 X67.7324 Y11.3313
 X67.6328 Y11.4268
 X67.3876 Y11.6695
 X66.5442
 X66.2324 Y11.6698
 X65.9988 Y11.6716
 X65.8321 Y11.6765
 X65.7211 Y11.6864
 X65.6543 Y11.7029
 X65.6206 Y11.7276
 X65.6086 Y11.7623
 X65.6071 Y11.8085
 X65.6076 Y11.8318
 X65.6099 Y11.8505
 X65.6147 Y11.8659
 X65.6233 Y11.8790
 X65.6369 Y11.8911
 X65.6564 Y11.9033
 X65.6828 Y11.9168
 X65.7172 Y11.9327
 X65.7882 Y11.9766
 X65.8826 Y12.0517
 X65.9914 Y12.1489
 X66.1054 Y12.2592
 X66.2158 Y12.3735
 X66.3132 Y12.4829
 X66.3889 Y12.5783
 X66.4338 Y12.6506
 X66.4497 Y12.6872
 X66.4617 Y12.7259
 X66.4703 Y12.7778
 X66.4760 Y12.8544
 X66.4794 Y12.9668
 X66.4812 Y13.1263
 X66.4819 Y13.3442
 X66.4821 Y13.6317
 Y14.5069
 X66.4228 Y14.6350
 X66.3824 Y14.7096
 X66.3226 Y14.7907
 X66.2339 Y14.8904
 X66.1060 Y15.0210
 X65.8481 Y15.2785
 X65.4900 Y15.4315
 X65.1317 Y15.5832
 X64.3297
 X63.9781 Y15.4368
 X63.6253 Y15.2908
 X63.3497 Y15.0139
 X63.0742 Y14.7383
 X62.9268 Y14.3856
 X62.7793 Y14.0342
 Y13.2376
 X62.9268 Y12.8806
 X63.0757 Y12.5240
 X63.3331 Y12.2632
 X63.4521 Y12.1466
 X63.5506 Y12.0570
 X63.6285 Y11.9948
 X63.6860 Y11.9602
 X63.7258 Y11.9411
 X63.7642 Y11.9204
 X63.7963 Y11.9006
 X63.8182 Y11.8844
 X63.8457 Y11.8466
 X63.8538 Y11.8012
 X63.8428 Y11.7540
 X63.8129 Y11.7108
 X63.7958 Y11.6976
 X63.7671 Y11.6876
 X63.7140 Y11.6803
 X63.6235 Y11.6752
 X63.4828 Y11.6721
 X63.2792 Y11.6704
 X62.9999 Y11.6697
 X62.6318 Y11.6695
 X62.2635 Y11.6697
 X61.9838 Y11.6704
 X61.7800 Y11.6721
 X61.6392 Y11.6752
 X61.5486 Y11.6803
 X61.4954 Y11.6876
 X61.4667 Y11.6976
 X61.4497 Y11.7108
 X61.4196 Y11.7540
 X61.4085 Y11.8010
 X61.4165 Y11.8460
 X61.4440 Y11.8830
 X61.4653 Y11.8984
 X61.4956 Y11.9165
 X61.5311 Y11.9351
 X61.5678 Y11.9521
 X61.6221 Y11.9858
 X61.7015 Y12.0500
 X61.8022 Y12.1413
 X61.9207 Y12.2566
 X62.1867 Y12.5240
 X62.3356 Y12.8792
 X62.4829 Y13.2348
 Y14.0356
 X62.3425 Y14.3775
 X62.2032 Y14.7190
 X61.9207 Y15.0029
 X61.6383 Y15.2883
 X60.9328 Y15.5832
 X60.1307
 X59.7821 Y15.4368
 X59.4350 Y15.2894
 X58.8807 Y14.7303
 X58.7347 Y14.3869
 X58.5900 Y14.0424
 X58.5831 Y13.6606
 X58.5776 Y13.2775
 X58.8779 Y12.5416
 X59.1604 Y12.2594
 X59.2947 Y12.1290
 X59.3985 Y12.0352
 X59.4767 Y11.9742
 X59.5340 Y11.9422
 X59.5719 Y11.9245
 X59.6071 Y11.9017
 X59.6360 Y11.8768
 X59.6554 Y11.8527
 X59.6713 Y11.8209
 X59.6750 Y11.7966
 X59.6657 Y11.7717
 X59.6428 Y11.7383
 X59.5986 Y11.6790
 X58.4633 Y11.6748
 X58.2437 Y11.6737
 X58.0518 Y11.6728
 X57.8858 Y11.6724
 X57.7437 Y11.6727
 X57.6238 Y11.6738
 X57.5240 Y11.6759
 X57.4428 Y11.6791
 X57.3779 Y11.6838
 X57.3279 Y11.6900
 X57.2904 Y11.6979
 X57.2640 Y11.7076
 X57.2465 Y11.7195
 X57.2364 Y11.7335
 X57.2314 Y11.7500
 X57.2300 Y11.7691
 X57.2301 Y11.7909
 X57.2310 Y11.8183
 X57.2346 Y11.8412
 X57.2414 Y11.8607
 X57.2525 Y11.8776
 X57.2688 Y11.8930
 X57.2910 Y11.9078
 X57.3200 Y11.9230
 X57.3567 Y11.9394
 X57.4150 Y11.9751
 X57.4953 Y12.0398
 X57.5994 Y12.1354
 X57.7289 Y12.2632
 X58.0086 Y12.5444
 X58.1561 Y12.9000
 X58.3046 Y13.2556
 Y13.6288
 X58.3061 Y14.0010
 X58.1628 Y14.3594
 X58.0210 Y14.7190
 X57.7413 Y15.0001
 X57.4629 Y15.2813
 X57.1088 Y15.4329
 X56.7546 Y15.5832
 X55.9524
 X55.6038 Y15.4397
 X55.2567 Y15.2950
 X54.7000 Y14.7440
 X54.5511 Y14.3883
 X54.4008 Y14.0328
 Y13.2419
 X54.5497 Y12.8821
 X54.6986 Y12.5240
 X54.9561 Y12.2632
 X55.0744 Y12.1466
 X55.1729 Y12.0570
 X55.2511 Y11.9948
 X55.3089 Y11.9602
 X55.3488 Y11.9411
 X55.3868 Y11.9204
 X55.4186 Y11.9006
 X55.4397 Y11.8844
 X55.4692 Y11.8424
 X55.4769 Y11.7914
 X55.4636 Y11.7415
 X55.4303 Y11.7027
 X55.4124 Y11.6974
 X55.3943 Y11.6949
 X55.3688 Y11.6926
 X55.3349 Y11.6904
 X55.2913 Y11.6884
 X55.2374 Y11.6865
 X55.1718 Y11.6847
 X55.0938 Y11.6831
 X55.0021 Y11.6816
 X54.8958 Y11.6802
 X54.7740 Y11.6789
 X54.6356 Y11.6777
 X54.4794 Y11.6767
 X54.3046 Y11.6757
 X54.1101 Y11.6747
 X53.8949 Y11.6740
 X53.6579 Y11.6732
 X53.3981 Y11.6726
 X53.1146 Y11.6720
 X52.8063 Y11.6716
 X52.4721 Y11.6712
 X52.1111 Y11.6708
 X51.7222 Y11.6705
 X51.3046 Y11.6703
 X50.8569 Y11.6700
 X50.3782 Y11.6699
 X49.8678 Y11.6698
 X49.3242 Y11.6697
 X48.7468 Y11.6696
 X48.1342
 X47.4857 Y11.6695
 X39.5883
 X39.5774 Y4.4623
 X39.5192 Y4.2778
 X39.4603 Y4.1143
 X39.3871 Y3.9485
 X39.3054 Y3.7935
 X39.2218 Y3.6618
 X39.1858 Y3.6202
 X39.1121 Y3.5410
 X39.0051 Y3.4289
 X38.8694 Y3.2884
 X38.7093 Y3.1242
 X38.5293 Y2.9410
 X38.3339 Y2.7433
 X38.1275 Y2.5358
 X37.9328 Y2.3408
 X37.7599 Y2.1682
 X37.6069 Y2.0164
 X37.4719 Y1.8839
 X37.3533 Y1.7690
 X37.2489 Y1.6700
 X37.1569 Y1.5856
 X37.0757 Y1.5139
 X37.0032 Y1.4535
 X36.9375 Y1.4027
 X36.8769 Y1.3600
 X36.8194 Y1.3238
 X36.7633 Y1.2924
 X36.7067 Y1.2643
 X36.6475 Y1.2378
 X36.5840 Y1.2114
 X36.5526 Y1.1982
 X36.5249 Y1.1859
 X36.4994 Y1.1744
 X36.4747 Y1.1637
 X36.4490 Y1.1539
 X36.4207 Y1.1447
 X36.3882 Y1.1364
 X36.3497 Y1.1287
 X36.3039 Y1.1217
 X36.2490 Y1.1154
 X36.1835 Y1.1097
 X36.1056 Y1.1045
 X36.0139 Y1.0999
 X35.9065 Y1.0959
 X35.7821 Y1.0923
 X35.6390 Y1.0891
 X35.4754 Y1.0864
 X35.2900 Y1.0841
 X35.0810 Y1.0822
 X34.8467 Y1.0806
 X34.5856 Y1.0793
 X34.2960 Y1.0783
 X33.9764 Y1.0775
 X33.6253 Y1.0769
 X33.2407 Y1.0765
 X32.8212 Y1.0763
 X32.3653 Y1.0762
 X31.8712
 X31.3375
 X30.1443 Y1.0763
 X29.4817
 X28.6857
 X27.9403 Y1.0761
 X27.2456 Y1.0756
 X26.6015 Y1.0751
 X26.0082 Y1.0743
 X25.4660 Y1.0735
 X24.9746 Y1.0724
 X24.5343 Y1.0711
 X24.1453 Y1.0697
 X23.8076 Y1.0681
 X23.5214 Y1.0663
 X23.2865 Y1.0643
 X23.1033 Y1.0621
 X22.9718 Y1.0598
 X22.8921 Y1.0572
 X22.8643 Y1.0545
 X22.8440 Y1.0520
 X22.7864 Y1.0496
 X22.6917 Y1.0475
 X22.5597 Y1.0454
 X22.3907 Y1.0436
 X22.1847 Y1.0418
 X21.9419 Y1.0403
 X21.6625 Y1.0389
 X21.3464 Y1.0377
 X20.9938 Y1.0366
 X20.6046 Y1.0357
 X20.1790 Y1.0350
 X19.7174 Y1.0344
 X19.2196 Y1.0340
 X18.6857 Y1.0337
 X18.1158 Y1.0336
 X17.2868 Y1.0337
 X16.5607
 X15.9304 Y1.0340
 X15.3892 Y1.0343
 X14.9300 Y1.0350
 X14.5462 Y1.0359
 X14.2310 Y1.0372
 X13.9772 Y1.0390
 X13.7781 Y1.0413
 X13.6267 Y1.0441
 X13.5164 Y1.0475
 X13.4401 Y1.0517
 X13.3909 Y1.0566
 X13.3622 Y1.0623
 X13.3469 Y1.0689
G0 X13.3367 Y1.0763 Z1.0
 X0.0621 Y0.0621
G1 Z0.0
 X0.0000 Y0.1228
 X0.0056 Y12.6616
 X0.0110 Y25.1989
 X0.1294 Y25.3008
 X122.8910
 X122.9460 Y25.2486
 X123.0020 Y25.1975
 Y0.1037
 X122.8990 Y0.0003
 X0.1242
 X0.0621 Y0.0621
G0 Z1.0
 X98.9569 Y11.8293
G1 Z0.0
 X99.2946 Y11.9683
 X99.5811 Y12.2467
 X99.8678 Y12.5240
 X100.0140 Y12.8615
 X100.1580 Y13.1992
 X100.1720 Y14.0094
 X99.8746 Y14.7397
 X99.3374 Y15.2771
 X98.9789 Y15.4301
 X98.6193 Y15.5832
 X97.8172
 X97.5222 Y15.4590
 X97.4015 Y15.4085
 X97.2917 Y15.3611
 X97.2049 Y15.3224
 X97.1532 Y15.2979
 X97.1036 Y15.2625
 X97.0249 Y15.1944
 X96.9274 Y15.1036
 X96.8224 Y15.0001
 X96.5647 Y14.7397
 X96.4160 Y14.3775
 X96.2671 Y14.0162
 Y13.2528
 X96.4060 Y12.9096
 X96.5468 Y12.5666
 X96.8389 Y12.2703
 X97.1325 Y11.9754
 X97.4644 Y11.8350
 X97.7967 Y11.6928
 X98.6193 Y11.6900
 X98.9569 Y11.8293
G0 Z1.0
 X103.1100 Y11.8170
G1 Z0.0
 X103.2350 Y11.8681
 X103.3460 Y11.9144
 X103.4310 Y11.9510
 X103.4780 Y11.9725
 X103.5210 Y12.0057
 X103.5950 Y12.0717
 X103.6900 Y12.1611
 X103.7950 Y12.2647
 X104.0530 Y12.5254
 X104.2000 Y12.8767
 X104.3480 Y13.2295
 Y14.0342
 X104.2070 Y14.3800
 X104.0670 Y14.7275
 X103.7800 Y15.0100
 X103.4930 Y15.2936
 X103.1300 Y15.4453
 X102.7650 Y15.5969
 X101.9950 Y15.5832
 X101.6550 Y15.4397
 X101.3160 Y15.2950
 X100.7430 Y14.7190
 X100.4550 Y14.0438
 Y13.2419
 X100.6010 Y12.8891
 X100.7460 Y12.5377
 X101.0250 Y12.2594
 X101.3070 Y11.9796
 X101.6510 Y11.8350
 X101.9950 Y11.6914
 X102.3990 Y11.6900
 X102.8020
 X103.1100 Y11.8170
G0 Z1.0
 X103.1560 Y17.3125
G1 Z0.0
 X103.4930 Y17.4558
 X104.0530 Y18.0097
 X104.3480 Y18.7071
 Y19.5228
 X104.2070 Y19.8632
 X104.0670 Y20.2050
 X103.7930 Y20.4833
 X103.5190 Y20.7617
 X102.8170 Y21.0594
 X101.9980
 X101.3200 Y20.7811
 X101.0320 Y20.4957
 X100.7460 Y20.2106
 X100.4420 Y19.4747
 X100.4480 Y19.1011
 X100.4550 Y18.7279
 X100.5980 Y18.3776
 X100.7430 Y18.0276
 X101.0310 Y17.7413
 X101.3200 Y17.4543
 X101.5830 Y17.3443
 X101.7410 Y17.2787
 X101.8600 Y17.2306
 X101.9530 Y17.1971
 X102.0320 Y17.1758
 X102.1080 Y17.1642
 X102.1930 Y17.1597
 X102.2990 Y17.1600
 X102.4380 Y17.1622
 X102.8180 Y17.1693
 X103.1560 Y17.3125
G0 Z1.0
 X98.9143 Y17.2904
G1 Z0.0
 X99.0350 Y17.3412
 X99.1449 Y17.3887
 X99.2318 Y17.4274
 X99.2836 Y17.4515
 X99.3329 Y17.4876
 X99.4117 Y17.5558
 X99.5092 Y17.6467
 X99.6142 Y17.7507
 X99.8721 Y18.0097
 X100.1690 Y18.7346
 Y19.4994
 X99.8858 Y20.2050
 X99.6156 Y20.4806
 X99.3468 Y20.7564
 X98.6303 Y21.0594
 X97.8118
 X97.4563 Y20.9119
 X97.0993 Y20.7658
 X96.8251 Y20.4847
 X96.5511 Y20.2050
 X96.4089 Y19.8522
 X96.2656 Y19.4994
 Y18.7360
 X96.4160 Y18.3738
 X96.5647 Y18.0097
 X96.8210 Y17.7493
 X96.9147 Y17.6551
 X96.9914 Y17.5818
 X97.0601 Y17.5236
 X97.1299 Y17.4747
 X97.2096 Y17.4297
 X97.3088 Y17.3826
 X97.4361 Y17.3281
 X97.6010 Y17.2600
 X97.8599 Y17.1542
 X98.2390 Y17.1608
 X98.6193 Y17.1679
 X98.9143 Y17.2904
G0 Z1.0
 X95.6083 Y18.0608
G1 Z0.0
 X95.6332 Y18.0751
 X95.6546 Y18.0915
 X95.6742 Y18.1139
 X95.6943 Y18.1461
 X95.7169 Y18.1919
 X95.7442 Y18.2553
 X95.7779 Y18.3399
 X95.8204 Y18.4496
 X95.9542 Y18.7981
 X95.9239 Y19.5506
 X95.8053 Y19.8440
 X95.7667 Y19.9382
 X95.7361 Y20.0103
 X95.7114 Y20.0639
 X95.6901 Y20.1025
 X95.6703 Y20.1300
 X95.6493 Y20.1496
 X95.6253 Y20.1653
 X95.5957 Y20.1803
 X95.5064 Y20.2244
 X95.2168 Y19.9376
 X95.2846 Y19.8247
 X95.3585 Y19.6822
 X95.4107 Y19.5340
 X95.4435 Y19.3701
 X95.4596 Y19.1813
 X95.4587 Y18.9815
 X95.4374 Y18.8096
 X95.3912 Y18.6457
 X95.3163 Y18.4700
 X95.2833 Y18.4018
 X95.2565 Y18.3436
 X95.2386 Y18.3015
 X95.2319 Y18.2813
 X95.2424 Y18.2622
 X95.2699 Y18.2290
 X95.3094 Y18.1868
 X95.3557 Y18.1408
 X95.4033 Y18.0961
 X95.4472 Y18.0578
 X95.4818 Y18.0310
 X95.5022 Y18.0210
 X95.5190 Y18.0240
 X95.5444 Y18.0325
 X95.5754 Y18.0453
 X95.6083 Y18.0608
G0 Z1.0
 X92.7171 Y18.1546
G1 Z0.0
 X92.8493 Y18.2879
 X92.7778 Y18.4056
 X92.6956 Y18.5639
 X92.6426 Y18.7229
 X92.6140 Y18.9013
 X92.6056 Y19.1178
 X92.6072 Y19.2761
 X92.6149 Y19.3847
 X92.6324 Y19.4739
 X92.6635 Y19.5739
 X92.6918 Y19.6490
 X92.7244 Y19.7253
 X92.7576 Y19.7942
 X92.7876 Y19.8465
 X92.8507 Y19.9475
 X92.7185 Y20.0811
 X92.6646 Y20.1335
 X92.6161 Y20.1764
 X92.5786 Y20.2053
 X92.5572 Y20.2160
 X92.5403 Y20.2128
 X92.5146 Y20.2043
 X92.4836 Y20.1917
 X92.4511 Y20.1761
 X92.4258 Y20.1619
 X92.4044 Y20.1456
 X92.3851 Y20.1231
 X92.3653 Y20.0903
 X92.3431 Y20.0436
 X92.3163 Y19.9789
 X92.2828 Y19.8921
 X92.2404 Y19.7792
 X92.1068 Y19.4236
 X92.1190 Y19.0656
 X92.1329 Y18.7071
 X92.2528 Y18.4040
 X92.2896 Y18.3121
 X92.3194 Y18.2399
 X92.3442 Y18.1847
 X92.3653 Y18.1436
 X92.3846 Y18.1137
 X92.4035 Y18.0921
 X92.4237 Y18.0758
 X92.4472 Y18.0622
 X92.4781 Y18.0467
 X92.5085 Y18.0340
 X92.5346 Y18.0256
 X92.5531 Y18.0224
 X92.5760 Y18.0322
 X92.6143 Y18.0606
 X92.6632 Y18.1029
 X92.7171 Y18.1546
G0 Z1.0
 X93.3026 Y20.3619
G1 Z0.0
 X93.3554 Y20.3908
 X93.4268 Y20.4232
 X93.5075 Y20.4553
 X93.5881 Y20.4833
 X93.7768 Y20.5426
 Y21.0181
 X93.6858 Y21.0167
 X93.6285 Y21.0082
 X93.5456 Y20.9847
 X93.4374 Y20.9461
 X93.3040 Y20.8926
 X93.2168 Y20.8561
 X93.1478 Y20.8258
 X93.0943 Y20.8007
 X93.0539 Y20.7790
 X93.0240 Y20.7594
 X93.0021 Y20.7404
 X92.9857 Y20.7206
 X92.9721 Y20.6985
 X92.9574 Y20.6685
 X92.9450 Y20.6390
 X92.9367 Y20.6137
 X92.9336 Y20.5963
 X92.9442 Y20.5764
 X92.9721 Y20.5396
 X93.0119 Y20.4918
 X93.0583 Y20.4390
 X93.1057 Y20.3874
 X93.1486 Y20.3431
 X93.1818 Y20.3119
 X93.1997 Y20.3003
 X93.2319 Y20.3183
 X93.2643 Y20.3379
 X93.3026 Y20.3619
G0 Z1.0
 X94.9936 Y20.4311
G1 Z0.0
 X95.0451 Y20.4847
 X95.0878 Y20.5328
 X95.1165 Y20.5699
 X95.1272 Y20.5910
 X95.1236 Y20.6111
 X95.1139 Y20.6388
 X95.0999 Y20.6707
 X95.0831 Y20.7036
 X95.0651 Y20.7347
 X95.0478 Y20.7608
 X95.0326 Y20.7787
 X94.9903 Y20.7944
 X94.9211 Y20.8194
 X94.8238 Y20.8561
 X94.7085 Y20.9011
 X94.5901 Y20.9469
 X94.4828 Y20.9868
 X94.3988 Y21.0163
 X94.3500 Y21.0306
 X94.2826 Y21.0443
 Y20.5426
 X94.4535 Y20.4918
 X94.5282 Y20.4668
 X94.6057 Y20.4358
 X94.6771 Y20.4029
 X94.7332 Y20.3718
 X94.7758 Y20.3453
 X94.8125 Y20.3232
 X94.8392 Y20.3078
 X94.8517 Y20.3017
 X94.8663 Y20.3118
 X94.8981 Y20.3396
 X94.9425 Y20.3807
 X94.9950 Y20.4311
G0 X94.9936 Z1.0
 X94.7526 Y17.3415
G1 Z0.0
 X94.8433 Y17.3786
 X94.9142 Y17.4086
 X94.9679 Y17.4333
 X95.0076 Y17.4546
 X95.0364 Y17.4740
 X95.0569 Y17.4935
 X95.0725 Y17.5149
 X95.0860 Y17.5397
 X95.1017 Y17.5722
 X95.1149 Y17.6031
 X95.1239 Y17.6283
 X95.1272 Y17.6446
 X95.1171 Y17.6654
 X95.0896 Y17.7018
 X95.0487 Y17.7485
 X94.9992 Y17.8004
 X94.8711 Y17.9299
 X94.6904 Y17.8389
 X94.5279 Y17.7676
 X94.3690 Y17.7193
 X94.2043 Y17.6919
 X94.0249 Y17.6833
 X93.8504 Y17.6921
 X93.6918 Y17.7182
 X93.5382 Y17.7649
 X93.3785 Y17.8347
 X93.2021 Y17.9214
 X93.0632 Y17.7825
 X92.9237 Y17.6417
 X92.9665 Y17.5535
 X92.9814 Y17.5240
 X92.9972 Y17.5001
 X93.0179 Y17.4792
 X93.0481 Y17.4588
 X93.0915 Y17.4364
 X93.1528 Y17.4094
 X93.2361 Y17.3756
 X93.3457 Y17.3319
 X93.6819 Y17.1982
 X94.0703 Y17.2106
 X94.4590 Y17.2215
 X94.7526 Y17.3415
G0 Z1.0
 X93.3581 Y14.9090
G1 Z0.0
 X93.5154 Y14.9796
 X93.6818 Y15.0297
 X93.8544 Y15.0594
 X94.0304 Y15.0687
 X94.2069 Y15.0579
 X94.3813 Y15.0268
 X94.5503 Y14.9754
 X94.7113 Y14.9037
 X94.8560 Y14.8279
 X95.1357 Y15.1076
 X95.0915 Y15.1988
 X95.0763 Y15.2286
 X95.0604 Y15.2528
 X95.0394 Y15.2739
 X95.0087 Y15.2944
 X94.9638 Y15.3169
 X94.9000 Y15.3443
 X94.8128 Y15.3788
 X94.6975 Y15.4231
 X94.3463 Y15.5582
 X93.9713 Y15.5431
 X93.5963 Y15.5293
 X93.3040 Y15.4093
 X93.2099 Y15.3703
 X93.1376 Y15.3393
 X93.0839 Y15.3142
 X93.0451 Y15.2926
 X93.0176 Y15.2726
 X92.9979 Y15.2518
 X92.9825 Y15.2279
 X92.9679 Y15.1988
 X92.9237 Y15.1076
 X93.0589 Y14.9713
 X93.1124 Y14.9185
 X93.1581 Y14.8750
 X93.1910 Y14.8456
 X93.2064 Y14.8346
 X93.2222 Y14.8406
 X93.2558 Y14.8564
 X93.3028 Y14.8800
 X93.3581 Y14.9090
G0 Z1.0
 X95.6099 Y12.5748
G1 Z0.0
 X95.6326 Y12.5882
 X95.6528 Y12.6047
 X95.6719 Y12.6272
 X95.6917 Y12.6589
 X95.7138 Y12.7027
 X95.7399 Y12.7617
 X95.7718 Y12.8389
 X95.8110 Y12.9374
 X95.9390 Y13.2623
 X95.9322 Y13.6676
 X95.9239 Y14.0740
 X95.8039 Y14.3647
 X95.7643 Y14.4589
 X95.7333 Y14.5307
 X95.7082 Y14.5840
 X95.6868 Y14.6224
 X95.6667 Y14.6494
 X95.6454 Y14.6689
 X95.6208 Y14.6846
 X95.5904 Y14.6999
 X95.4981 Y14.7440
 X95.3576 Y14.6075
 X95.2182 Y14.4710
 X95.3078 Y14.2974
 X95.3850 Y14.1229
 X95.4343 Y13.9507
 X95.4583 Y13.7677
 X95.4596 Y13.5615
 X95.4431 Y13.3760
 X95.4096 Y13.2138
 X95.3574 Y13.0672
 X95.2846 Y12.9289
 X95.2182 Y12.8189
 X95.3561 Y12.6767
 X95.4115 Y12.6215
 X95.4604 Y12.5764
 X95.4971 Y12.5461
 X95.5160 Y12.5349
 X95.5304 Y12.5387
 X95.5529 Y12.5472
 X95.5806 Y12.5595
 X95.6099 Y12.5748
G0 Z1.0
 X94.8008 Y11.8777
G1 Z0.0
 X94.8801 Y11.9109
 X94.9413 Y11.9377
 X94.9874 Y11.9599
 X95.0212 Y11.9797
 X95.0461 Y11.9990
 X95.0650 Y12.0199
 X95.0810 Y12.0444
 X95.0969 Y12.0745
 X95.1453 Y12.1683
 X95.0019 Y12.3116
 X94.8574 Y12.4534
 X94.7731 Y12.4012
 X94.7342 Y12.3774
 X94.6910 Y12.3534
 X94.6485 Y12.3319
 X94.6118 Y12.3158
 X94.5364 Y12.2841
 Y12.0290
 X94.5368 Y11.9300
 X94.5381 Y11.8490
 X94.5401 Y11.7944
 X94.5431 Y11.7743
 X94.5657 Y11.7825
 X94.6218 Y11.8047
 X94.7029 Y11.8376
 X94.8008 Y11.8777
G0 Z1.0
 X93.5232 Y12.0403
G1 Z0.0
 Y12.2841
 X93.4462 Y12.3158
 X93.4101 Y12.3319
 X93.3678 Y12.3534
 X93.3247 Y12.3774
 X93.2864 Y12.4012
 X93.2007 Y12.4534
 X93.0669 Y12.3211
 X93.0147 Y12.2663
 X92.9719 Y12.2169
 X92.9435 Y12.1784
 X92.9336 Y12.1560
 X92.9367 Y12.1377
 X92.9450 Y12.1119
 X92.9574 Y12.0819
 X92.9721 Y12.0512
 X93.0000 Y12.0115
 X93.0437 Y11.9773
 X93.1186 Y11.9397
 X93.2396 Y11.8900
 X93.3311 Y11.8548
 X93.4100 Y11.8257
 X93.4682 Y11.8057
 X93.4971 Y11.7976
 X93.5174 Y11.8502
 X93.5218 Y11.9254
 X93.5232 Y12.0403
G0 Z1.0
 X92.7033 Y12.6739
G1 Z0.0
 X92.8440 Y12.8147
 X92.7847 Y12.9124
 X92.7115 Y13.0540
 X92.6557 Y13.2138
 X92.6182 Y13.3875
 X92.6000 Y13.5710
 X92.6003 Y13.7700
 X92.6240 Y13.9475
 X92.6736 Y14.1171
 X92.7517 Y14.2917
 X92.8426 Y14.4710
 X92.7033 Y14.6089
 X92.5629 Y14.7465
 X92.4690 Y14.6985
 X92.4382 Y14.6818
 X92.4133 Y14.6650
 X92.3918 Y14.6433
 X92.3710 Y14.6125
 X92.3481 Y14.5678
 X92.3207 Y14.5044
 X92.2861 Y14.4182
 X92.2418 Y14.3044
 X92.1082 Y13.9583
 X92.1219 Y13.5795
 X92.1357 Y13.1992
 X92.2585 Y12.9057
 X92.2944 Y12.8187
 X92.3243 Y12.7496
 X92.3492 Y12.6960
 X92.3706 Y12.6553
 X92.3899 Y12.6251
 X92.4086 Y12.6030
 X92.4281 Y12.5866
 X92.4497 Y12.5733
 X92.4786 Y12.5589
 X92.5056 Y12.5470
 X92.5272 Y12.5386
 X92.5407 Y12.5349
 X92.5603 Y12.5458
 X92.5972 Y12.5756
 X92.6465 Y12.6197
 X92.7033 Y12.6739
G0 Z1.0
 X88.8407 Y5.2518
G1 Z0.0
 X88.8496 Y5.2693
 X88.8653 Y5.3069
 X88.8854 Y5.3580
 X88.9075 Y5.4161
 X88.9289 Y5.4744
 X88.9472 Y5.5266
 X88.9600 Y5.5658
 X88.9649 Y5.5855
 X88.9369 Y5.5682
 X88.9072 Y5.5429
 X88.8711 Y5.5096
 X88.8274 Y5.4737
 X88.7787 Y5.4387
 X88.7311 Y5.4089
 X88.6904 Y5.3883
 X88.6036 Y5.3537
 X88.6725 Y5.2835
 X88.7199 Y5.2436
 X88.7644 Y5.2249
 X88.8050 Y5.2276
 X88.8407 Y5.2518
G0 Z1.0
 X84.3372 Y12.6658
G1 Z0.0
 X84.4685 Y12.7981
 X84.3732 Y12.9882
 X84.2967 Y13.1651
 X84.2478 Y13.3358
 X84.2240 Y13.5122
 X84.2229 Y13.7061
 X84.2415 Y13.8830
 X84.2799 Y14.0543
 X84.3365 Y14.2146
 X84.4103 Y14.3581
 X84.4737 Y14.4614
 X84.1897 Y14.7479
 X84.0949 Y14.6999
 X84.0636 Y14.6833
 X84.0385 Y14.6667
 X84.0169 Y14.6454
 X83.9963 Y14.6149
 X83.9739 Y14.5707
 X83.9472 Y14.5082
 X83.9135 Y14.4226
 X83.8701 Y14.3097
 X83.7392 Y13.9665
 X83.7488 Y13.5847
 X83.7586 Y13.2020
 X83.8810 Y12.9082
 X83.9293 Y12.7938
 X83.9696 Y12.6993
 X83.9976 Y12.6346
 X84.0094 Y12.6093
 X84.0433 Y12.5879
 X84.0931 Y12.5638
 X84.1421 Y12.5438
 X84.1746 Y12.5349
 X84.1974 Y12.5453
 X84.2357 Y12.5735
 X84.2840 Y12.6152
 X84.3372 Y12.6658
G0 Z1.0
 X82.1892 Y17.3400
G1 Z0.0
 X82.2872 Y17.3796
 X82.3622 Y17.4108
 X82.4178 Y17.4361
 X82.4576 Y17.4576
 X82.4857 Y17.4778
 X82.5056 Y17.4988
 X82.5211 Y17.5229
 X82.5362 Y17.5525
 X82.5804 Y17.6417
 X82.4371 Y17.7867
 X82.2925 Y17.9313
 X82.1807 Y17.8636
 X82.0393 Y17.7903
 X81.8912 Y17.7381
 X81.7286 Y17.7049
 X81.5439 Y17.6886
 X81.3379 Y17.6890
 X81.1554 Y17.7128
 X80.9832 Y17.7624
 X80.8081 Y17.8403
 X80.6331 Y17.9299
 X80.4940 Y17.7906
 X80.3547 Y17.6501
 X80.4031 Y17.5563
 X80.4192 Y17.5251
 X80.4356 Y17.5000
 X80.4567 Y17.4782
 X80.4868 Y17.4574
 X80.5306 Y17.4346
 X80.5922 Y17.4074
 X80.6764 Y17.3731
 X80.7875 Y17.3292
 X81.1251 Y17.1968
 X81.8857 Y17.2188
 X82.1892 Y17.3400
G0 Z1.0
 X83.0446 Y18.0565
G1 Z0.0
 X83.0688 Y18.0693
 X83.0894 Y18.0846
 X83.1088 Y18.1060
 X83.1285 Y18.1367
 X83.1507 Y18.1801
 X83.1772 Y18.2397
 X83.2101 Y18.3186
 X83.2512 Y18.4203
 X83.3822 Y18.7483
 X83.3756 Y19.1467
 X83.3685 Y19.5435
 X83.2460 Y19.8412
 X83.2094 Y19.9294
 X83.1793 Y19.9993
 X83.1543 Y20.0535
 X83.1329 Y20.0944
 X83.1135 Y20.1246
 X83.0947 Y20.1465
 X83.0750 Y20.1629
 X83.0531 Y20.1761
 X83.0233 Y20.1907
 X82.9943 Y20.2026
 X82.9692 Y20.2106
 X82.9511 Y20.2135
 X82.9282 Y20.2032
 X82.8899 Y20.1753
 X82.8415 Y20.1336
 X82.7885 Y20.0822
 X82.6576 Y19.9514
 X82.7497 Y19.7682
 X82.7886 Y19.6846
 X82.8257 Y19.5918
 X82.8569 Y19.5011
 X82.8781 Y19.4236
 X82.9079 Y19.1617
 X82.8882 Y18.8872
 X82.8228 Y18.6232
 X82.7154 Y18.3928
 X82.6519 Y18.2894
 X82.7857 Y18.1546
 X82.8393 Y18.1029
 X82.8871 Y18.0604
 X82.9237 Y18.0315
 X82.9440 Y18.0210
 X82.9606 Y18.0239
 X82.9850 Y18.0317
 X83.0142 Y18.0431
 X83.0446 Y18.0565
G0 Z1.0
 X84.3400 Y18.1546
G1 Z0.0
 X84.4737 Y18.2879
 X84.4078 Y18.3999
 X84.3340 Y18.5456
 X84.2785 Y18.7026
 X84.2414 Y18.8696
 X84.2229 Y19.0447
 X84.2239 Y19.2376
 X84.2472 Y19.4133
 X84.2961 Y19.5838
 X84.3732 Y19.7611
 X84.4685 Y19.9514
 X84.3372 Y20.0836
 X84.2851 Y20.1351
 X84.2382 Y20.1772
 X84.2018 Y20.2056
 X84.1815 Y20.2160
 X84.1658 Y20.2131
 X84.1417 Y20.2053
 X84.1122 Y20.1939
 X84.0811 Y20.1803
 X84.0575 Y20.1676
 X84.0372 Y20.1522
 X84.0181 Y20.1310
 X83.9985 Y20.1001
 X83.9764 Y20.0568
 X83.9497 Y19.9972
 X83.9169 Y19.9183
 X83.8757 Y19.8165
 X83.7449 Y19.4871
 X83.7515 Y19.0903
 X83.7572 Y18.6933
 X83.8800 Y18.3956
 X83.9165 Y18.3075
 X83.9467 Y18.2376
 X83.9717 Y18.1835
 X83.9933 Y18.1425
 X84.0128 Y18.1124
 X84.0315 Y18.0903
 X84.0510 Y18.0740
 X84.0726 Y18.0608
 X84.1026 Y18.0461
 X84.1322 Y18.0338
 X84.1578 Y18.0254
 X84.1760 Y18.0224
 X84.1992 Y18.0322
 X84.2381 Y18.0606
 X84.2872 Y18.1029
 X84.3414 Y18.1546
G0 X84.3400 Z1.0
 X85.0967 Y20.4435
G1 Z0.0
 X85.3100 Y20.5122
 X85.5411 Y20.5481
 X85.7753 Y20.5500
 X85.9978 Y20.5165
 X86.0697 Y20.4957
 X86.1544 Y20.4653
 X86.2415 Y20.4294
 X86.3204 Y20.3924
 X86.4913 Y20.3056
 X86.6303 Y20.4449
 X86.7682 Y20.5853
 X86.7213 Y20.6778
 X86.7054 Y20.7090
 X86.6893 Y20.7340
 X86.6682 Y20.7557
 X86.6376 Y20.7765
 X86.5931 Y20.7992
 X86.5300 Y20.8264
 X86.4438 Y20.8607
 X86.3300 Y20.9049
 X85.9839 Y21.0386
 X85.6022 Y21.0249
 X85.2192 Y21.0111
 X84.8304 Y20.8511
 X84.7585 Y20.8203
 X84.7047 Y20.7953
 X84.6658 Y20.7740
 X84.6382 Y20.7542
 X84.6183 Y20.7336
 X84.6028 Y20.7103
 X84.5881 Y20.6819
 X84.5467 Y20.5951
 X84.6900 Y20.4488
 X84.8350 Y20.3028
 X84.9118 Y20.3496
 X84.9496 Y20.3718
 X84.9969 Y20.3971
 X85.0481 Y20.4221
 X85.0967 Y20.4435
G0 Z1.0
 X81.1431 Y20.5207
G1 Z0.0
 X81.2724 Y20.5429
 X81.4090 Y20.5524
 X81.5497 Y20.5492
 X81.6910 Y20.5342
 X81.8294 Y20.5078
 X81.9618 Y20.4704
 X82.0846 Y20.4226
 X82.1944 Y20.3649
 X82.2925 Y20.3042
 X82.5789 Y20.5938
 X82.5404 Y20.6792
 X82.5271 Y20.7069
 X82.5124 Y20.7297
 X82.4922 Y20.7501
 X82.4628 Y20.7701
 X82.4201 Y20.7925
 X82.3601 Y20.8192
 X82.2789 Y20.8528
 X82.1725 Y20.8954
 X81.8431 Y21.0276
 X81.0411 Y21.0139
 X80.7463 Y20.8926
 X80.6503 Y20.8532
 X80.5771 Y20.8219
 X80.5228 Y20.7969
 X80.4838 Y20.7754
 X80.4561 Y20.7551
 X80.4363 Y20.7336
 X80.4203 Y20.7086
 X80.4044 Y20.6778
 X80.3589 Y20.5853
 X80.4968 Y20.4449
 X80.6344 Y20.3056
 X80.8069 Y20.3937
 X80.8868 Y20.4308
 X80.9769 Y20.4669
 X81.0661 Y20.4983
 X81.1431 Y20.5207
G0 Z1.0
 X80.1426 Y18.1557
G1 Z0.0
 X80.2764 Y18.2908
 X80.1896 Y18.4672
 X80.1164 Y18.6329
 X80.0697 Y18.7832
 X80.0451 Y18.9382
 X80.0379 Y19.1178
 X80.0472 Y19.3039
 X80.0765 Y19.4744
 X80.1275 Y19.6372
 X80.2019 Y19.8000
 X80.2778 Y19.9447
 X80.1383 Y20.0850
 X79.9981 Y20.2244
 X79.9069 Y20.1803
 X79.8771 Y20.1650
 X79.8529 Y20.1492
 X79.8318 Y20.1282
 X79.8111 Y20.0975
 X79.7885 Y20.0525
 X79.7611 Y19.9886
 X79.7267 Y19.9015
 X79.6822 Y19.7862
 X79.5471 Y19.4346
 X79.5610 Y19.0571
 X79.5747 Y18.6810
 X79.6974 Y18.3875
 X79.7343 Y18.2992
 X79.7644 Y18.2297
 X79.7893 Y18.1764
 X79.8107 Y18.1367
 X79.8299 Y18.1078
 X79.8487 Y18.0871
 X79.8689 Y18.0718
 X79.8918 Y18.0594
 X79.9217 Y18.0449
 X79.9496 Y18.0331
 X79.9722 Y18.0253
 X79.9867 Y18.0224
 X80.0060 Y18.0322
 X80.0415 Y18.0607
 X80.0886 Y18.1035
 X80.1426 Y18.1557
G0 Z1.0
 X78.8639 Y18.0551
G1 Z0.0
 X78.8869 Y18.0675
 X78.9068 Y18.0828
 X78.9256 Y18.1046
 X78.9449 Y18.1361
 X78.9667 Y18.1811
 X78.9929 Y18.2428
 X79.0256 Y18.3247
 X79.0663 Y18.4301
 X79.1958 Y18.7706
 Y19.5065
 X79.0772 Y19.8025
 X79.0285 Y19.9207
 X78.9844 Y20.0221
 X78.9499 Y20.0960
 X78.9299 Y20.1319
 X78.9129 Y20.1469
 X78.8876 Y20.1633
 X78.8572 Y20.1793
 X78.8250 Y20.1926
 X78.7481 Y20.2201
 X78.6117 Y20.0850
 X78.4764 Y19.9499
 X78.5618 Y19.7819
 X78.6369 Y19.6156
 X78.6856 Y19.4607
 X78.7114 Y19.3004
 X78.7192 Y19.1178
 X78.7115 Y18.9349
 X78.6857 Y18.7744
 X78.6376 Y18.6199
 X78.5632 Y18.4549
 X78.4779 Y18.2869
 X78.6101 Y18.1532
 X78.6629 Y18.1018
 X78.7103 Y18.0597
 X78.7468 Y18.0314
 X78.7671 Y18.0210
 X78.7835 Y18.0236
 X78.8072 Y18.0310
 X78.8357 Y18.0418
 X78.8653 Y18.0551
G0 X78.8639 Z1.0
 X76.9264 Y20.5108
G1 Z0.0
 X77.1887 Y20.5512
 X77.4571 Y20.5431
 X77.7188 Y20.4878
 X77.9611 Y20.3871
 X78.1142 Y20.3042
 X78.3978 Y20.5910
 X78.3485 Y20.6819
 X78.3308 Y20.7115
 X78.3131 Y20.7358
 X78.2904 Y20.7571
 X78.2592 Y20.7778
 X78.2147 Y20.8006
 X78.1531 Y20.8274
 X78.0699 Y20.8611
 X77.9611 Y20.9039
 X77.6235 Y21.0361
 X76.8435 Y21.0111
 X76.5585 Y20.8911
 X76.4679 Y20.8537
 X76.3981 Y20.8236
 X76.3453 Y20.7989
 X76.3064 Y20.7772
 X76.2779 Y20.7569
 X76.2567 Y20.7356
 X76.2390 Y20.7112
 X76.2219 Y20.6819
 X76.1725 Y20.5910
 X76.4565 Y20.3042
 X76.6092 Y20.3871
 X76.6814 Y20.4224
 X76.7651 Y20.4574
 X76.8501 Y20.4881
 X76.9264 Y20.5108
G0 Z1.0
 X75.9629 Y18.1546
G1 Z0.0
 X76.0953 Y18.2879
 X76.0222 Y18.4246
 X75.9426 Y18.5903
 X75.8899 Y18.7526
 X75.8606 Y18.9242
 X75.8514 Y19.1178
 X75.8607 Y19.3131
 X75.8906 Y19.4857
 X75.9439 Y19.6479
 X76.0236 Y19.8124
 X76.0981 Y19.9461
 X75.9615 Y20.0836
 X75.9164 Y20.1288
 X75.8814 Y20.1622
 X75.8542 Y20.1857
 X75.8324 Y20.2001
 X75.8133 Y20.2074
 X75.7949 Y20.2082
 X75.7743 Y20.2043
 X75.7494 Y20.1969
 X75.7188 Y20.1843
 X75.6890 Y20.1686
 X75.6636 Y20.1518
 X75.6461 Y20.1361
 X75.6242 Y20.0967
 X75.5883 Y20.0171
 X75.5436 Y19.9089
 X75.4944 Y19.7835
 X75.3731 Y19.4662
 X75.3868 Y18.6863
 X75.5110 Y18.3875
 X75.5776 Y18.2315
 X75.6247 Y18.1361
 X75.6625 Y18.0839
 X75.7011 Y18.0565
 X75.7290 Y18.0439
 X75.7568 Y18.0332
 X75.7811 Y18.0257
 X75.7989 Y18.0224
 X75.8212 Y18.0328
 X75.8597 Y18.0611
 X75.9088 Y18.1032
 X75.9629 Y18.1546
G0 Z1.0
 X75.9643 Y12.6700
G1 Z0.0
 X76.0981 Y12.8051
 X76.0332 Y12.9180
 X76.0042 Y12.9752
 X75.9715 Y13.0472
 X75.9394 Y13.1250
 X75.9122 Y13.1992
 X75.8813 Y13.2959
 X75.8633 Y13.3826
 X75.8549 Y13.4830
 X75.8529 Y13.6208
 X75.8601 Y13.8205
 X75.8885 Y13.9942
 X75.9413 Y14.1575
 X76.0222 Y14.3262
 X76.0953 Y14.4614
 X75.9549 Y14.6047
 X75.8126 Y14.7465
 X75.7231 Y14.7024
 X75.6932 Y14.6875
 X75.6692 Y14.6719
 X75.6483 Y14.6513
 X75.6279 Y14.6212
 X75.6058 Y14.5775
 X75.5792 Y14.5157
 X75.5457 Y14.4315
 X75.5025 Y14.3207
 X75.3717 Y13.9831
 X75.3815 Y13.5809
 X75.3896 Y13.1784
 X75.5040 Y12.9138
 X75.5501 Y12.8095
 X75.5903 Y12.7199
 X75.6206 Y12.6546
 X75.6363 Y12.6231
 X75.6642 Y12.5990
 X75.6868 Y12.5850
 X75.7128 Y12.5710
 X75.7399 Y12.5582
 X75.7661 Y12.5474
 X75.7897 Y12.5398
 X75.8088 Y12.5363
 X75.8281 Y12.5462
 X75.8637 Y12.5748
 X75.9110 Y12.6176
 X75.9643 Y12.6700
G0 Z1.0
 X69.6569 Y17.3111
G1 Z0.0
 X70.0056 Y17.4558
 X70.2829 Y17.7314
 X70.5613 Y18.0057
 X70.7100 Y18.3667
 X70.8600 Y18.7279
 Y19.5065
 X70.7100 Y19.8674
 X70.5613 Y20.2297
 X70.2937 Y20.4957
 X70.0264 Y20.7631
 X69.6736 Y20.9106
 X69.3194 Y21.0594
 X68.5038
 X68.1672 Y20.9201
 X67.8311 Y20.7825
 X67.5432 Y20.4957
 X67.2539 Y20.2078
 X66.9561 Y19.4994
 Y18.7403
 X67.0979 Y18.3861
 X67.2413 Y18.0319
 X67.5251 Y17.7450
 X67.6104 Y17.6597
 X67.6800 Y17.5917
 X67.7374 Y17.5383
 X67.7854 Y17.4974
 X67.8274 Y17.4660
 X67.8664 Y17.4415
 X67.9056 Y17.4217
 X67.9482 Y17.4036
 X68.1128 Y17.3360
 X68.2162 Y17.2933
 X68.3175 Y17.2519
 X68.5489 Y17.1556
 X68.9296 Y17.1608
 X69.3085 Y17.1665
 X69.6569 Y17.3111
G0 Z1.0
 X65.4692
G1 Z0.0
 X65.8082 Y17.4529
 X66.3815 Y18.0235
 X66.6708 Y18.7071
 Y19.5297
 X66.5275 Y19.8688
 X66.3843 Y20.2064
 X65.8054 Y20.7797
 X65.4706 Y20.9190
 X65.1358 Y21.0594
 X64.3185
 X63.6322 Y20.7783
 X63.3539 Y20.5042
 X63.0771 Y20.2311
 X62.9268 Y19.8731
 X62.7779 Y19.5146
 Y18.7222
 X62.9253 Y18.3667
 X63.0728 Y18.0125
 X63.3317 Y17.7507
 X63.4381 Y17.6467
 X63.5362 Y17.5558
 X63.6153 Y17.4876
 X63.6640 Y17.4515
 X63.7049 Y17.4322
 X63.7703 Y17.4032
 X63.8535 Y17.3671
 X63.9476 Y17.3269
 X64.0458 Y17.2857
 X64.1411 Y17.2462
 X64.2271 Y17.2115
 X64.2965 Y17.1846
 X64.3517 Y17.1717
 X64.4401 Y17.1640
 X64.5706 Y17.1611
 X64.7512 Y17.1622
 X65.1303 Y17.1679
 X65.4692 Y17.3111
G0 Z1.0
 X61.2592 Y17.3056
G1 Z0.0
 X61.6328 Y17.4558
 X61.9097 Y17.7342
 X62.1881 Y18.0111
 X62.3356 Y18.3639
 X62.4829 Y18.7153
 Y19.5160
 X62.1881 Y20.2244
 X61.6479 Y20.7644
 X61.2965 Y20.9119
 X60.9438 Y21.0594
 X60.1321
 X59.7888 Y20.9190
 X59.4458 Y20.7768
 X59.1619 Y20.4918
 X58.8768 Y20.2050
 X58.7333 Y19.8674
 X58.5886 Y19.5297
 Y18.7071
 X58.8754 Y18.0290
 X59.1647 Y17.7426
 X59.4540 Y17.4543
 X59.7186 Y17.3443
 X59.8710 Y17.2808
 X59.9881 Y17.2336
 X60.0803 Y17.2001
 X60.1582 Y17.1781
 X60.2326 Y17.1651
 X60.3140 Y17.1589
 X60.4128 Y17.1568
 X60.5399 Y17.1567
 X60.8874 Y17.1556
 X61.2592 Y17.3056
G0 Z1.0
 X57.9243 Y18.0526
G1 Z0.0
 X57.9496 Y18.0664
 X57.9700 Y18.0808
 X57.9886 Y18.1013
 X58.0079 Y18.1326
 X58.0306 Y18.1801
 X58.0594 Y18.2489
 X58.0971 Y18.3438
 X58.1462 Y18.4700
 X58.2676 Y18.7829
 X58.2581 Y19.1675
 X58.2482 Y19.5506
 X58.1243 Y19.8426
 X58.0847 Y19.9368
 X58.0533 Y20.0089
 X58.0278 Y20.0625
 X58.0060 Y20.1014
 X57.9854 Y20.1289
 X57.9639 Y20.1487
 X57.9393 Y20.1647
 X57.9092 Y20.1803
 X57.8185 Y20.2244
 X57.6792 Y20.0865
 X57.5413 Y19.9475
 X57.6365 Y19.7489
 X57.7079 Y19.5831
 X57.7536 Y19.4322
 X57.7775 Y19.2767
 X57.7840 Y19.0969
 X57.7700 Y18.8971
 X57.7289 Y18.7033
 X57.6624 Y18.5204
 X57.5715 Y18.3529
 X57.5344 Y18.2950
 X57.6711 Y18.1585
 X57.7258 Y18.1050
 X57.7751 Y18.0613
 X57.8132 Y18.0318
 X57.8347 Y18.0210
 X57.8511 Y18.0236
 X57.8735 Y18.0307
 X57.8987 Y18.0407
 X57.9243 Y18.0526
G0 Z1.0
 X57.0769 Y17.3429
G1 Z0.0
 X57.1682 Y17.3812
 X57.2387 Y17.4118
 X57.2919 Y17.4369
 X57.3310 Y17.4586
 X57.3594 Y17.4789
 X57.3806 Y17.5001
 X57.3978 Y17.5243
 X57.4146 Y17.5535
 X57.4658 Y17.6446
 X57.3236 Y17.7881
 X57.1803 Y17.9328
 X57.0300 Y17.8513
 X56.8535 Y17.7683
 X56.6813 Y17.7157
 X56.4985 Y17.6903
 X56.2900 Y17.6886
 X56.1528 Y17.6961
 X56.0510 Y17.7082
 X55.9625 Y17.7289
 X55.8656 Y17.7617
 X55.7935 Y17.7903
 X55.7212 Y17.8218
 X55.6575 Y17.8525
 X55.6108 Y17.8788
 X55.5254 Y17.9328
 X55.3804 Y17.7881
 X55.2358 Y17.6417
 X55.2800 Y17.5525
 X55.3067 Y17.5036
 X55.3371 Y17.4697
 X55.3806 Y17.4431
 X55.4468 Y17.4160
 X55.5128 Y17.3914
 X55.6000 Y17.3582
 X55.6971 Y17.3207
 X55.7925 Y17.2836
 X56.0144 Y17.1968
 X56.4018 Y17.2092
 X56.7892 Y17.2229
 X57.0769 Y17.3429
G0 Z1.0
 X55.9953 Y20.5108
G1 Z0.0
 X56.2569 Y20.5512
 X56.5249 Y20.5431
 X56.7864 Y20.4878
 X57.0286 Y20.3871
 X57.1803 Y20.3042
 X57.3236 Y20.4476
 X57.4658 Y20.5910
 X57.4160 Y20.6806
 X57.3985 Y20.7097
 X57.3803 Y20.7339
 X57.3572 Y20.7553
 X57.3250 Y20.7763
 X57.2793 Y20.7993
 X57.2160 Y20.8269
 X57.1306 Y20.8613
 X57.0192 Y20.9049
 X56.6744 Y21.0386
 X56.2914 Y21.0249
 X55.9096 Y21.0111
 X55.6161 Y20.8886
 X55.5025 Y20.8412
 X55.4085 Y20.8012
 X55.3438 Y20.7728
 X55.3187 Y20.7603
 X55.3036 Y20.7311
 X55.2911 Y20.7033
 X55.2771 Y20.6707
 X55.2429 Y20.5867
 X55.3819 Y20.4476
 X55.5213 Y20.3069
 X55.6768 Y20.3885
 X55.7500 Y20.4238
 X55.8344 Y20.4586
 X55.9197 Y20.4889
 X55.9953 Y20.5108
G0 Z1.0
 X55.0276 Y18.1532
G1 Z0.0
 X55.1575 Y18.2856
 X55.0638 Y18.4743
 X54.9468 Y18.7924
 X54.9085 Y19.1156
 X54.9483 Y19.4400
 X55.0665 Y19.7611
 X55.1600 Y19.9514
 X55.0290 Y20.0836
 X54.9763 Y20.1351
 X54.9289 Y20.1772
 X54.8924 Y20.2056
 X54.8721 Y20.2160
 X54.8558 Y20.2131
 X54.8318 Y20.2054
 X54.8031 Y20.1944
 X54.7731 Y20.1817
 X54.7497 Y20.1690
 X54.7296 Y20.1536
 X54.7107 Y20.1321
 X54.6913 Y20.1010
 X54.6692 Y20.0568
 X54.6431 Y19.9962
 X54.6107 Y19.9160
 X54.5704 Y19.8124
 X54.4392 Y19.4775
 X54.4421 Y19.0944
 X54.4449 Y18.7099
 X54.5704 Y18.4056
 X54.6196 Y18.2864
 X54.6607 Y18.1882
 X54.6894 Y18.1212
 X54.7014 Y18.0954
 X54.7351 Y18.0740
 X54.7844 Y18.0500
 X54.8335 Y18.0304
 X54.8665 Y18.0224
 X54.8894 Y18.0319
 X54.9276 Y18.0599
 X54.9760 Y18.1018
 X55.0290 Y18.1532
G0 X55.0276 Z1.0
 X43.5708 Y16.7228
G1 Z0.0
 X44.0076 Y16.9033
 X44.7036 Y17.5990
 X44.8839 Y18.0263
 X45.0632 Y18.4535
 Y19.4458
 X44.8867 Y19.8674
 X44.7118 Y20.2889
 X44.3618 Y20.6403
 X44.0132 Y20.9921
 X43.1422 Y21.3557
 X42.6600
 X42.1789 Y21.3543
 X41.7407 Y21.1738
 X41.3039 Y20.9931
 X40.9621 Y20.6515
 X40.6217 Y20.3097
 X40.4414 Y19.8825
 X40.2622 Y19.4554
 Y18.4467
 X40.6206 Y17.5896
 X40.9593 Y17.2490
 X41.2997 Y16.9086
 X41.7354 Y16.7269
 X42.1721 Y16.5449
 X42.6529 Y16.5435
 X43.1342
 X43.5708 Y16.7228
G0 Z1.0
 X39.7894 Y18.0840
G1 Z0.0
 X39.9564 Y18.4961
 X39.9493 Y18.9787
 X39.9411 Y19.4610
 X39.7785 Y19.8536
 X39.6158 Y20.2449
 X39.3788 Y20.3747
 X39.2825 Y20.2794
 X39.2451 Y20.2418
 X39.2144 Y20.2081
 X39.1936 Y20.1822
 X39.1858 Y20.1679
 X39.1910 Y20.1535
 X39.2049 Y20.1275
 X39.2254 Y20.0938
 X39.2507 Y20.0561
 X39.3281 Y19.9267
 X39.4067 Y19.7675
 X39.4765 Y19.6001
 X39.5276 Y19.4458
 X39.5419 Y19.3892
 X39.5531 Y19.3319
 X39.5617 Y19.2649
 X39.5679 Y19.1785
 X39.5726 Y19.0637
 X39.5761 Y18.9112
 X39.5789 Y18.7119
 X39.5814 Y18.4562
 X39.5836 Y18.2921
 X39.5864 Y18.1396
 X39.5894 Y18.0019
 X39.5928 Y17.8826
 X39.5962 Y17.7850
 X39.5996 Y17.7122
 X39.6031 Y17.6676
 X39.6064 Y17.6544
 X39.6254 Y17.6939
 X39.6662 Y17.7882
 X39.7229 Y17.9231
 X39.7894 Y18.0840
G0 Z1.0
 X36.5249 Y20.6265
G1 Z0.0
 X36.6547 Y20.7018
 X36.8019 Y20.7722
 X36.9600 Y20.8347
 X37.1218 Y20.8858
 X37.2025 Y20.9033
 X37.3008 Y20.9147
 X37.4301 Y20.9210
 X37.6040 Y20.9229
 X37.7901 Y20.9207
 X37.9193 Y20.9139
 X38.0193 Y20.8996
 X38.1181 Y20.8749
 X38.2725 Y20.8229
 X38.4268 Y20.7583
 X38.5719 Y20.6853
 X38.6994 Y20.6075
 X38.8138 Y20.5303
 X38.9185 Y20.6336
 X39.0232 Y20.7383
 X38.9558 Y20.8556
 X38.8896 Y20.9713
 X38.4608 Y21.1433
 X38.0313 Y21.3158
 X37.0858 Y21.3018
 X36.6946 Y21.1367
 X36.3015 Y20.9713
 X36.2342 Y20.8542
 X36.1668 Y20.7356
 X36.2674 Y20.6336
 X36.3065 Y20.5944
 X36.3394 Y20.5619
 X36.3626 Y20.5399
 X36.3867 Y20.5392
 X36.4196 Y20.5596
 X36.4672 Y20.5897
 X36.5249 Y20.6265
G0 Z1.0
 X35.6386 Y19.3506
G1 Z0.0
 X35.6997 Y19.5585
 X35.7686 Y19.7418
 X35.8485 Y19.9069
 X35.9421 Y20.0603
 X36.0151 Y20.1694
 X35.8083 Y20.3733
 X35.5794 Y20.2490
 X35.2517 Y19.4662
 X35.2446 Y18.9646
 X35.2379 Y18.4644
 X35.3868 Y18.1064
 X35.4464 Y17.9625
 X35.4994 Y17.8361
 X35.5400 Y17.7408
 X35.5618 Y17.6900
 X35.5757 Y17.6935
 X35.5811 Y17.7307
 X35.5858 Y17.7972
 X35.5900 Y17.8975
 X35.5939 Y18.0358
 X35.5976 Y18.2165
 X35.6017 Y18.4439
 X35.6082 Y18.7911
 X35.6171 Y19.0651
 X35.6275 Y19.2553
 X35.6386 Y19.3506
G0 Z1.0
 X34.7253 Y18.0840
G1 Z0.0
 X34.8918 Y18.4961
 X34.8851 Y18.9787
 X34.8767 Y19.4610
 X34.7140 Y19.8536
 X34.5514 Y20.2449
 X34.3147 Y20.3747
 X34.2181 Y20.2794
 X34.1803 Y20.2418
 X34.1497 Y20.2081
 X34.1292 Y20.1822
 X34.1218 Y20.1679
 X34.1268 Y20.1535
 X34.1406 Y20.1275
 X34.1611 Y20.0938
 X34.1862 Y20.0561
 X34.2636 Y19.9267
 X34.3419 Y19.7675
 X34.4117 Y19.6001
 X34.4632 Y19.4458
 X34.4775 Y19.3892
 X34.4886 Y19.3319
 X34.4972 Y19.2649
 X34.5035 Y19.1785
 X34.5082 Y19.0637
 X34.5118 Y18.9112
 X34.5146 Y18.7119
 X34.5172 Y18.4562
 X34.5193 Y18.2921
 X34.5219 Y18.1396
 X34.5249 Y18.0019
 X34.5279 Y17.8826
 X34.5313 Y17.7850
 X34.5347 Y17.7122
 X34.5382 Y17.6676
 X34.5419 Y17.6544
 X34.5611 Y17.6939
 X34.6021 Y17.7882
 X34.6589 Y17.9231
 X34.7253 Y18.0840
G0 Z1.0
 X31.4607 Y20.6265
G1 Z0.0
 X31.5900 Y20.7018
 X31.7374 Y20.7722
 X31.8956 Y20.8347
 X32.0572 Y20.8858
 X32.1381 Y20.9033
 X32.2364 Y20.9147
 X32.3657 Y20.9210
 X32.5394 Y20.9229
 X32.7258 Y20.9207
 X32.8549 Y20.9139
 X32.9549 Y20.8996
 X33.0535 Y20.8749
 X33.2082 Y20.8229
 X33.3625 Y20.7583
 X33.5076 Y20.6853
 X33.6353 Y20.6075
 X33.7496 Y20.5303
 X33.8543 Y20.6336
 X33.9590 Y20.7383
 X33.8914 Y20.8556
 X33.8254 Y20.9713
 X33.3953 Y21.1433
 X32.9668 Y21.3158
 X32.0217 Y21.3018
 X31.6300 Y21.1367
 X31.2374 Y20.9713
 X31.1697 Y20.8542
 X31.1024 Y20.7356
 X31.2029 Y20.6336
 X31.2421 Y20.5944
 X31.2750 Y20.5619
 X31.2983 Y20.5399
 X31.3224 Y20.5392
 X31.3554 Y20.5596
 X31.4031 Y20.5897
 X31.4607 Y20.6265
G0 Z1.0
 X27.1762 Y16.5932
G1 Z0.0
 X27.1900 Y16.6092
 X27.2008 Y16.6247
 X27.2089 Y16.6417
 X27.2144 Y16.6614
 X27.2178 Y16.6856
 X27.2192 Y16.7157
 X27.2190 Y16.7533
 X27.2175 Y16.8000
 X27.2108 Y16.9556
 X26.1401 Y16.9612
 X25.9179 Y16.9619
 X25.7139 Y16.9618
 X25.5317 Y16.9610
 X25.3746 Y16.9596
 X25.2462 Y16.9574
 X25.1501 Y16.9546
 X25.0900 Y16.9514
 X25.0692 Y16.9474
 X25.0801 Y16.9022
 X25.1083 Y16.8383
 X25.1471 Y16.7701
 X25.1890 Y16.7118
 X25.2199 Y16.6814
 X25.2613 Y16.6490
 X25.3075 Y16.6188
 X25.3531 Y16.5947
 X25.3897 Y16.5788
 X25.4285 Y16.5667
 X25.4796 Y16.5581
 X25.5539 Y16.5522
 X25.6619 Y16.5486
 X25.8143 Y16.5465
 X26.0215 Y16.5456
 X26.2943 Y16.5449
 X27.1293 Y16.5435
 X27.1762 Y16.5947
G0 Y16.5932 Z1.0
 X25.5707 Y10.6828
G1 Z0.0
 X25.5764 Y10.8881
 X27.2217
 Y11.0906
 X27.2203 Y11.2014
 X27.2136 Y11.2685
 X27.1979 Y11.3097
 X27.1696 Y11.3429
 X27.1169 Y11.3951
 X26.3151
 X26.0653 Y11.3949
 X25.8714 Y11.3941
 X25.7247 Y11.3922
 X25.6169 Y11.3888
 X25.5392 Y11.3836
 X25.4832 Y11.3760
 X25.4400 Y11.3658
 X25.4014 Y11.3524
 X25.3511 Y11.3300
 X25.2990 Y11.3001
 X25.2506 Y11.2661
 X25.2112 Y11.2314
 X25.1703 Y11.1866
 X25.1378 Y11.1433
 X25.1129 Y11.0981
 X25.0947 Y11.0478
 X25.0821 Y10.9893
 X25.0742 Y10.9191
 X25.0701 Y10.8342
 X25.0692 Y10.7311
 Y10.4652
 X25.3175 Y10.4704
 X25.5654 Y10.4775
 X25.5707 Y10.6828
G0 Z1.0
 X27.1900 Y6.6340
G1 Z0.0
 X27.2054 Y6.6679
 X27.2146 Y6.7158
 X27.2179 Y6.7849
 X27.2161 Y6.8820
 X27.2108 Y7.0792
 X25.5764 Y7.0901
 X25.5707 Y7.2859
 X25.5654 Y7.4803
 X25.3175 Y7.4870
 X25.0692 Y7.4926
 Y7.2281
 X25.0701 Y7.1262
 X25.0742 Y7.0419
 X25.0815 Y6.9721
 X25.0935 Y6.9137
 X25.1106 Y6.8638
 X25.1338 Y6.8194
 X25.1639 Y6.7773
 X25.2017 Y6.7345
 X25.2506 Y6.6851
 X25.2986 Y6.6479
 X25.3586 Y6.6212
 X25.4439 Y6.6033
 X25.5674 Y6.5925
 X25.7419 Y6.5870
 X25.9808 Y6.5849
 X26.2971 Y6.5846
 X27.1568 Y6.5832
 X27.1900 Y6.6340
G0 Z1.0
 X35.5988 Y8.9052
G1 Z0.0
 Y11.6695
 X34.5225
 Y7.2058
 X35.0558 Y6.6742
 X35.1626 Y6.5671
 X35.2626 Y6.4671
 X35.3536 Y6.3765
 X35.4332 Y6.2975
 X35.4992 Y6.2322
 X35.5493 Y6.1829
 X35.5817 Y6.1517
 X35.5944 Y6.1973
 X35.5949 Y6.2657
 X35.5954 Y6.3590
 X35.5958 Y6.4758
 X35.5962 Y6.6147
 X35.5967 Y6.7742
 X35.5971 Y6.9530
 X35.5975 Y7.1495
 X35.5978 Y7.3625
 X35.5981 Y7.5904
 X35.5983 Y7.8320
 X35.5985 Y8.0856
 X35.5986 Y8.3500
 X35.5988 Y8.6236
 Y8.9052
G0 Z1.0
 X122.6220 Y12.6506
G1 Z0.0
 Y24.9206
 X0.3803
 Y0.3792
 X122.6220
 Y12.6506
G0 Z1.0
M5 (stop spindle)
G04 P3 (wait for 3 seconds)
G0 Z1.0
M2 (end program)
