( pcb2gcode 1.1.4 )

G94     ( Inches per minute feed rate. )
G20     ( Units == INCHES.             )
G90     ( Absolute coordinates.        )
S2000  ( RPM spindle speed.           )
M3      ( Spindle on clockwise.        )

G64 P0.00500 ( set maximum deviation from commanded toolpath )

G04 P0 ( dwell for no time -- G64 should not smooth over this point )
G00 Z1.00000 ( retract )

G00 X0.08410 Y1.64930 ( rapid move to begin. )
G01 Z0.00100 F2.00000 ( plunge. )
G04 P0 ( dwell for no time -- G64 should not smooth over this point )
X0.08410 Y1.64930
X0.08210 Y1.64930
X0.08210 Y1.64830
X0.08110 Y1.64830
X0.08110 Y1.64730
X0.08010 Y1.64730
X0.08010 Y1.64530
X0.07910 Y1.64530
X0.07910 Y0.08130
X0.08010 Y0.08130
X0.08010 Y0.07930
X0.08110 Y0.07930
X0.08110 Y0.07830
X0.08210 Y0.07830
X0.08210 Y0.07730
X0.08410 Y0.07730
X0.08410 Y0.07630
X2.79010 Y0.07630
X2.79010 Y0.07730
X2.79210 Y0.07730
X2.79210 Y0.07830
X2.79310 Y0.07830
X2.79310 Y0.07930
X2.79410 Y0.07930
X2.79410 Y0.08130
X2.79510 Y0.08130
X2.79510 Y1.64530
X2.79410 Y1.64530
X2.79410 Y1.64730
X2.79310 Y1.64730
X2.79310 Y1.64830
X2.79210 Y1.64830
X2.79210 Y1.64930
X2.79010 Y1.64930
X2.79010 Y1.65030
X0.08410 Y1.65030
X0.08410 Y1.64930
G04 P0 ( dwell for no time -- G64 should not smooth over this point )
G00 Z1.00000 ( retract )

G00 X1.77610 Y1.54830 ( rapid move to begin. )
G01 Z0.00100 F2.00000 ( plunge. )
G04 P0 ( dwell for no time -- G64 should not smooth over this point )
X1.77610 Y1.54830
X1.77610 Y1.21630
X1.77710 Y1.21630
X1.77710 Y1.21530
X1.77810 Y1.21530
X1.77810 Y1.21430
X1.77910 Y1.21430
X1.77910 Y1.21330
X1.79210 Y1.21330
X1.79210 Y1.21430
X1.79510 Y1.21430
X1.79510 Y1.21330
X1.79610 Y1.21330
X1.79610 Y1.21230
X1.79710 Y1.21230
X1.79710 Y1.21130
X1.79810 Y1.21130
X1.79810 Y1.21030
X1.79910 Y1.21030
X1.79910 Y1.20930
X1.79910 Y1.20930
X1.79910 Y1.20730
X1.79810 Y1.20730
X1.79810 Y1.20530
X1.79710 Y1.20530
X1.79710 Y1.20230
X1.79610 Y1.20230
X1.79610 Y1.19930
X1.79510 Y1.19930
X1.79510 Y1.19630
X1.79410 Y1.19630
X1.79410 Y1.18830
X1.79310 Y1.18830
X1.79310 Y1.16930
X1.79410 Y1.16930
X1.79410 Y1.16130
X1.79510 Y1.16130
X1.79510 Y1.15830
X1.79610 Y1.15830
X1.79610 Y1.15530
X1.79710 Y1.15530
X1.79710 Y1.15230
X1.79810 Y1.15230
X1.79810 Y1.15030
X1.79910 Y1.15030
X1.79910 Y1.14830
X1.80010 Y1.14830
X1.80010 Y1.14730
X1.79910 Y1.14730
X1.79910 Y1.14630
X1.79810 Y1.14630
X1.79810 Y1.14530
X1.79710 Y1.14530
X1.79710 Y1.14430
X1.79610 Y1.14430
X1.79610 Y1.14330
X1.79510 Y1.14330
X1.79510 Y1.14230
X1.79210 Y1.14230
X1.79210 Y1.14330
X1.77910 Y1.14330
X1.77910 Y1.14230
X1.77810 Y1.14230
X1.77810 Y1.14130
X1.77710 Y1.14130
X1.77710 Y1.14030
X1.77610 Y1.14030
X1.77610 Y1.07530
X1.77710 Y1.07530
X1.77710 Y1.07430
X1.77810 Y1.07430
X1.77810 Y1.07330
X1.77910 Y1.07330
X1.77910 Y1.07230
X2.26210 Y1.07230
X2.26210 Y1.07330
X2.26310 Y1.07330
X2.26310 Y1.07430
X2.26410 Y1.07430
X2.26410 Y1.07530
X2.26510 Y1.07530
X2.26510 Y1.14530
X2.26410 Y1.14530
X2.26410 Y1.14630
X2.26310 Y1.14630
X2.26310 Y1.14730
X2.26210 Y1.14730
X2.26210 Y1.14830
X2.24910 Y1.14830
X2.24910 Y1.14730
X2.24810 Y1.14730
X2.24810 Y1.14630
X2.24710 Y1.14630
X2.24710 Y1.14530
X2.24610 Y1.14530
X2.24610 Y1.14330
X2.24510 Y1.14330
X2.24510 Y1.14230
X2.24410 Y1.14230
X2.24410 Y1.14330
X2.24310 Y1.14330
X2.24310 Y1.14430
X2.24210 Y1.14430
X2.24210 Y1.14530
X2.24110 Y1.14530
X2.24110 Y1.14630
X2.24010 Y1.14630
X2.24010 Y1.14730
X2.23910 Y1.14730
X2.23910 Y1.14830
X2.24010 Y1.14830
X2.24010 Y1.15030
X2.24110 Y1.15030
X2.24110 Y1.15230
X2.24210 Y1.15230
X2.24210 Y1.15530
X2.24310 Y1.15530
X2.24310 Y1.15830
X2.24410 Y1.15830
X2.24410 Y1.16130
X2.24510 Y1.16130
X2.24510 Y1.16830
X2.24610 Y1.16830
X2.24610 Y1.18930
X2.24510 Y1.18930
X2.24510 Y1.19630
X2.24410 Y1.19630
X2.24410 Y1.19930
X2.24310 Y1.19930
X2.24310 Y1.20230
X2.24210 Y1.20230
X2.24210 Y1.20530
X2.24110 Y1.20530
X2.24110 Y1.20730
X2.24010 Y1.20730
X2.24010 Y1.20930
X2.23910 Y1.20930
X2.23910 Y1.21030
X2.24010 Y1.21030
X2.24010 Y1.21130
X2.24110 Y1.21130
X2.24110 Y1.21230
X2.24210 Y1.21230
X2.24210 Y1.21330
X2.24310 Y1.21330
X2.24310 Y1.21430
X2.24410 Y1.21430
X2.24410 Y1.21430
X2.24510 Y1.21430
X2.24510 Y1.21330
X2.24610 Y1.21330
X2.24610 Y1.21130
X2.24710 Y1.21130
X2.24710 Y1.21030
X2.24810 Y1.21030
X2.24810 Y1.20930
X2.24910 Y1.20930
X2.24910 Y1.20830
X2.26210 Y1.20830
X2.26210 Y1.20930
X2.26310 Y1.20930
X2.26310 Y1.21030
X2.26410 Y1.21030
X2.26410 Y1.21130
X2.26510 Y1.21130
X2.26510 Y1.25330
X2.45110 Y1.25330
X2.45110 Y1.25430
X2.45210 Y1.25430
X2.45210 Y1.25530
X2.45310 Y1.25530
X2.45310 Y1.25630
X2.45410 Y1.25630
X2.45410 Y1.55030
X2.45310 Y1.55030
X2.45310 Y1.55130
X2.45210 Y1.55130
X2.45210 Y1.55230
X2.45110 Y1.55230
X2.45110 Y1.55330
X1.77910 Y1.55330
X1.77910 Y1.55230
X1.77810 Y1.55230
X1.77810 Y1.55130
X1.77710 Y1.55130
X1.77710 Y1.55030
X1.77610 Y1.55030
X1.77610 Y1.54830
G04 P0 ( dwell for no time -- G64 should not smooth over this point )
G00 Z1.00000 ( retract )

G00 X0.79110 Y1.54830 ( rapid move to begin. )
G01 Z0.00100 F2.00000 ( plunge. )
G04 P0 ( dwell for no time -- G64 should not smooth over this point )
X0.79110 Y1.54830
X0.79110 Y1.49430
X0.79010 Y1.49430
X0.79010 Y1.38830
X0.78910 Y1.38830
X0.78910 Y1.28230
X0.78810 Y1.28230
X0.78810 Y1.21830
X0.78910 Y1.21830
X0.78910 Y1.21730
X0.79010 Y1.21730
X0.79010 Y1.21630
X0.79110 Y1.21630
X0.79110 Y1.21530
X0.80210 Y1.21530
X0.80210 Y1.21430
X0.80310 Y1.21430
X0.80310 Y1.21330
X0.80410 Y1.21330
X0.80410 Y1.21230
X0.80510 Y1.21230
X0.80510 Y1.21130
X0.80610 Y1.21130
X0.80610 Y1.21030
X0.80710 Y1.21030
X0.80710 Y1.20930
X0.80710 Y1.20930
X0.80710 Y1.20730
X0.80610 Y1.20730
X0.80610 Y1.20530
X0.80510 Y1.20530
X0.80510 Y1.20230
X0.80410 Y1.20230
X0.80410 Y1.19930
X0.80310 Y1.19930
X0.80310 Y1.19630
X0.80210 Y1.19630
X0.80210 Y1.18830
X0.80110 Y1.18830
X0.80110 Y1.16930
X0.80210 Y1.16930
X0.80210 Y1.16130
X0.80310 Y1.16130
X0.80310 Y1.15830
X0.80410 Y1.15830
X0.80410 Y1.15530
X0.80510 Y1.15530
X0.80510 Y1.15230
X0.80610 Y1.15230
X0.80610 Y1.15030
X0.80710 Y1.15030
X0.80710 Y1.14830
X0.80810 Y1.14830
X0.80810 Y1.14730
X0.80710 Y1.14730
X0.80710 Y1.14630
X0.80610 Y1.14630
X0.80610 Y1.14530
X0.80510 Y1.14530
X0.80510 Y1.14430
X0.80410 Y1.14430
X0.80410 Y1.14330
X0.80310 Y1.14330
X0.80310 Y1.14230
X0.79010 Y1.14230
X0.79010 Y1.14130
X0.78910 Y1.14130
X0.78910 Y1.14030
X0.78810 Y1.14030
X0.78810 Y1.13930
X0.78710 Y1.13930
X0.78710 Y1.07430
X0.78610 Y1.07430
X0.78610 Y1.00030
X0.78710 Y1.00030
X0.78710 Y0.99930
X0.78810 Y0.99930
X0.78810 Y0.99830
X0.78910 Y0.99830
X0.78910 Y0.99730
X0.80210 Y0.99730
X0.80210 Y0.99830
X0.80310 Y0.99830
X0.80310 Y0.99730
X0.80410 Y0.99730
X0.80410 Y0.99630
X0.80510 Y0.99630
X0.80510 Y0.99530
X0.80610 Y0.99530
X0.80610 Y0.99430
X0.80710 Y0.99430
X0.80710 Y0.99330
X0.80810 Y0.99330
X0.80810 Y0.99230
X0.80710 Y0.99230
X0.80710 Y0.99030
X0.80610 Y0.99030
X0.80610 Y0.98830
X0.80510 Y0.98830
X0.80510 Y0.98530
X0.80410 Y0.98530
X0.80410 Y0.98230
X0.80310 Y0.98230
X0.80310 Y0.97930
X0.80210 Y0.97930
X0.80210 Y0.97130
X0.80110 Y0.97130
X0.80110 Y0.95230
X0.80210 Y0.95230
X0.80210 Y0.94430
X0.80310 Y0.94430
X0.80310 Y0.94130
X0.80410 Y0.94130
X0.80410 Y0.93830
X0.80510 Y0.93830
X0.80510 Y0.93530
X0.80610 Y0.93530
X0.80610 Y0.93330
X0.80710 Y0.93330
X0.80710 Y0.93130
X0.80810 Y0.93130
X0.80810 Y0.93030
X0.80710 Y0.93030
X0.80710 Y0.92930
X0.80610 Y0.92930
X0.80610 Y0.92830
X0.80510 Y0.92830
X0.80510 Y0.92730
X0.80410 Y0.92730
X0.80410 Y0.92630
X0.80310 Y0.92630
X0.80310 Y0.92530
X0.80110 Y0.92530
X0.80110 Y0.92630
X0.78810 Y0.92630
X0.78810 Y0.92530
X0.78710 Y0.92530
X0.78710 Y0.92430
X0.78610 Y0.92430
X0.78610 Y0.92330
X0.78510 Y0.92330
X0.78510 Y0.85330
X0.78410 Y0.85330
X0.78410 Y0.77530
X0.78510 Y0.77530
X0.78510 Y0.77430
X0.78610 Y0.77430
X0.78610 Y0.77330
X0.78710 Y0.77330
X0.78710 Y0.77230
X0.92810 Y0.77230
X0.92810 Y0.77030
X0.92910 Y0.77030
X0.92910 Y0.76930
X0.93010 Y0.76930
X0.93010 Y0.76830
X0.93110 Y0.76830
X0.93110 Y0.76730
X0.93210 Y0.76730
X0.93210 Y0.76630
X0.93310 Y0.76630
X0.93310 Y0.76530
X0.93410 Y0.76530
X0.93410 Y0.76430
X0.93510 Y0.76430
X0.93510 Y0.76330
X0.93610 Y0.76330
X0.93610 Y0.76230
X0.93710 Y0.76230
X0.93710 Y0.76130
X0.93810 Y0.76130
X0.93810 Y0.76030
X0.93910 Y0.76030
X0.93910 Y0.75830
X0.94010 Y0.75830
X0.94010 Y0.75730
X0.94110 Y0.75730
X0.94110 Y0.75630
X0.94210 Y0.75630
X0.94210 Y0.75530
X0.94310 Y0.75530
X0.94310 Y0.75430
X0.94410 Y0.75430
X0.94410 Y0.75330
X0.94510 Y0.75330
X0.94510 Y0.75230
X0.94610 Y0.75230
X0.94610 Y0.75130
X0.94710 Y0.75130
X0.94710 Y0.75030
X0.94810 Y0.75030
X0.94810 Y0.74930
X0.94910 Y0.74930
X0.94910 Y0.74730
X0.95010 Y0.74730
X0.95010 Y0.74630
X0.95110 Y0.74630
X0.95110 Y0.74530
X0.95210 Y0.74530
X0.95210 Y0.74430
X0.95310 Y0.74430
X0.95310 Y0.74330
X0.95410 Y0.74330
X0.95410 Y0.74230
X0.95510 Y0.74230
X0.95510 Y0.74130
X0.95610 Y0.74130
X0.95610 Y0.74030
X0.95710 Y0.74030
X0.95710 Y0.73930
X0.95810 Y0.73930
X0.95810 Y0.73830
X0.95910 Y0.73830
X0.95910 Y0.73630
X0.96010 Y0.73630
X0.96010 Y0.73530
X0.96110 Y0.73530
X0.96110 Y0.73430
X0.96210 Y0.73430
X0.96210 Y0.73330
X0.96310 Y0.73330
X0.96310 Y0.73230
X0.96410 Y0.73230
X0.96410 Y0.73130
X0.96510 Y0.73130
X0.96510 Y0.73030
X0.96610 Y0.73030
X0.96610 Y0.72930
X0.96710 Y0.72930
X0.96710 Y0.72830
X0.96810 Y0.72830
X0.96810 Y0.72730
X0.96910 Y0.72730
X0.96910 Y0.72630
X0.97010 Y0.72630
X0.97010 Y0.72430
X0.97110 Y0.72430
X0.97110 Y0.72330
X0.97210 Y0.72330
X0.97210 Y0.72230
X0.97310 Y0.72230
X0.97310 Y0.72130
X0.97410 Y0.72130
X0.97410 Y0.72030
X0.97510 Y0.72030
X0.97510 Y0.71930
X0.97610 Y0.71930
X0.97610 Y0.71830
X0.97710 Y0.71830
X0.97710 Y0.71730
X0.97810 Y0.71730
X0.97810 Y0.71630
X0.97910 Y0.71630
X0.97910 Y0.71530
X0.98010 Y0.71530
X0.98010 Y0.71330
X0.98110 Y0.71330
X0.98110 Y0.71230
X0.98210 Y0.71230
X0.98210 Y0.71130
X0.98310 Y0.71130
X0.98310 Y0.71030
X0.98410 Y0.71030
X0.98410 Y0.70930
X0.98510 Y0.70930
X0.98510 Y0.70830
X0.98610 Y0.70830
X0.98610 Y0.70730
X0.98710 Y0.70730
X0.98710 Y0.70630
X0.98810 Y0.70630
X0.98810 Y0.70530
X0.98910 Y0.70530
X0.98910 Y0.70430
X0.99010 Y0.70430
X0.99010 Y0.70230
X0.99110 Y0.70230
X0.99110 Y0.70130
X0.99210 Y0.70130
X0.99210 Y0.70030
X0.99310 Y0.70030
X0.99310 Y0.69930
X0.99410 Y0.69930
X0.99410 Y0.69830
X0.99510 Y0.69830
X0.99510 Y0.69730
X0.99610 Y0.69730
X0.99610 Y0.69630
X0.99710 Y0.69630
X0.99710 Y0.69530
X0.99810 Y0.69530
X0.99810 Y0.69430
X0.99910 Y0.69430
X0.99910 Y0.69330
X1.00010 Y0.69330
X1.00010 Y0.69130
X1.00110 Y0.69130
X1.00110 Y0.69030
X1.00210 Y0.69030
X1.00210 Y0.68930
X1.00310 Y0.68930
X1.00310 Y0.68830
X1.00410 Y0.68830
X1.00410 Y0.68730
X1.00510 Y0.68730
X1.00510 Y0.68630
X1.00610 Y0.68630
X1.00610 Y0.68530
X1.00710 Y0.68530
X1.00710 Y0.68430
X1.00810 Y0.68430
X1.00810 Y0.68330
X1.00910 Y0.68330
X1.00910 Y0.68230
X1.01010 Y0.68230
X1.01010 Y0.68130
X1.01110 Y0.68130
X1.01110 Y0.67930
X1.01210 Y0.67930
X1.01210 Y0.67830
X1.01310 Y0.67830
X1.01310 Y0.67730
X1.01410 Y0.67730
X1.01410 Y0.67630
X1.01510 Y0.67630
X1.01510 Y0.67530
X1.01610 Y0.67530
X1.01610 Y0.67430
X1.01710 Y0.67430
X1.01710 Y0.67330
X1.01810 Y0.67330
X1.01810 Y0.67230
X1.01910 Y0.67230
X1.01910 Y0.67130
X1.02010 Y0.67130
X1.02010 Y0.67030
X1.02110 Y0.67030
X1.02110 Y0.66830
X1.02210 Y0.66830
X1.02210 Y0.66730
X1.02310 Y0.66730
X1.02310 Y0.66630
X1.02410 Y0.66630
X1.02410 Y0.66530
X1.02510 Y0.66530
X1.02510 Y0.66430
X1.02610 Y0.66430
X1.02610 Y0.66330
X1.02710 Y0.66330
X1.02710 Y0.66230
X1.02810 Y0.66230
X1.02810 Y0.66130
X1.02910 Y0.66130
X1.02910 Y0.66030
X1.03010 Y0.66030
X1.03010 Y0.65930
X1.03110 Y0.65930
X1.03110 Y0.65730
X1.03210 Y0.65730
X1.03210 Y0.65630
X1.03310 Y0.65630
X1.03310 Y0.65530
X1.03410 Y0.65530
X1.03410 Y0.65430
X1.03510 Y0.65430
X1.03510 Y0.65330
X1.03610 Y0.65330
X1.03610 Y0.65230
X1.03710 Y0.65230
X1.03710 Y0.65130
X1.03810 Y0.65130
X1.03810 Y0.65030
X1.03910 Y0.65030
X1.03910 Y0.64930
X1.04010 Y0.64930
X1.04010 Y0.64830
X1.04110 Y0.64830
X1.04110 Y0.64630
X1.04210 Y0.64630
X1.04210 Y0.64530
X1.04310 Y0.64530
X1.04310 Y0.64430
X1.04410 Y0.64430
X1.04410 Y0.64330
X1.04510 Y0.64330
X1.04510 Y0.64230
X1.04610 Y0.64230
X1.04610 Y0.64130
X1.04710 Y0.64130
X1.04710 Y0.64030
X1.04810 Y0.64030
X1.04810 Y0.63930
X1.04910 Y0.63930
X1.04910 Y0.63830
X1.05010 Y0.63830
X1.05010 Y0.63730
X1.05110 Y0.63730
X1.05110 Y0.63630
X1.05210 Y0.63630
X1.05210 Y0.63430
X1.05310 Y0.63430
X1.05310 Y0.63330
X1.05410 Y0.63330
X1.05410 Y0.63230
X1.05510 Y0.63230
X1.05510 Y0.63130
X1.05610 Y0.63130
X1.05610 Y0.63030
X1.05710 Y0.63030
X1.05710 Y0.62930
X1.05810 Y0.62930
X1.05810 Y0.62830
X1.05910 Y0.62830
X1.05910 Y0.62730
X1.06010 Y0.62730
X1.06010 Y0.62630
X1.06110 Y0.62630
X1.06110 Y0.62530
X1.06210 Y0.62530
X1.06210 Y0.62330
X1.06310 Y0.62330
X1.06310 Y0.62230
X1.06410 Y0.62230
X1.06410 Y0.62130
X1.06510 Y0.62130
X1.06510 Y0.62030
X1.06610 Y0.62030
X1.06610 Y0.61930
X1.06710 Y0.61930
X1.06710 Y0.61830
X1.06810 Y0.61830
X1.06810 Y0.61730
X1.06910 Y0.61730
X1.06910 Y0.61630
X1.07010 Y0.61630
X1.07010 Y0.61530
X1.07110 Y0.61530
X1.07110 Y0.61430
X1.07210 Y0.61430
X1.07210 Y0.61230
X1.07310 Y0.61230
X1.07310 Y0.61130
X1.07410 Y0.61130
X1.07410 Y0.61030
X1.07510 Y0.61030
X1.07510 Y0.60930
X1.07610 Y0.60930
X1.07610 Y0.60830
X1.07710 Y0.60830
X1.07710 Y0.60730
X1.07810 Y0.60730
X1.07810 Y0.60630
X1.07910 Y0.60630
X1.07910 Y0.60530
X1.08010 Y0.60530
X1.08010 Y0.60430
X1.08110 Y0.60430
X1.08110 Y0.60330
X1.08210 Y0.60330
X1.08210 Y0.60130
X1.08310 Y0.60130
X1.08310 Y0.60030
X1.08410 Y0.60030
X1.08410 Y0.59930
X1.08510 Y0.59930
X1.08510 Y0.59830
X1.08610 Y0.59830
X1.08610 Y0.59730
X1.08710 Y0.59730
X1.08710 Y0.59630
X1.08810 Y0.59630
X1.08810 Y0.59530
X1.08910 Y0.59530
X1.08910 Y0.59430
X1.09010 Y0.59430
X1.09010 Y0.59330
X1.09110 Y0.59330
X1.09110 Y0.59230
X1.09210 Y0.59230
X1.09210 Y0.59130
X1.09310 Y0.59130
X1.09310 Y0.58930
X1.09410 Y0.58930
X1.09410 Y0.58830
X1.09510 Y0.58830
X1.09510 Y0.58730
X1.09610 Y0.58730
X1.09610 Y0.58630
X1.09710 Y0.58630
X1.09710 Y0.58530
X1.09810 Y0.58530
X1.09810 Y0.58430
X1.09910 Y0.58430
X1.09910 Y0.58330
X1.10010 Y0.58330
X1.10010 Y0.58230
X1.10110 Y0.58230
X1.10110 Y0.58130
X1.10210 Y0.58130
X1.10210 Y0.58030
X1.10310 Y0.58030
X1.10310 Y0.57830
X1.10410 Y0.57830
X1.10410 Y0.57730
X1.10510 Y0.57730
X1.10510 Y0.57630
X1.10610 Y0.57630
X1.10610 Y0.57530
X1.10710 Y0.57530
X1.10710 Y0.57430
X1.10810 Y0.57430
X1.10810 Y0.57330
X1.10910 Y0.57330
X1.10910 Y0.57230
X1.11010 Y0.57230
X1.11010 Y0.57130
X1.11110 Y0.57130
X1.11110 Y0.57030
X1.11210 Y0.57030
X1.11210 Y0.56930
X1.11310 Y0.56930
X1.11310 Y0.56730
X1.11410 Y0.56730
X1.11410 Y0.56630
X1.11510 Y0.56630
X1.11510 Y0.56530
X1.11610 Y0.56530
X1.11610 Y0.56430
X1.11710 Y0.56430
X1.11710 Y0.56330
X1.11810 Y0.56330
X1.11810 Y0.56230
X1.11910 Y0.56230
X1.11910 Y0.56130
X1.12010 Y0.56130
X1.12010 Y0.56030
X1.12110 Y0.56030
X1.12110 Y0.55930
X1.12210 Y0.55930
X1.12210 Y0.55830
X1.12310 Y0.55830
X1.12310 Y0.55730
X1.12410 Y0.55730
X1.12410 Y0.55530
X1.12510 Y0.55530
X1.12510 Y0.55430
X1.12610 Y0.55430
X1.12610 Y0.55330
X1.12710 Y0.55330
X1.12710 Y0.55230
X1.12810 Y0.55230
X1.12810 Y0.55130
X1.12910 Y0.55130
X1.12910 Y0.55030
X1.13010 Y0.55030
X1.13010 Y0.54930
X1.13110 Y0.54930
X1.13110 Y0.54830
X1.13210 Y0.54830
X1.13210 Y0.54730
X1.13310 Y0.54730
X1.13310 Y0.54630
X1.13410 Y0.54630
X1.13410 Y0.54430
X1.13510 Y0.54430
X1.13510 Y0.54330
X1.13610 Y0.54330
X1.13610 Y0.54230
X1.13710 Y0.54230
X1.13710 Y0.54130
X1.13810 Y0.54130
X1.13810 Y0.54030
X1.13910 Y0.54030
X1.13910 Y0.53930
X1.14010 Y0.53930
X1.14010 Y0.53830
X1.14110 Y0.53830
X1.14110 Y0.53730
X1.14210 Y0.53730
X1.14210 Y0.53630
X1.14310 Y0.53630
X1.14310 Y0.53530
X1.14410 Y0.53530
X1.14410 Y0.53330
X1.14510 Y0.53330
X1.14510 Y0.53230
X1.14610 Y0.53230
X1.14610 Y0.53130
X1.14710 Y0.53130
X1.14710 Y0.53030
X1.14810 Y0.53030
X1.14810 Y0.52930
X1.14910 Y0.52930
X1.14910 Y0.52830
X1.15010 Y0.52830
X1.15010 Y0.52730
X1.15110 Y0.52730
X1.15110 Y0.52630
X1.15210 Y0.52630
X1.15210 Y0.52530
X1.15310 Y0.52530
X1.15310 Y0.52430
X1.15510 Y0.52430
X1.15510 Y0.52330
X1.15610 Y0.52330
X1.15610 Y0.52230
X1.15810 Y0.52230
X1.15810 Y0.52130
X1.16110 Y0.52130
X1.16110 Y0.52030
X1.16410 Y0.52030
X1.16410 Y0.51930
X1.19910 Y0.51930
X1.19910 Y0.51830
X1.20110 Y0.51830
X1.20110 Y0.51730
X1.20310 Y0.51730
X1.20310 Y0.51630
X1.20610 Y0.51630
X1.20610 Y0.51530
X1.21210 Y0.51530
X1.21210 Y0.51430
X1.22710 Y0.51430
X1.22710 Y0.51530
X1.23310 Y0.51530
X1.23310 Y0.51630
X1.23610 Y0.51630
X1.23610 Y0.51730
X1.23810 Y0.51730
X1.23810 Y0.51830
X1.24010 Y0.51830
X1.24010 Y0.51930
X1.24110 Y0.51930
X1.24110 Y0.52030
X1.24310 Y0.52030
X1.24310 Y0.52130
X1.24510 Y0.52130
X1.24510 Y0.52330
X1.24610 Y0.52330
X1.24610 Y0.52430
X1.24710 Y0.52430
X1.24710 Y0.52530
X1.24810 Y0.52530
X1.24810 Y0.52730
X1.24910 Y0.52730
X1.24910 Y0.52830
X1.25010 Y0.52830
X1.25010 Y0.53030
X1.25110 Y0.53030
X1.25110 Y0.53130
X1.25210 Y0.53130
X1.25210 Y0.53630
X1.25310 Y0.53630
X1.25310 Y0.54130
X1.25410 Y0.54130
X1.25410 Y0.55630
X1.25310 Y0.55630
X1.25310 Y0.56130
X1.25210 Y0.56130
X1.25210 Y0.56630
X1.25110 Y0.56630
X1.25110 Y0.56730
X1.25010 Y0.56730
X1.25010 Y0.56930
X1.24910 Y0.56930
X1.24910 Y0.57030
X1.24810 Y0.57030
X1.24810 Y0.57230
X1.24710 Y0.57230
X1.24710 Y0.57330
X1.24610 Y0.57330
X1.24610 Y0.57430
X1.24510 Y0.57430
X1.24510 Y0.57630
X1.24310 Y0.57630
X1.24310 Y0.57730
X1.24110 Y0.57730
X1.24110 Y0.57830
X1.23910 Y0.57830
X1.23910 Y0.57930
X1.23810 Y0.57930
X1.23810 Y0.58030
X1.23610 Y0.58030
X1.23610 Y0.58130
X1.23310 Y0.58130
X1.23310 Y0.58230
X1.22710 Y0.58230
X1.22710 Y0.58330
X1.21210 Y0.58330
X1.21210 Y0.58230
X1.20610 Y0.58230
X1.20610 Y0.58130
X1.20310 Y0.58130
X1.20310 Y0.58030
X1.20110 Y0.58030
X1.20110 Y0.57930
X1.20010 Y0.57930
X1.20010 Y0.57830
X1.19810 Y0.57830
X1.19810 Y0.57730
X1.18810 Y0.57730
X1.18810 Y0.57830
X1.18710 Y0.57830
X1.18710 Y0.57930
X1.18610 Y0.57930
X1.18610 Y0.58030
X1.18510 Y0.58030
X1.18510 Y0.58130
X1.18410 Y0.58130
X1.18410 Y0.58230
X1.18310 Y0.58230
X1.18310 Y0.58330
X1.18210 Y0.58330
X1.18210 Y0.58430
X1.18110 Y0.58430
X1.18110 Y0.58630
X1.18010 Y0.58630
X1.18010 Y0.58730
X1.17910 Y0.58730
X1.17910 Y0.58830
X1.17810 Y0.58830
X1.17810 Y0.58930
X1.17710 Y0.58930
X1.17710 Y0.59030
X1.17610 Y0.59030
X1.17610 Y0.59130
X1.17510 Y0.59130
X1.17510 Y0.59230
X1.17410 Y0.59230
X1.17410 Y0.59330
X1.17310 Y0.59330
X1.17310 Y0.59430
X1.17210 Y0.59430
X1.17210 Y0.59530
X1.17110 Y0.59530
X1.17110 Y0.59730
X1.17010 Y0.59730
X1.17010 Y0.59830
X1.16910 Y0.59830
X1.16910 Y0.59930
X1.16810 Y0.59930
X1.16810 Y0.60030
X1.16710 Y0.60030
X1.16710 Y0.60130
X1.16610 Y0.60130
X1.16610 Y0.60230
X1.16510 Y0.60230
X1.16510 Y0.60330
X1.16410 Y0.60330
X1.16410 Y0.60430
X1.16310 Y0.60430
X1.16310 Y0.60530
X1.16210 Y0.60530
X1.16210 Y0.60630
X1.16110 Y0.60630
X1.16110 Y0.60830
X1.16010 Y0.60830
X1.16010 Y0.60930
X1.15910 Y0.60930
X1.15910 Y0.61030
X1.15810 Y0.61030
X1.15810 Y0.61130
X1.15710 Y0.61130
X1.15710 Y0.61230
X1.15610 Y0.61230
X1.15610 Y0.61330
X1.15510 Y0.61330
X1.15510 Y0.61430
X1.15410 Y0.61430
X1.15410 Y0.61530
X1.15310 Y0.61530
X1.15310 Y0.61630
X1.15210 Y0.61630
X1.15210 Y0.61730
X1.15110 Y0.61730
X1.15110 Y0.61930
X1.15010 Y0.61930
X1.15010 Y0.62030
X1.14910 Y0.62030
X1.14910 Y0.62130
X1.14810 Y0.62130
X1.14810 Y0.62230
X1.14710 Y0.62230
X1.14710 Y0.62330
X1.14610 Y0.62330
X1.14610 Y0.62430
X1.14510 Y0.62430
X1.14510 Y0.62530
X1.14410 Y0.62530
X1.14410 Y0.62630
X1.14310 Y0.62630
X1.14310 Y0.62730
X1.14210 Y0.62730
X1.14210 Y0.62830
X1.14110 Y0.62830
X1.14110 Y0.62930
X1.14010 Y0.62930
X1.14010 Y0.63130
X1.13910 Y0.63130
X1.13910 Y0.63230
X1.13810 Y0.63230
X1.13810 Y0.63330
X1.13710 Y0.63330
X1.13710 Y0.63430
X1.13610 Y0.63430
X1.13610 Y0.63530
X1.13510 Y0.63530
X1.13510 Y0.63630
X1.13410 Y0.63630
X1.13410 Y0.63730
X1.13310 Y0.63730
X1.13310 Y0.63830
X1.13210 Y0.63830
X1.13210 Y0.63930
X1.13110 Y0.63930
X1.13110 Y0.64030
X1.13010 Y0.64030
X1.13010 Y0.64230
X1.12910 Y0.64230
X1.12910 Y0.64330
X1.12810 Y0.64330
X1.12810 Y0.64430
X1.12710 Y0.64430
X1.12710 Y0.64530
X1.12610 Y0.64530
X1.12610 Y0.64630
X1.12510 Y0.64630
X1.12510 Y0.64730
X1.12410 Y0.64730
X1.12410 Y0.64830
X1.12310 Y0.64830
X1.12310 Y0.64930
X1.12210 Y0.64930
X1.12210 Y0.65030
X1.12110 Y0.65030
X1.12110 Y0.65130
X1.12010 Y0.65130
X1.12010 Y0.65330
X1.11910 Y0.65330
X1.11910 Y0.65430
X1.11810 Y0.65430
X1.11810 Y0.65530
X1.11710 Y0.65530
X1.11710 Y0.65630
X1.11610 Y0.65630
X1.11610 Y0.65730
X1.11510 Y0.65730
X1.11510 Y0.65830
X1.11410 Y0.65830
X1.11410 Y0.65930
X1.11310 Y0.65930
X1.11310 Y0.66030
X1.11210 Y0.66030
X1.11210 Y0.66130
X1.11110 Y0.66130
X1.11110 Y0.66230
X1.11010 Y0.66230
X1.11010 Y0.66330
X1.10910 Y0.66330
X1.10910 Y0.66530
X1.10810 Y0.66530
X1.10810 Y0.66630
X1.10710 Y0.66630
X1.10710 Y0.66730
X1.10610 Y0.66730
X1.10610 Y0.66830
X1.10510 Y0.66830
X1.10510 Y0.66930
X1.10410 Y0.66930
X1.10410 Y0.67030
X1.10310 Y0.67030
X1.10310 Y0.67130
X1.10210 Y0.67130
X1.10210 Y0.67230
X1.10110 Y0.67230
X1.10110 Y0.67330
X1.10010 Y0.67330
X1.10010 Y0.67430
X1.09910 Y0.67430
X1.09910 Y0.67630
X1.09810 Y0.67630
X1.09810 Y0.67730
X1.09710 Y0.67730
X1.09710 Y0.67830
X1.09610 Y0.67830
X1.09610 Y0.67930
X1.09510 Y0.67930
X1.09510 Y0.68030
X1.09410 Y0.68030
X1.09410 Y0.68130
X1.09310 Y0.68130
X1.09310 Y0.68230
X1.09210 Y0.68230
X1.09210 Y0.68330
X1.09110 Y0.68330
X1.09110 Y0.68430
X1.09010 Y0.68430
X1.09010 Y0.68530
X1.08910 Y0.68530
X1.08910 Y0.68730
X1.08810 Y0.68730
X1.08810 Y0.68830
X1.08710 Y0.68830
X1.08710 Y0.68930
X1.08610 Y0.68930
X1.08610 Y0.69030
X1.08510 Y0.69030
X1.08510 Y0.69130
X1.08410 Y0.69130
X1.08410 Y0.69230
X1.08310 Y0.69230
X1.08310 Y0.69330
X1.08210 Y0.69330
X1.08210 Y0.69430
X1.08110 Y0.69430
X1.08110 Y0.69530
X1.08010 Y0.69530
X1.08010 Y0.69630
X1.07910 Y0.69630
X1.07910 Y0.69830
X1.07810 Y0.69830
X1.07810 Y0.69930
X1.07710 Y0.69930
X1.07710 Y0.70030
X1.07610 Y0.70030
X1.07610 Y0.70130
X1.07510 Y0.70130
X1.07510 Y0.70230
X1.07410 Y0.70230
X1.07410 Y0.70330
X1.07310 Y0.70330
X1.07310 Y0.70430
X1.07210 Y0.70430
X1.07210 Y0.70530
X1.07110 Y0.70530
X1.07110 Y0.70630
X1.07010 Y0.70630
X1.07010 Y0.70730
X1.06910 Y0.70730
X1.06910 Y0.70830
X1.06810 Y0.70830
X1.06810 Y0.71030
X1.06710 Y0.71030
X1.06710 Y0.71130
X1.06610 Y0.71130
X1.06610 Y0.71230
X1.06510 Y0.71230
X1.06510 Y0.71330
X1.06410 Y0.71330
X1.06410 Y0.71430
X1.06310 Y0.71430
X1.06310 Y0.71530
X1.06210 Y0.71530
X1.06210 Y0.71630
X1.06110 Y0.71630
X1.06110 Y0.71730
X1.06010 Y0.71730
X1.06010 Y0.71830
X1.05910 Y0.71830
X1.05910 Y0.71930
X1.05810 Y0.71930
X1.05810 Y0.72130
X1.05710 Y0.72130
X1.05710 Y0.72230
X1.05610 Y0.72230
X1.05610 Y0.72330
X1.05510 Y0.72330
X1.05510 Y0.72430
X1.05410 Y0.72430
X1.05410 Y0.72530
X1.05310 Y0.72530
X1.05310 Y0.72630
X1.05210 Y0.72630
X1.05210 Y0.72730
X1.05110 Y0.72730
X1.05110 Y0.72830
X1.05010 Y0.72830
X1.05010 Y0.72930
X1.04910 Y0.72930
X1.04910 Y0.73030
X1.04810 Y0.73030
X1.04810 Y0.73230
X1.04710 Y0.73230
X1.04710 Y0.73330
X1.04610 Y0.73330
X1.04610 Y0.73430
X1.04510 Y0.73430
X1.04510 Y0.73530
X1.04410 Y0.73530
X1.04410 Y0.73630
X1.04310 Y0.73630
X1.04310 Y0.73730
X1.04210 Y0.73730
X1.04210 Y0.73830
X1.04110 Y0.73830
X1.04110 Y0.73930
X1.04010 Y0.73930
X1.04010 Y0.74030
X1.03910 Y0.74030
X1.03910 Y0.74130
X1.03810 Y0.74130
X1.03810 Y0.74330
X1.03710 Y0.74330
X1.03710 Y0.74430
X1.03610 Y0.74430
X1.03610 Y0.74530
X1.03510 Y0.74530
X1.03510 Y0.74630
X1.03410 Y0.74630
X1.03410 Y0.74730
X1.03310 Y0.74730
X1.03310 Y0.74830
X1.03210 Y0.74830
X1.03210 Y0.74930
X1.03110 Y0.74930
X1.03110 Y0.75030
X1.03010 Y0.75030
X1.03010 Y0.75130
X1.02910 Y0.75130
X1.02910 Y0.75230
X1.02810 Y0.75230
X1.02810 Y0.75330
X1.02710 Y0.75330
X1.02710 Y0.75530
X1.02610 Y0.75530
X1.02610 Y0.75630
X1.02510 Y0.75630
X1.02510 Y0.75730
X1.02410 Y0.75730
X1.02410 Y0.75830
X1.02310 Y0.75830
X1.02310 Y0.75930
X1.02210 Y0.75930
X1.02210 Y0.76030
X1.02110 Y0.76030
X1.02110 Y0.76130
X1.02010 Y0.76130
X1.02010 Y0.76230
X1.01910 Y0.76230
X1.01910 Y0.76330
X1.01810 Y0.76330
X1.01810 Y0.76430
X1.01710 Y0.76430
X1.01710 Y0.76630
X1.01610 Y0.76630
X1.01610 Y0.76730
X1.01510 Y0.76730
X1.01510 Y0.76830
X1.01410 Y0.76830
X1.01410 Y0.76930
X1.01310 Y0.76930
X1.01310 Y0.77030
X1.01210 Y0.77030
X1.01210 Y0.77130
X1.01110 Y0.77130
X1.01110 Y0.77230
X1.10510 Y0.77230
X1.10510 Y0.77330
X1.10610 Y0.77330
X1.10610 Y0.77430
X1.10710 Y0.77430
X1.10710 Y0.77530
X1.10810 Y0.77530
X1.10810 Y0.78830
X1.10710 Y0.78830
X1.10710 Y0.79030
X1.10610 Y0.79030
X1.10610 Y0.79130
X1.10510 Y0.79130
X1.10510 Y0.79230
X1.10410 Y0.79230
X1.10410 Y0.79330
X1.10310 Y0.79330
X1.10310 Y0.79430
X1.10210 Y0.79430
X1.10210 Y0.79530
X1.10110 Y0.79530
X1.10110 Y0.79630
X1.10010 Y0.79630
X1.10010 Y0.79730
X1.09910 Y0.79730
X1.09910 Y0.79830
X1.09810 Y0.79830
X1.09810 Y0.79930
X1.09710 Y0.79930
X1.09710 Y0.80030
X1.09610 Y0.80030
X1.09610 Y0.80130
X1.09510 Y0.80130
X1.09510 Y0.80230
X1.09410 Y0.80230
X1.09410 Y0.80330
X1.09310 Y0.80330
X1.09310 Y0.80430
X1.09210 Y0.80430
X1.09210 Y0.80530
X1.09110 Y0.80530
X1.09110 Y0.80630
X1.09010 Y0.80630
X1.09010 Y0.80730
X1.08910 Y0.80730
X1.08910 Y0.80830
X1.08810 Y0.80830
X1.08810 Y0.80930
X1.08710 Y0.80930
X1.08710 Y0.81030
X1.08610 Y0.81030
X1.08610 Y0.81130
X1.08510 Y0.81130
X1.08510 Y0.81230
X1.08410 Y0.81230
X1.08410 Y0.81330
X1.08310 Y0.81330
X1.08310 Y0.81430
X1.08210 Y0.81430
X1.08210 Y0.81630
X1.08110 Y0.81630
X1.08110 Y0.81830
X1.08010 Y0.81830
X1.08010 Y0.81930
X1.07910 Y0.81930
X1.07910 Y0.82130
X1.07810 Y0.82130
X1.07810 Y0.82230
X1.07710 Y0.82230
X1.07710 Y0.82430
X1.07610 Y0.82430
X1.07610 Y0.82630
X1.07510 Y0.82630
X1.07510 Y0.82830
X1.07410 Y0.82830
X1.07410 Y0.83330
X1.07310 Y0.83330
X1.07310 Y0.83730
X1.07210 Y0.83730
X1.07210 Y0.84230
X1.07310 Y0.84230
X1.07310 Y0.84630
X1.07410 Y0.84630
X1.07410 Y0.85130
X1.07510 Y0.85130
X1.07510 Y0.85330
X1.07610 Y0.85330
X1.07610 Y0.85530
X1.07710 Y0.85530
X1.07710 Y0.85630
X1.07810 Y0.85630
X1.07810 Y0.85830
X1.07910 Y0.85830
X1.07910 Y0.86030
X1.08010 Y0.86030
X1.08010 Y0.86130
X1.08110 Y0.86130
X1.08110 Y0.86330
X1.08210 Y0.86330
X1.08210 Y0.86430
X1.08310 Y0.86430
X1.08310 Y0.86630
X1.08410 Y0.86630
X1.08410 Y0.89930
X1.08310 Y0.89930
X1.08310 Y0.90030
X1.08210 Y0.90030
X1.08210 Y0.90130
X1.08110 Y0.90130
X1.08110 Y0.90230
X1.06710 Y0.90230
X1.06710 Y0.90130
X1.06510 Y0.90130
X1.06510 Y0.90030
X1.06210 Y0.90030
X1.06210 Y0.89930
X1.06010 Y0.89930
X1.06010 Y0.89830
X1.05810 Y0.89830
X1.05810 Y0.89730
X1.05510 Y0.89730
X1.05510 Y0.89630
X1.05310 Y0.89630
X1.05310 Y0.89530
X1.05110 Y0.89530
X1.05110 Y0.89430
X1.04810 Y0.89430
X1.04810 Y0.89330
X1.04610 Y0.89330
X1.04610 Y0.89230
X1.04410 Y0.89230
X1.04410 Y0.89130
X1.04110 Y0.89130
X1.04110 Y0.89030
X1.03910 Y0.89030
X1.03910 Y0.88930
X1.01610 Y0.88930
X1.01610 Y0.89030
X1.01310 Y0.89030
X1.01310 Y0.89130
X1.01110 Y0.89130
X1.01110 Y0.89230
X1.00810 Y0.89230
X1.00810 Y0.89330
X1.00610 Y0.89330
X1.00610 Y0.89430
X1.00310 Y0.89430
X1.00310 Y0.89530
X1.00110 Y0.89530
X1.00110 Y0.89630
X0.99810 Y0.89630
X0.99810 Y0.89730
X0.99610 Y0.89730
X0.99610 Y0.89830
X0.99310 Y0.89830
X0.99310 Y0.89930
X0.99110 Y0.89930
X0.99110 Y0.90030
X0.98910 Y0.90030
X0.98910 Y0.90130
X0.98810 Y0.90130
X0.98810 Y0.90230
X0.98710 Y0.90230
X0.98710 Y0.90330
X0.98610 Y0.90330
X0.98610 Y0.90430
X0.98510 Y0.90430
X0.98510 Y0.90530
X0.98410 Y0.90530
X0.98410 Y0.90630
X0.98310 Y0.90630
X0.98310 Y0.90730
X0.98210 Y0.90730
X0.98210 Y0.90830
X0.98110 Y0.90830
X0.98110 Y0.90930
X0.98010 Y0.90930
X0.98010 Y0.91030
X0.97910 Y0.91030
X0.97910 Y0.91130
X0.97810 Y0.91130
X0.97810 Y0.91230
X0.97710 Y0.91230
X0.97710 Y0.91330
X0.97610 Y0.91330
X0.97610 Y0.91430
X0.97510 Y0.91430
X0.97510 Y0.91530
X0.97410 Y0.91530
X0.97410 Y0.91630
X0.97310 Y0.91630
X0.97310 Y0.91730
X0.97210 Y0.91730
X0.97210 Y0.91830
X0.97110 Y0.91830
X0.97110 Y0.91930
X0.97010 Y0.91930
X0.97010 Y0.92030
X0.96910 Y0.92030
X0.96910 Y0.92130
X0.96810 Y0.92130
X0.96810 Y0.92230
X0.96710 Y0.92230
X0.96710 Y0.92330
X0.96610 Y0.92330
X0.96610 Y0.92530
X0.96510 Y0.92530
X0.96510 Y0.92730
X0.96410 Y0.92730
X0.96410 Y0.93030
X0.96310 Y0.93030
X0.96310 Y0.93230
X0.96210 Y0.93230
X0.96210 Y0.93530
X0.96110 Y0.93530
X0.96110 Y0.93730
X0.96010 Y0.93730
X0.96010 Y0.94030
X0.95910 Y0.94030
X0.95910 Y0.94230
X0.95810 Y0.94230
X0.95810 Y0.94530
X0.95710 Y0.94530
X0.95710 Y0.94730
X0.95610 Y0.94730
X0.95610 Y0.95030
X0.95510 Y0.95030
X0.95510 Y0.97330
X0.95610 Y0.97330
X0.95610 Y0.97630
X0.95710 Y0.97630
X0.95710 Y0.97830
X0.95810 Y0.97830
X0.95810 Y0.98130
X0.95910 Y0.98130
X0.95910 Y0.98330
X0.96010 Y0.98330
X0.96010 Y0.98630
X0.96110 Y0.98630
X0.96110 Y0.98830
X0.96210 Y0.98830
X0.96210 Y0.99130
X0.96310 Y0.99130
X0.96310 Y0.99330
X0.96410 Y0.99330
X0.96410 Y0.99630
X0.96510 Y0.99630
X0.96510 Y0.99830
X0.96610 Y0.99830
X0.96610 Y1.00030
X0.96710 Y1.00030
X0.96710 Y1.00130
X0.96810 Y1.00130
X0.96810 Y1.00230
X0.96910 Y1.00230
X0.96910 Y1.00330
X0.97010 Y1.00330
X0.97010 Y1.00430
X0.97110 Y1.00430
X0.97110 Y1.00530
X0.97210 Y1.00530
X0.97210 Y1.00630
X0.97310 Y1.00630
X0.97310 Y1.00730
X0.97410 Y1.00730
X0.97410 Y1.00830
X0.97510 Y1.00830
X0.97510 Y1.00930
X0.97610 Y1.00930
X0.97610 Y1.01030
X0.97710 Y1.01030
X0.97710 Y1.01130
X0.97810 Y1.01130
X0.97810 Y1.01230
X0.97910 Y1.01230
X0.97910 Y1.01330
X0.98010 Y1.01330
X0.98010 Y1.01430
X0.98110 Y1.01430
X0.98110 Y1.01530
X0.98210 Y1.01530
X0.98210 Y1.01630
X0.98310 Y1.01630
X0.98310 Y1.01730
X0.98410 Y1.01730
X0.98410 Y1.01830
X0.98510 Y1.01830
X0.98510 Y1.01930
X0.98610 Y1.01930
X0.98610 Y1.02030
X0.98710 Y1.02030
X0.98710 Y1.02130
X0.98810 Y1.02130
X0.98810 Y1.02230
X0.99010 Y1.02230
X0.99010 Y1.02330
X0.99210 Y1.02330
X0.99210 Y1.02430
X0.99410 Y1.02430
X0.99410 Y1.02530
X0.99610 Y1.02530
X0.99610 Y1.02630
X0.99910 Y1.02630
X0.99910 Y1.02730
X1.00110 Y1.02730
X1.00110 Y1.02830
X1.00310 Y1.02830
X1.00310 Y1.02930
X1.00610 Y1.02930
X1.00610 Y1.03030
X1.00810 Y1.03030
X1.00810 Y1.03130
X1.01010 Y1.03130
X1.01010 Y1.03230
X1.01310 Y1.03230
X1.01310 Y1.03330
X1.01510 Y1.03330
X1.01510 Y1.03430
X1.03910 Y1.03430
X1.03910 Y1.03330
X1.04210 Y1.03330
X1.04210 Y1.03230
X1.04410 Y1.03230
X1.04410 Y1.03130
X1.04710 Y1.03130
X1.04710 Y1.03030
X1.06010 Y1.03030
X1.06010 Y1.03130
X1.06110 Y1.03130
X1.06110 Y1.03230
X1.06210 Y1.03230
X1.06210 Y1.03330
X1.06310 Y1.03330
X1.06310 Y1.04630
X1.06210 Y1.04630
X1.06210 Y1.04830
X1.06110 Y1.04830
X1.06110 Y1.04930
X1.06010 Y1.04930
X1.06010 Y1.05030
X1.05910 Y1.05030
X1.05910 Y1.05130
X1.05810 Y1.05130
X1.05810 Y1.05230
X1.05710 Y1.05230
X1.05710 Y1.05330
X1.05610 Y1.05330
X1.05610 Y1.05430
X1.05510 Y1.05430
X1.05510 Y1.05530
X1.05410 Y1.05530
X1.05410 Y1.05630
X1.05310 Y1.05630
X1.05310 Y1.05730
X1.05210 Y1.05730
X1.05210 Y1.05830
X1.05110 Y1.05830
X1.05110 Y1.05930
X1.05010 Y1.05930
X1.05010 Y1.06030
X1.04910 Y1.06030
X1.04910 Y1.06130
X1.04810 Y1.06130
X1.04810 Y1.06230
X1.04710 Y1.06230
X1.04710 Y1.06330
X1.04610 Y1.06330
X1.04610 Y1.06430
X1.04510 Y1.06430
X1.04510 Y1.06530
X1.04410 Y1.06530
X1.04410 Y1.06630
X1.04310 Y1.06630
X1.04310 Y1.06730
X1.04210 Y1.06730
X1.04210 Y1.06830
X1.04110 Y1.06830
X1.04110 Y1.06930
X1.04010 Y1.06930
X1.04010 Y1.07030
X1.03910 Y1.07030
X1.03910 Y1.07130
X1.03810 Y1.07130
X1.03810 Y1.07230
X1.03710 Y1.07230
X1.03710 Y1.07330
X1.03610 Y1.07330
X1.03610 Y1.07430
X1.03510 Y1.07430
X1.03510 Y1.07530
X1.03410 Y1.07530
X1.03410 Y1.07630
X1.03310 Y1.07630
X1.03310 Y1.07730
X1.03210 Y1.07730
X1.03210 Y1.07830
X1.03110 Y1.07830
X1.03110 Y1.07930
X1.03010 Y1.07930
X1.03010 Y1.08030
X1.02910 Y1.08030
X1.02910 Y1.08130
X1.02810 Y1.08130
X1.02810 Y1.08230
X1.02710 Y1.08230
X1.02710 Y1.08330
X1.02610 Y1.08330
X1.02610 Y1.08430
X1.02510 Y1.08430
X1.02510 Y1.08530
X1.02410 Y1.08530
X1.02410 Y1.08630
X1.02310 Y1.08630
X1.02310 Y1.08730
X1.02210 Y1.08730
X1.02210 Y1.08830
X1.02110 Y1.08830
X1.02110 Y1.08930
X1.02010 Y1.08930
X1.02010 Y1.09030
X1.01910 Y1.09030
X1.01910 Y1.09130
X1.01810 Y1.09130
X1.01810 Y1.09230
X1.01710 Y1.09230
X1.01710 Y1.09330
X1.01610 Y1.09330
X1.01610 Y1.09430
X1.01510 Y1.09430
X1.01510 Y1.09530
X1.01410 Y1.09530
X1.01410 Y1.09630
X1.01310 Y1.09630
X1.01310 Y1.09730
X1.01210 Y1.09730
X1.01210 Y1.09830
X1.01110 Y1.09830
X1.01110 Y1.09930
X1.01010 Y1.09930
X1.01010 Y1.10030
X1.00910 Y1.10030
X1.00910 Y1.10130
X1.00810 Y1.10130
X1.00810 Y1.10230
X1.00710 Y1.10230
X1.00710 Y1.10330
X1.00610 Y1.10330
X1.00610 Y1.10430
X1.00510 Y1.10430
X1.00510 Y1.10530
X1.00410 Y1.10530
X1.00410 Y1.10630
X1.00310 Y1.10630
X1.00310 Y1.10730
X1.00210 Y1.10730
X1.00210 Y1.10830
X1.00110 Y1.10830
X1.00110 Y1.10930
X1.00010 Y1.10930
X1.00010 Y1.11030
X0.99910 Y1.11030
X0.99910 Y1.11130
X0.99810 Y1.11130
X0.99810 Y1.11230
X0.99710 Y1.11230
X0.99710 Y1.11330
X0.99610 Y1.11330
X0.99610 Y1.11430
X0.99410 Y1.11430
X0.99410 Y1.11530
X0.99210 Y1.11530
X0.99210 Y1.11630
X0.99010 Y1.11630
X0.99010 Y1.11730
X0.98910 Y1.11730
X0.98910 Y1.11830
X0.98710 Y1.11830
X0.98710 Y1.11930
X0.98610 Y1.11930
X0.98610 Y1.12030
X0.98510 Y1.12030
X0.98510 Y1.12130
X0.98410 Y1.12130
X0.98410 Y1.12230
X0.98310 Y1.12230
X0.98310 Y1.12330
X0.98210 Y1.12330
X0.98210 Y1.12430
X0.98110 Y1.12430
X0.98110 Y1.12530
X0.98010 Y1.12530
X0.98010 Y1.12630
X0.97910 Y1.12630
X0.97910 Y1.12730
X0.97810 Y1.12730
X0.97810 Y1.12830
X0.97710 Y1.12830
X0.97710 Y1.12930
X0.97610 Y1.12930
X0.97610 Y1.13030
X0.97510 Y1.13030
X0.97510 Y1.13130
X0.97410 Y1.13130
X0.97410 Y1.13230
X0.97310 Y1.13230
X0.97310 Y1.13330
X0.97210 Y1.13330
X0.97210 Y1.13430
X0.97110 Y1.13430
X0.97110 Y1.13530
X0.97010 Y1.13530
X0.97010 Y1.13630
X0.96910 Y1.13630
X0.96910 Y1.13730
X0.96810 Y1.13730
X0.96810 Y1.13830
X0.96710 Y1.13830
X0.96710 Y1.13930
X0.96610 Y1.13930
X0.96610 Y1.14130
X0.96510 Y1.14130
X0.96510 Y1.14330
X0.96410 Y1.14330
X0.96410 Y1.14630
X0.96310 Y1.14630
X0.96310 Y1.14830
X0.96210 Y1.14830
X0.96210 Y1.15130
X0.96110 Y1.15130
X0.96110 Y1.15330
X0.96010 Y1.15330
X0.96010 Y1.15630
X0.95910 Y1.15630
X0.95910 Y1.15830
X0.95810 Y1.15830
X0.95810 Y1.16130
X0.95710 Y1.16130
X0.95710 Y1.16330
X0.95610 Y1.16330
X0.95610 Y1.16630
X0.95510 Y1.16630
X0.95510 Y1.19030
X0.95610 Y1.19030
X0.95610 Y1.19330
X0.95710 Y1.19330
X0.95710 Y1.19530
X0.95810 Y1.19530
X0.95810 Y1.19830
X0.95910 Y1.19830
X0.95910 Y1.20030
X0.96010 Y1.20030
X0.96010 Y1.20330
X0.96110 Y1.20330
X0.96110 Y1.20530
X0.96210 Y1.20530
X0.96210 Y1.20830
X0.96310 Y1.20830
X0.96310 Y1.21030
X0.96410 Y1.21030
X0.96410 Y1.21330
X0.96510 Y1.21330
X0.96510 Y1.21530
X0.96610 Y1.21530
X0.96610 Y1.21730
X0.96710 Y1.21730
X0.96710 Y1.21830
X0.96810 Y1.21830
X0.96810 Y1.21930
X0.96910 Y1.21930
X0.96910 Y1.22030
X0.97010 Y1.22030
X0.97010 Y1.22130
X0.97110 Y1.22130
X0.97110 Y1.22230
X0.97210 Y1.22230
X0.97210 Y1.22330
X0.97310 Y1.22330
X0.97310 Y1.22430
X0.97410 Y1.22430
X0.97410 Y1.22530
X0.97510 Y1.22530
X0.97510 Y1.22630
X0.97610 Y1.22630
X0.97610 Y1.22730
X0.97710 Y1.22730
X0.97710 Y1.22830
X0.97810 Y1.22830
X0.97810 Y1.22930
X0.97910 Y1.22930
X0.97910 Y1.23030
X0.98010 Y1.23030
X0.98010 Y1.23130
X0.98110 Y1.23130
X0.98110 Y1.23230
X0.98210 Y1.23230
X0.98210 Y1.23330
X0.98310 Y1.23330
X0.98310 Y1.23430
X0.98410 Y1.23430
X0.98410 Y1.23530
X0.98510 Y1.23530
X0.98510 Y1.23630
X0.98610 Y1.23630
X0.98610 Y1.23730
X0.98710 Y1.23730
X0.98710 Y1.23830
X0.98810 Y1.23830
X0.98810 Y1.23930
X0.99010 Y1.23930
X0.99010 Y1.24030
X0.99210 Y1.24030
X0.99210 Y1.24130
X0.99410 Y1.24130
X0.99410 Y1.24230
X0.99610 Y1.24230
X0.99610 Y1.24330
X0.99910 Y1.24330
X0.99910 Y1.24430
X1.00110 Y1.24430
X1.00110 Y1.24530
X1.00310 Y1.24530
X1.00310 Y1.24630
X1.00610 Y1.24630
X1.00610 Y1.24730
X1.00810 Y1.24730
X1.00810 Y1.24830
X1.01010 Y1.24830
X1.01010 Y1.24930
X1.01310 Y1.24930
X1.01310 Y1.25030
X1.01510 Y1.25030
X1.01510 Y1.25130
X1.03910 Y1.25130
X1.03910 Y1.25030
X1.04110 Y1.25030
X1.04110 Y1.24930
X1.04410 Y1.24930
X1.04410 Y1.24830
X1.04610 Y1.24830
X1.04610 Y1.24730
X1.04810 Y1.24730
X1.04810 Y1.24630
X1.05110 Y1.24630
X1.05110 Y1.24530
X1.05310 Y1.24530
X1.05310 Y1.24430
X1.05510 Y1.24430
X1.05510 Y1.24330
X1.05810 Y1.24330
X1.05810 Y1.24230
X1.06010 Y1.24230
X1.06010 Y1.24130
X1.06210 Y1.24130
X1.06210 Y1.24030
X1.06510 Y1.24030
X1.06510 Y1.23930
X1.06610 Y1.23930
X1.06610 Y1.23830
X1.06710 Y1.23830
X1.06710 Y1.23730
X1.06810 Y1.23730
X1.06810 Y1.23630
X1.06910 Y1.23630
X1.06910 Y1.23530
X1.07010 Y1.23530
X1.07010 Y1.23430
X1.07110 Y1.23430
X1.07110 Y1.23330
X1.07210 Y1.23330
X1.07210 Y1.23230
X1.07310 Y1.23230
X1.07310 Y1.23130
X1.07410 Y1.23130
X1.07410 Y1.23030
X1.07510 Y1.23030
X1.07510 Y1.22930
X1.07610 Y1.22930
X1.07610 Y1.22830
X1.07710 Y1.22830
X1.07710 Y1.22730
X1.07810 Y1.22730
X1.07810 Y1.22630
X1.07910 Y1.22630
X1.07910 Y1.22530
X1.08010 Y1.22530
X1.08010 Y1.22430
X1.08110 Y1.22430
X1.08110 Y1.22330
X1.08210 Y1.22330
X1.08210 Y1.22230
X1.08310 Y1.22230
X1.08310 Y1.22130
X1.08410 Y1.22130
X1.08410 Y1.22030
X1.08510 Y1.22030
X1.08510 Y1.21930
X1.08610 Y1.21930
X1.08610 Y1.21830
X1.08710 Y1.21830
X1.08710 Y1.21730
X1.08810 Y1.21730
X1.08810 Y1.21630
X1.08910 Y1.21630
X1.08910 Y1.21330
X1.09010 Y1.21330
X1.09010 Y1.21130
X1.09110 Y1.21130
X1.09110 Y1.20930
X1.09210 Y1.20930
X1.09210 Y1.20630
X1.09310 Y1.20630
X1.09310 Y1.20430
X1.09410 Y1.20430
X1.09410 Y1.20230
X1.09510 Y1.20230
X1.09510 Y1.19930
X1.09610 Y1.19930
X1.09610 Y1.19730
X1.09710 Y1.19730
X1.09710 Y1.19530
X1.09810 Y1.19530
X1.09810 Y1.19230
X1.09910 Y1.19230
X1.09910 Y1.19030
X1.10010 Y1.19030
X1.10010 Y1.16630
X1.09910 Y1.16630
X1.09910 Y1.16330
X1.09810 Y1.16330
X1.09810 Y1.16130
X1.09710 Y1.16130
X1.09710 Y1.15930
X1.09610 Y1.15930
X1.09610 Y1.15630
X1.09510 Y1.15630
X1.09510 Y1.15430
X1.09410 Y1.15430
X1.09410 Y1.15230
X1.09310 Y1.15230
X1.09310 Y1.14930
X1.09210 Y1.14930
X1.09210 Y1.14730
X1.09110 Y1.14730
X1.09110 Y1.14530
X1.09010 Y1.14530
X1.09010 Y1.14230
X1.08910 Y1.14230
X1.08910 Y1.12930
X1.09010 Y1.12930
X1.09010 Y1.12730
X1.09110 Y1.12730
X1.09110 Y1.12630
X1.09210 Y1.12630
X1.09210 Y1.12530
X1.09310 Y1.12530
X1.09310 Y1.12430
X1.09410 Y1.12430
X1.09410 Y1.12330
X1.09510 Y1.12330
X1.09510 Y1.12230
X1.09610 Y1.12230
X1.09610 Y1.12130
X1.09710 Y1.12130
X1.09710 Y1.12030
X1.09810 Y1.12030
X1.09810 Y1.11930
X1.09910 Y1.11930
X1.09910 Y1.11830
X1.10010 Y1.11830
X1.10010 Y1.11730
X1.10110 Y1.11730
X1.10110 Y1.11630
X1.10210 Y1.11630
X1.10210 Y1.11530
X1.10310 Y1.11530
X1.10310 Y1.11430
X1.10410 Y1.11430
X1.10410 Y1.11330
X1.10510 Y1.11330
X1.10510 Y1.11230
X1.10610 Y1.11230
X1.10610 Y1.11130
X1.10710 Y1.11130
X1.10710 Y1.11030
X1.10810 Y1.11030
X1.10810 Y1.10930
X1.10910 Y1.10930
X1.10910 Y1.10830
X1.11010 Y1.10830
X1.11010 Y1.10730
X1.11110 Y1.10730
X1.11110 Y1.10630
X1.11210 Y1.10630
X1.11210 Y1.10530
X1.11310 Y1.10530
X1.11310 Y1.10430
X1.11410 Y1.10430
X1.11410 Y1.10330
X1.11510 Y1.10330
X1.11510 Y1.10230
X1.11610 Y1.10230
X1.11610 Y1.10130
X1.11710 Y1.10130
X1.11710 Y1.10030
X1.11810 Y1.10030
X1.11810 Y1.09930
X1.11910 Y1.09930
X1.11910 Y1.09830
X1.12010 Y1.09830
X1.12010 Y1.09730
X1.12110 Y1.09730
X1.12110 Y1.09630
X1.12210 Y1.09630
X1.12210 Y1.09530
X1.12310 Y1.09530
X1.12310 Y1.09430
X1.12410 Y1.09430
X1.12410 Y1.09330
X1.12510 Y1.09330
X1.12510 Y1.09230
X1.12610 Y1.09230
X1.12610 Y1.09130
X1.12710 Y1.09130
X1.12710 Y1.09030
X1.12810 Y1.09030
X1.12810 Y1.08930
X1.12910 Y1.08930
X1.12910 Y1.08830
X1.13010 Y1.08830
X1.13010 Y1.08730
X1.13110 Y1.08730
X1.13110 Y1.08630
X1.13210 Y1.08630
X1.13210 Y1.08430
X1.13310 Y1.08430
X1.13310 Y1.08330
X1.13510 Y1.08330
X1.13510 Y1.08230
X1.13610 Y1.08230
X1.13610 Y1.08130
X1.13710 Y1.08130
X1.13710 Y1.08030
X1.13810 Y1.08030
X1.13810 Y1.07930
X1.13910 Y1.07930
X1.13910 Y1.07830
X1.14010 Y1.07830
X1.14010 Y1.07630
X1.14110 Y1.07630
X1.14110 Y1.07430
X1.14210 Y1.07430
X1.14210 Y1.07330
X1.14310 Y1.07330
X1.14310 Y1.07130
X1.14410 Y1.07130
X1.14410 Y1.07030
X1.14510 Y1.07030
X1.14510 Y1.06830
X1.14610 Y1.06830
X1.14610 Y1.06630
X1.14710 Y1.06630
X1.14710 Y1.06430
X1.14810 Y1.06430
X1.14810 Y1.05930
X1.14910 Y1.05930
X1.14910 Y1.05530
X1.15010 Y1.05530
X1.15010 Y1.05030
X1.14910 Y1.05030
X1.14910 Y1.04630
X1.14810 Y1.04630
X1.14810 Y1.04130
X1.14710 Y1.04130
X1.14710 Y1.02730
X1.14810 Y1.02730
X1.14810 Y1.02630
X1.14910 Y1.02630
X1.14910 Y1.02530
X1.15010 Y1.02530
X1.15010 Y1.02430
X1.16310 Y1.02430
X1.16310 Y1.02530
X1.16610 Y1.02530
X1.16610 Y1.02630
X1.16810 Y1.02630
X1.16810 Y1.02730
X1.17110 Y1.02730
X1.17110 Y1.02830
X1.17310 Y1.02830
X1.17310 Y1.02930
X1.17510 Y1.02930
X1.17510 Y1.03030
X1.17810 Y1.03030
X1.17810 Y1.03130
X1.18010 Y1.03130
X1.18010 Y1.03230
X1.18310 Y1.03230
X1.18310 Y1.03330
X1.19010 Y1.03330
X1.19010 Y1.03230
X1.20610 Y1.03230
X1.20610 Y1.03130
X1.20910 Y1.03130
X1.20910 Y1.03030
X1.21110 Y1.03030
X1.21110 Y1.02930
X1.21310 Y1.02930
X1.21310 Y1.02830
X1.21610 Y1.02830
X1.21610 Y1.02730
X1.21810 Y1.02730
X1.21810 Y1.02630
X1.22010 Y1.02630
X1.22010 Y1.02530
X1.22310 Y1.02530
X1.22310 Y1.02430
X1.22510 Y1.02430
X1.22510 Y1.02330
X1.22710 Y1.02330
X1.22710 Y1.02230
X1.22910 Y1.02230
X1.22910 Y1.02130
X1.22810 Y1.02130
X1.22810 Y1.02030
X1.22710 Y1.02030
X1.22710 Y1.01930
X1.22610 Y1.01930
X1.22610 Y1.01830
X1.22510 Y1.01830
X1.22510 Y1.01730
X1.22410 Y1.01730
X1.22410 Y1.01630
X1.22310 Y1.01630
X1.22310 Y1.01730
X1.22110 Y1.01730
X1.22110 Y1.01830
X1.21910 Y1.01830
X1.21910 Y1.01930
X1.21610 Y1.01930
X1.21610 Y1.02030
X1.21310 Y1.02030
X1.21310 Y1.02130
X1.21010 Y1.02130
X1.21010 Y1.02230
X1.20210 Y1.02230
X1.20210 Y1.02330
X1.18310 Y1.02330
X1.18310 Y1.02230
X1.17510 Y1.02230
X1.17510 Y1.02130
X1.17210 Y1.02130
X1.17210 Y1.02030
X1.16910 Y1.02030
X1.16910 Y1.01930
X1.16610 Y1.01930
X1.16610 Y1.01830
X1.16410 Y1.01830
X1.16410 Y1.01730
X1.16210 Y1.01730
X1.16210 Y1.01630
X1.16010 Y1.01630
X1.16010 Y1.01530
X1.15810 Y1.01530
X1.15810 Y1.01430
X1.15610 Y1.01430
X1.15610 Y1.01330
X1.15510 Y1.01330
X1.15510 Y1.01230
X1.15410 Y1.01230
X1.15410 Y1.01130
X1.15310 Y1.01130
X1.15310 Y1.01030
X1.15110 Y1.01030
X1.15110 Y1.00930
X1.15010 Y1.00930
X1.15010 Y1.00830
X1.14910 Y1.00830
X1.14910 Y1.00730
X1.14810 Y1.00730
X1.14810 Y1.00630
X1.14710 Y1.00630
X1.14710 Y1.00530
X1.14610 Y1.00530
X1.14610 Y1.00430
X1.14510 Y1.00430
X1.14510 Y1.00330
X1.14410 Y1.00330
X1.14410 Y1.00130
X1.14310 Y1.00130
X1.14310 Y1.00030
X1.14210 Y1.00030
X1.14210 Y0.99930
X1.14110 Y0.99930
X1.14110 Y0.99830
X1.14010 Y0.99830
X1.14010 Y0.99630
X1.13910 Y0.99630
X1.13910 Y0.99430
X1.13810 Y0.99430
X1.13810 Y0.99230
X1.13710 Y0.99230
X1.13710 Y0.99030
X1.13610 Y0.99030
X1.13610 Y0.98830
X1.13510 Y0.98830
X1.13510 Y0.98530
X1.13410 Y0.98530
X1.13410 Y0.98230
X1.13310 Y0.98230
X1.13310 Y0.97930
X1.13210 Y0.97930
X1.13210 Y0.97130
X1.13110 Y0.97130
X1.13110 Y0.95230
X1.13210 Y0.95230
X1.13210 Y0.94430
X1.13310 Y0.94430
X1.13310 Y0.94130
X1.13410 Y0.94130
X1.13410 Y0.93830
X1.13510 Y0.93830
X1.13510 Y0.93530
X1.13610 Y0.93530
X1.13610 Y0.93330
X1.13710 Y0.93330
X1.13710 Y0.93130
X1.13810 Y0.93130
X1.13810 Y0.92930
X1.13910 Y0.92930
X1.13910 Y0.92730
X1.14010 Y0.92730
X1.14010 Y0.92530
X1.14110 Y0.92530
X1.14110 Y0.92430
X1.14210 Y0.92430
X1.14210 Y0.92330
X1.14310 Y0.92330
X1.14310 Y0.92230
X1.14410 Y0.92230
X1.14410 Y0.92030
X1.14510 Y0.92030
X1.14510 Y0.91930
X1.14610 Y0.91930
X1.14610 Y0.91830
X1.14710 Y0.91830
X1.14710 Y0.91730
X1.14810 Y0.91730
X1.14810 Y0.91630
X1.14910 Y0.91630
X1.14910 Y0.91530
X1.15010 Y0.91530
X1.15010 Y0.91430
X1.15110 Y0.91430
X1.15110 Y0.91330
X1.15310 Y0.91330
X1.15310 Y0.91230
X1.15410 Y0.91230
X1.15410 Y0.91130
X1.15510 Y0.91130
X1.15510 Y0.91030
X1.15610 Y0.91030
X1.15610 Y0.90930
X1.15810 Y0.90930
X1.15810 Y0.90830
X1.16010 Y0.90830
X1.16010 Y0.90730
X1.16210 Y0.90730
X1.16210 Y0.90630
X1.16410 Y0.90630
X1.16410 Y0.90530
X1.16610 Y0.90530
X1.16610 Y0.90430
X1.16910 Y0.90430
X1.16910 Y0.90330
X1.17210 Y0.90330
X1.17210 Y0.90230
X1.17510 Y0.90230
X1.17510 Y0.90130
X1.18310 Y0.90130
X1.18310 Y0.90030
X1.20210 Y0.90030
X1.20210 Y0.90130
X1.21010 Y0.90130
X1.21010 Y0.90230
X1.21310 Y0.90230
X1.21310 Y0.90330
X1.21610 Y0.90330
X1.21610 Y0.90430
X1.21910 Y0.90430
X1.21910 Y0.90530
X1.22110 Y0.90530
X1.22110 Y0.90630
X1.22310 Y0.90630
X1.22310 Y0.90730
X1.22410 Y0.90730
X1.22410 Y0.90630
X1.22510 Y0.90630
X1.22510 Y0.90530
X1.22610 Y0.90530
X1.22610 Y0.90430
X1.22710 Y0.90430
X1.22710 Y0.90330
X1.22810 Y0.90330
X1.22810 Y0.90230
X1.22910 Y0.90230
X1.22910 Y0.90130
X1.22710 Y0.90130
X1.22710 Y0.90030
X1.22510 Y0.90030
X1.22510 Y0.89930
X1.22210 Y0.89930
X1.22210 Y0.89830
X1.22010 Y0.89830
X1.22010 Y0.89730
X1.21710 Y0.89730
X1.21710 Y0.89630
X1.21510 Y0.89630
X1.21510 Y0.89530
X1.21210 Y0.89530
X1.21210 Y0.89430
X1.21010 Y0.89430
X1.21010 Y0.89330
X1.20710 Y0.89330
X1.20710 Y0.89230
X1.20510 Y0.89230
X1.20510 Y0.89130
X1.20210 Y0.89130
X1.20210 Y0.89030
X1.19510 Y0.89030
X1.19510 Y0.89130
X1.18010 Y0.89130
X1.18010 Y0.89230
X1.17710 Y0.89230
X1.17710 Y0.89330
X1.17510 Y0.89330
X1.17510 Y0.89430
X1.17210 Y0.89430
X1.17210 Y0.89530
X1.17010 Y0.89530
X1.17010 Y0.89630
X1.16710 Y0.89630
X1.16710 Y0.89730
X1.16510 Y0.89730
X1.16510 Y0.89830
X1.16310 Y0.89830
X1.16310 Y0.89930
X1.16010 Y0.89930
X1.16010 Y0.90030
X1.15810 Y0.90030
X1.15810 Y0.90130
X1.15610 Y0.90130
X1.15610 Y0.90230
X1.15510 Y0.90230
X1.15510 Y0.90330
X1.15410 Y0.90330
X1.15410 Y0.90430
X1.14110 Y0.90430
X1.14110 Y0.90330
X1.14010 Y0.90330
X1.14010 Y0.90230
X1.13910 Y0.90230
X1.13910 Y0.90130
X1.13810 Y0.90130
X1.13810 Y0.86730
X1.13910 Y0.86730
X1.13910 Y0.86530
X1.14010 Y0.86530
X1.14010 Y0.86430
X1.14110 Y0.86430
X1.14110 Y0.86330
X1.14210 Y0.86330
X1.14210 Y0.86230
X1.14310 Y0.86230
X1.14310 Y0.86130
X1.14410 Y0.86130
X1.14410 Y0.86030
X1.14510 Y0.86030
X1.14510 Y0.85930
X1.14610 Y0.85930
X1.14610 Y0.85830
X1.14710 Y0.85830
X1.14710 Y0.85730
X1.14810 Y0.85730
X1.14810 Y0.85630
X1.14910 Y0.85630
X1.14910 Y0.85530
X1.15010 Y0.85530
X1.15010 Y0.85430
X1.15110 Y0.85430
X1.15110 Y0.85330
X1.15210 Y0.85330
X1.15210 Y0.85230
X1.15310 Y0.85230
X1.15310 Y0.85130
X1.15410 Y0.85130
X1.15410 Y0.85030
X1.15510 Y0.85030
X1.15510 Y0.84930
X1.15610 Y0.84930
X1.15610 Y0.84830
X1.15710 Y0.84830
X1.15710 Y0.84730
X1.15810 Y0.84730
X1.15810 Y0.84630
X1.15910 Y0.84630
X1.15910 Y0.84530
X1.16010 Y0.84530
X1.16010 Y0.84430
X1.16110 Y0.84430
X1.16110 Y0.84330
X1.16210 Y0.84330
X1.16210 Y0.84230
X1.16310 Y0.84230
X1.16310 Y0.84130
X1.16410 Y0.84130
X1.16410 Y0.84030
X1.16510 Y0.84030
X1.16510 Y0.83930
X1.16610 Y0.83930
X1.16610 Y0.83830
X1.16710 Y0.83830
X1.16710 Y0.83730
X1.16810 Y0.83730
X1.16810 Y0.83630
X1.16910 Y0.83630
X1.16910 Y0.83530
X1.17010 Y0.83530
X1.17010 Y0.83430
X1.17110 Y0.83430
X1.17110 Y0.83330
X1.17210 Y0.83330
X1.17210 Y0.83230
X1.17310 Y0.83230
X1.17310 Y0.83130
X1.17410 Y0.83130
X1.17410 Y0.83030
X1.17510 Y0.83030
X1.17510 Y0.82930
X1.17610 Y0.82930
X1.17610 Y0.82830
X1.17710 Y0.82830
X1.17710 Y0.82730
X1.17810 Y0.82730
X1.17810 Y0.82630
X1.17910 Y0.82630
X1.17910 Y0.82530
X1.18010 Y0.82530
X1.18010 Y0.82430
X1.18110 Y0.82430
X1.18110 Y0.82330
X1.18210 Y0.82330
X1.18210 Y0.82230
X1.18310 Y0.82230
X1.18310 Y0.82130
X1.18410 Y0.82130
X1.18410 Y0.82030
X1.18510 Y0.82030
X1.18510 Y0.81930
X1.18610 Y0.81930
X1.18610 Y0.81830
X1.18710 Y0.81830
X1.18710 Y0.81730
X1.18810 Y0.81730
X1.18810 Y0.81630
X1.18910 Y0.81630
X1.18910 Y0.81530
X1.19010 Y0.81530
X1.19010 Y0.81430
X1.19110 Y0.81430
X1.19110 Y0.81330
X1.19210 Y0.81330
X1.19210 Y0.81230
X1.19310 Y0.81230
X1.19310 Y0.81130
X1.19410 Y0.81130
X1.19410 Y0.81030
X1.19510 Y0.81030
X1.19510 Y0.80930
X1.19610 Y0.80930
X1.19610 Y0.80830
X1.19710 Y0.80830
X1.19710 Y0.80730
X1.19810 Y0.80730
X1.19810 Y0.80630
X1.19910 Y0.80630
X1.19910 Y0.80530
X1.20010 Y0.80530
X1.20010 Y0.80430
X1.20110 Y0.80430
X1.20110 Y0.80330
X1.20210 Y0.80330
X1.20210 Y0.80230
X1.20310 Y0.80230
X1.20310 Y0.80130
X1.20410 Y0.80130
X1.20410 Y0.80030
X1.20510 Y0.80030
X1.20510 Y0.79930
X1.20610 Y0.79930
X1.20610 Y0.79830
X1.20710 Y0.79830
X1.20710 Y0.79730
X1.20810 Y0.79730
X1.20810 Y0.79630
X1.20910 Y0.79630
X1.20910 Y0.79530
X1.21010 Y0.79530
X1.21010 Y0.79430
X1.21110 Y0.79430
X1.21110 Y0.79330
X1.21210 Y0.79330
X1.21210 Y0.79230
X1.21310 Y0.79230
X1.21310 Y0.79130
X1.21410 Y0.79130
X1.21410 Y0.79030
X1.21510 Y0.79030
X1.21510 Y0.78930
X1.21610 Y0.78930
X1.21610 Y0.78830
X1.21710 Y0.78830
X1.21710 Y0.78730
X1.21810 Y0.78730
X1.21810 Y0.78630
X1.21910 Y0.78630
X1.21910 Y0.78530
X1.22010 Y0.78530
X1.22010 Y0.78430
X1.22110 Y0.78430
X1.22110 Y0.78330
X1.22210 Y0.78330
X1.22210 Y0.78230
X1.22310 Y0.78230
X1.22310 Y0.78130
X1.22410 Y0.78130
X1.22410 Y0.78030
X1.22510 Y0.78030
X1.22510 Y0.77930
X1.22610 Y0.77930
X1.22610 Y0.77830
X1.22710 Y0.77830
X1.22710 Y0.77730
X1.22810 Y0.77730
X1.22810 Y0.77630
X1.22910 Y0.77630
X1.22910 Y0.77530
X1.23010 Y0.77530
X1.23010 Y0.77430
X1.23110 Y0.77430
X1.23110 Y0.77330
X1.23310 Y0.77330
X1.23310 Y0.77230
X1.60110 Y0.77230
X1.60110 Y0.77330
X1.60210 Y0.77330
X1.60210 Y0.77430
X1.60310 Y0.77430
X1.60310 Y0.77530
X1.60410 Y0.77530
X1.60410 Y0.92830
X1.60310 Y0.92830
X1.60310 Y0.92930
X1.60210 Y0.92930
X1.60210 Y0.93030
X1.60110 Y0.93030
X1.60110 Y0.93130
X1.58810 Y0.93130
X1.58810 Y0.93030
X1.58710 Y0.93030
X1.58710 Y0.92930
X1.58610 Y0.92930
X1.58610 Y0.92830
X1.58510 Y0.92830
X1.58510 Y0.92630
X1.58410 Y0.92630
X1.58410 Y0.92530
X1.58310 Y0.92530
X1.58310 Y0.92630
X1.58210 Y0.92630
X1.58210 Y0.92730
X1.58110 Y0.92730
X1.58110 Y0.92830
X1.58010 Y0.92830
X1.58010 Y0.92930
X1.57910 Y0.92930
X1.57910 Y0.93030
X1.57810 Y0.93030
X1.57810 Y0.93130
X1.57910 Y0.93130
X1.57910 Y0.93330
X1.58010 Y0.93330
X1.58010 Y0.93530
X1.58110 Y0.93530
X1.58110 Y0.93830
X1.58210 Y0.93830
X1.58210 Y0.94130
X1.58310 Y0.94130
X1.58310 Y0.94430
X1.58410 Y0.94430
X1.58410 Y0.95130
X1.58510 Y0.95130
X1.58510 Y0.97230
X1.58410 Y0.97230
X1.58410 Y0.97930
X1.58310 Y0.97930
X1.58310 Y0.98230
X1.58210 Y0.98230
X1.58210 Y0.98530
X1.58110 Y0.98530
X1.58110 Y0.98830
X1.58010 Y0.98830
X1.58010 Y0.99030
X1.57910 Y0.99030
X1.57910 Y0.99230
X1.57810 Y0.99230
X1.57810 Y0.99330
X1.57910 Y0.99330
X1.57910 Y0.99430
X1.58010 Y0.99430
X1.58010 Y0.99530
X1.58110 Y0.99530
X1.58110 Y0.99630
X1.58210 Y0.99630
X1.58210 Y0.99730
X1.58310 Y0.99730
X1.58310 Y0.99830
X1.58410 Y0.99830
X1.58410 Y0.99730
X1.58510 Y0.99730
X1.58510 Y0.99530
X1.58610 Y0.99530
X1.58610 Y0.99430
X1.58710 Y0.99430
X1.58710 Y0.99330
X1.58810 Y0.99330
X1.58810 Y0.99230
X1.60110 Y0.99230
X1.60110 Y0.99330
X1.60210 Y0.99330
X1.60210 Y0.99430
X1.60310 Y0.99430
X1.60310 Y0.99530
X1.60410 Y0.99530
X1.60410 Y1.14530
X1.60310 Y1.14530
X1.60310 Y1.14630
X1.60210 Y1.14630
X1.60210 Y1.14730
X1.60110 Y1.14730
X1.60110 Y1.14830
X1.58810 Y1.14830
X1.58810 Y1.14730
X1.58710 Y1.14730
X1.58710 Y1.14630
X1.58610 Y1.14630
X1.58610 Y1.14530
X1.58510 Y1.14530
X1.58510 Y1.14330
X1.58410 Y1.14330
X1.58410 Y1.14230
X1.58310 Y1.14230
X1.58310 Y1.14330
X1.58210 Y1.14330
X1.58210 Y1.14430
X1.58110 Y1.14430
X1.58110 Y1.14530
X1.58010 Y1.14530
X1.58010 Y1.14630
X1.57910 Y1.14630
X1.57910 Y1.14730
X1.57810 Y1.14730
X1.57810 Y1.14830
X1.57910 Y1.14830
X1.57910 Y1.15030
X1.58010 Y1.15030
X1.58010 Y1.15230
X1.58110 Y1.15230
X1.58110 Y1.15530
X1.58210 Y1.15530
X1.58210 Y1.15830
X1.58310 Y1.15830
X1.58310 Y1.16130
X1.58410 Y1.16130
X1.58410 Y1.16830
X1.58510 Y1.16830
X1.58510 Y1.18930
X1.58410 Y1.18930
X1.58410 Y1.19630
X1.58310 Y1.19630
X1.58310 Y1.19930
X1.58210 Y1.19930
X1.58210 Y1.20230
X1.58110 Y1.20230
X1.58110 Y1.20530
X1.58010 Y1.20530
X1.58010 Y1.20730
X1.57910 Y1.20730
X1.57910 Y1.20930
X1.57810 Y1.20930
X1.57810 Y1.21030
X1.57910 Y1.21030
X1.57910 Y1.21130
X1.58010 Y1.21130
X1.58010 Y1.21230
X1.58110 Y1.21230
X1.58110 Y1.21330
X1.58210 Y1.21330
X1.58210 Y1.21430
X1.58310 Y1.21430
X1.58310 Y1.21430
X1.58410 Y1.21430
X1.58410 Y1.21330
X1.58510 Y1.21330
X1.58510 Y1.21130
X1.58610 Y1.21130
X1.58610 Y1.21030
X1.58710 Y1.21030
X1.58710 Y1.20930
X1.58810 Y1.20930
X1.58810 Y1.20830
X1.60110 Y1.20830
X1.60110 Y1.20930
X1.60210 Y1.20930
X1.60210 Y1.21030
X1.60310 Y1.21030
X1.60310 Y1.21130
X1.60410 Y1.21130
X1.60410 Y1.25330
X1.75010 Y1.25330
X1.75010 Y1.25430
X1.75110 Y1.25430
X1.75110 Y1.25530
X1.75210 Y1.25530
X1.75210 Y1.25630
X1.75310 Y1.25630
X1.75310 Y1.55030
X1.75210 Y1.55030
X1.75210 Y1.55130
X1.75110 Y1.55130
X1.75110 Y1.55230
X1.75010 Y1.55230
X1.75010 Y1.55330
X0.79410 Y1.55330
X0.79410 Y1.55230
X0.79310 Y1.55230
X0.79310 Y1.55130
X0.79210 Y1.55130
X0.79210 Y1.55030
X0.79110 Y1.55030
X0.79110 Y1.54830
G04 P0 ( dwell for no time -- G64 should not smooth over this point )
G00 Z1.00000 ( retract )

G00 X0.41410 Y1.54830 ( rapid move to begin. )
G01 Z0.00100 F2.00000 ( plunge. )
G04 P0 ( dwell for no time -- G64 should not smooth over this point )
X0.41410 Y1.54830
X0.41410 Y0.77530
X0.41510 Y0.77530
X0.41510 Y0.77430
X0.41610 Y0.77430
X0.41610 Y0.77330
X0.41710 Y0.77330
X0.41710 Y0.77230
X0.76610 Y0.77230
X0.76610 Y0.77330
X0.76710 Y0.77330
X0.76710 Y0.77430
X0.76810 Y0.77430
X0.76810 Y0.77530
X0.76910 Y0.77530
X0.76910 Y0.92130
X0.76810 Y0.92130
X0.76810 Y0.92230
X0.76710 Y0.92230
X0.76710 Y0.92330
X0.76610 Y0.92330
X0.76610 Y0.92430
X0.75710 Y0.92430
X0.75710 Y0.92530
X0.75610 Y0.92530
X0.75610 Y0.92630
X0.75510 Y0.92630
X0.75510 Y0.92730
X0.75410 Y0.92730
X0.75410 Y0.92830
X0.75310 Y0.92830
X0.75310 Y0.92930
X0.75210 Y0.92930
X0.75210 Y0.93030
X0.75110 Y0.93030
X0.75110 Y0.93130
X0.75210 Y0.93130
X0.75210 Y0.93330
X0.75310 Y0.93330
X0.75310 Y0.93530
X0.75410 Y0.93530
X0.75410 Y0.93830
X0.75510 Y0.93830
X0.75510 Y0.94130
X0.75610 Y0.94130
X0.75610 Y0.94430
X0.75710 Y0.94430
X0.75710 Y0.95130
X0.75810 Y0.95130
X0.75810 Y0.97230
X0.75710 Y0.97230
X0.75710 Y0.97930
X0.75610 Y0.97930
X0.75610 Y0.98230
X0.75510 Y0.98230
X0.75510 Y0.98530
X0.75410 Y0.98530
X0.75410 Y0.98830
X0.75310 Y0.98830
X0.75310 Y0.99030
X0.75210 Y0.99030
X0.75210 Y0.99230
X0.75110 Y0.99230
X0.75110 Y0.99330
X0.75210 Y0.99330
X0.75210 Y0.99430
X0.75310 Y0.99430
X0.75310 Y0.99530
X0.75410 Y0.99530
X0.75410 Y0.99630
X0.75510 Y0.99630
X0.75510 Y0.99730
X0.75610 Y0.99730
X0.75610 Y0.99830
X0.75710 Y0.99830
X0.75710 Y0.99930
X0.76610 Y0.99930
X0.76610 Y1.00030
X0.76710 Y1.00030
X0.76710 Y1.00130
X0.76810 Y1.00130
X0.76810 Y1.00230
X0.76910 Y1.00230
X0.76910 Y1.13130
X0.76810 Y1.13130
X0.76810 Y1.13230
X0.76710 Y1.13230
X0.76710 Y1.13330
X0.76610 Y1.13330
X0.76610 Y1.13430
X0.75310 Y1.13430
X0.75310 Y1.13330
X0.75110 Y1.13330
X0.75110 Y1.13230
X0.75010 Y1.13230
X0.75010 Y1.13130
X0.74910 Y1.13130
X0.74910 Y1.13030
X0.74810 Y1.13030
X0.74810 Y1.12930
X0.74710 Y1.12930
X0.74710 Y1.12830
X0.74610 Y1.12830
X0.74610 Y1.12730
X0.74510 Y1.12730
X0.74510 Y1.12630
X0.74410 Y1.12630
X0.74410 Y1.12530
X0.74310 Y1.12530
X0.74310 Y1.12430
X0.74210 Y1.12430
X0.74210 Y1.12330
X0.74110 Y1.12330
X0.74110 Y1.12230
X0.74010 Y1.12230
X0.74010 Y1.12130
X0.73910 Y1.12130
X0.73910 Y1.12030
X0.73810 Y1.12030
X0.73810 Y1.11930
X0.73710 Y1.11930
X0.73710 Y1.11830
X0.73610 Y1.11830
X0.73610 Y1.11730
X0.73410 Y1.11730
X0.73410 Y1.11630
X0.73210 Y1.11630
X0.73210 Y1.11530
X0.72910 Y1.11530
X0.72910 Y1.11430
X0.72710 Y1.11430
X0.72710 Y1.11330
X0.72410 Y1.11330
X0.72410 Y1.11230
X0.72210 Y1.11230
X0.72210 Y1.11130
X0.71910 Y1.11130
X0.71910 Y1.11030
X0.71710 Y1.11030
X0.71710 Y1.10930
X0.71410 Y1.10930
X0.71410 Y1.10830
X0.71210 Y1.10830
X0.71210 Y1.10730
X0.70910 Y1.10730
X0.70910 Y1.10630
X0.68510 Y1.10630
X0.68510 Y1.10730
X0.68210 Y1.10730
X0.68210 Y1.10830
X0.68010 Y1.10830
X0.68010 Y1.10930
X0.67710 Y1.10930
X0.67710 Y1.11030
X0.67510 Y1.11030
X0.67510 Y1.11130
X0.67210 Y1.11130
X0.67210 Y1.11230
X0.67010 Y1.11230
X0.67010 Y1.11330
X0.66710 Y1.11330
X0.66710 Y1.11430
X0.66510 Y1.11430
X0.66510 Y1.11530
X0.66210 Y1.11530
X0.66210 Y1.11630
X0.66010 Y1.11630
X0.66010 Y1.11730
X0.65810 Y1.11730
X0.65810 Y1.11830
X0.65710 Y1.11830
X0.65710 Y1.11930
X0.65610 Y1.11930
X0.65610 Y1.12030
X0.65510 Y1.12030
X0.65510 Y1.12130
X0.65410 Y1.12130
X0.65410 Y1.12230
X0.65310 Y1.12230
X0.65310 Y1.12330
X0.65210 Y1.12330
X0.65210 Y1.12430
X0.65110 Y1.12430
X0.65110 Y1.12530
X0.65010 Y1.12530
X0.65010 Y1.12630
X0.64910 Y1.12630
X0.64910 Y1.12730
X0.64810 Y1.12730
X0.64810 Y1.12830
X0.64710 Y1.12830
X0.64710 Y1.12930
X0.64610 Y1.12930
X0.64610 Y1.13030
X0.64510 Y1.13030
X0.64510 Y1.13130
X0.64410 Y1.13130
X0.64410 Y1.13230
X0.64310 Y1.13230
X0.64310 Y1.13330
X0.64210 Y1.13330
X0.64210 Y1.13430
X0.64110 Y1.13430
X0.64110 Y1.13530
X0.64010 Y1.13530
X0.64010 Y1.13630
X0.63910 Y1.13630
X0.63910 Y1.13730
X0.63810 Y1.13730
X0.63810 Y1.13830
X0.63710 Y1.13830
X0.63710 Y1.13930
X0.63610 Y1.13930
X0.63610 Y1.14030
X0.63510 Y1.14030
X0.63510 Y1.14330
X0.63410 Y1.14330
X0.63410 Y1.14530
X0.63310 Y1.14530
X0.63310 Y1.14730
X0.63210 Y1.14730
X0.63210 Y1.15030
X0.63110 Y1.15030
X0.63110 Y1.15230
X0.63010 Y1.15230
X0.63010 Y1.15430
X0.62910 Y1.15430
X0.62910 Y1.15730
X0.62810 Y1.15730
X0.62810 Y1.15930
X0.62710 Y1.15930
X0.62710 Y1.16130
X0.62610 Y1.16130
X0.62610 Y1.16430
X0.62510 Y1.16430
X0.62510 Y1.16630
X0.62410 Y1.16630
X0.62410 Y1.19030
X0.62510 Y1.19030
X0.62510 Y1.19230
X0.62610 Y1.19230
X0.62610 Y1.19530
X0.62710 Y1.19530
X0.62710 Y1.19730
X0.62810 Y1.19730
X0.62810 Y1.19930
X0.62910 Y1.19930
X0.62910 Y1.20230
X0.63010 Y1.20230
X0.63010 Y1.20430
X0.63110 Y1.20430
X0.63110 Y1.20630
X0.63210 Y1.20630
X0.63210 Y1.20930
X0.63310 Y1.20930
X0.63310 Y1.21130
X0.63410 Y1.21130
X0.63410 Y1.21330
X0.63510 Y1.21330
X0.63510 Y1.21530
X0.63610 Y1.21530
X0.63610 Y1.21730
X0.63710 Y1.21730
X0.63710 Y1.21830
X0.63810 Y1.21830
X0.63810 Y1.21930
X0.63910 Y1.21930
X0.63910 Y1.22030
X0.64010 Y1.22030
X0.64010 Y1.22130
X0.64110 Y1.22130
X0.64110 Y1.22230
X0.64210 Y1.22230
X0.64210 Y1.22330
X0.64310 Y1.22330
X0.64310 Y1.22430
X0.64410 Y1.22430
X0.64410 Y1.22530
X0.64510 Y1.22530
X0.64510 Y1.22630
X0.64610 Y1.22630
X0.64610 Y1.22730
X0.64710 Y1.22730
X0.64710 Y1.22830
X0.64810 Y1.22830
X0.64810 Y1.22930
X0.64910 Y1.22930
X0.64910 Y1.23030
X0.65010 Y1.23030
X0.65010 Y1.23130
X0.65110 Y1.23130
X0.65110 Y1.23230
X0.65210 Y1.23230
X0.65210 Y1.23330
X0.65310 Y1.23330
X0.65310 Y1.23430
X0.65410 Y1.23430
X0.65410 Y1.23530
X0.65510 Y1.23530
X0.65510 Y1.23630
X0.65610 Y1.23630
X0.65610 Y1.23730
X0.65710 Y1.23730
X0.65710 Y1.23830
X0.65810 Y1.23830
X0.65810 Y1.23930
X0.66010 Y1.23930
X0.66010 Y1.24030
X0.66210 Y1.24030
X0.66210 Y1.24130
X0.66410 Y1.24130
X0.66410 Y1.24230
X0.66610 Y1.24230
X0.66610 Y1.24330
X0.66910 Y1.24330
X0.66910 Y1.24430
X0.67110 Y1.24430
X0.67110 Y1.24530
X0.67310 Y1.24530
X0.67310 Y1.24630
X0.67610 Y1.24630
X0.67610 Y1.24730
X0.67810 Y1.24730
X0.67810 Y1.24830
X0.68010 Y1.24830
X0.68010 Y1.24930
X0.68310 Y1.24930
X0.68310 Y1.25030
X0.68510 Y1.25030
X0.68510 Y1.25130
X0.70810 Y1.25130
X0.70810 Y1.25030
X0.71010 Y1.25030
X0.71010 Y1.24930
X0.71310 Y1.24930
X0.71310 Y1.24830
X0.71510 Y1.24830
X0.71510 Y1.24730
X0.71710 Y1.24730
X0.71710 Y1.24630
X0.72010 Y1.24630
X0.72010 Y1.24530
X0.72210 Y1.24530
X0.72210 Y1.24430
X0.72410 Y1.24430
X0.72410 Y1.24330
X0.72710 Y1.24330
X0.72710 Y1.24230
X0.72910 Y1.24230
X0.72910 Y1.24130
X0.73110 Y1.24130
X0.73110 Y1.24030
X0.73410 Y1.24030
X0.73410 Y1.23930
X0.73510 Y1.23930
X0.73510 Y1.23830
X0.73710 Y1.23830
X0.73710 Y1.23730
X0.73810 Y1.23730
X0.73810 Y1.23630
X0.73910 Y1.23630
X0.73910 Y1.23530
X0.74010 Y1.23530
X0.74010 Y1.23430
X0.74110 Y1.23430
X0.74110 Y1.23330
X0.74210 Y1.23330
X0.74210 Y1.23230
X0.74310 Y1.23230
X0.74310 Y1.23130
X0.74410 Y1.23130
X0.74410 Y1.23030
X0.74510 Y1.23030
X0.74510 Y1.22930
X0.74610 Y1.22930
X0.74610 Y1.22830
X0.74710 Y1.22830
X0.74710 Y1.22730
X0.74810 Y1.22730
X0.74810 Y1.22630
X0.74910 Y1.22630
X0.74910 Y1.22530
X0.75010 Y1.22530
X0.75010 Y1.22430
X0.75110 Y1.22430
X0.75110 Y1.22330
X0.75310 Y1.22330
X0.75310 Y1.22230
X0.76610 Y1.22230
X0.76610 Y1.22330
X0.76710 Y1.22330
X0.76710 Y1.22430
X0.76810 Y1.22430
X0.76810 Y1.22530
X0.76910 Y1.22530
X0.76910 Y1.55030
X0.76810 Y1.55030
X0.76810 Y1.55130
X0.76710 Y1.55130
X0.76710 Y1.55230
X0.76610 Y1.55230
X0.76610 Y1.55330
X0.41710 Y1.55330
X0.41710 Y1.55230
X0.41610 Y1.55230
X0.41610 Y1.55130
X0.41510 Y1.55130
X0.41510 Y1.55030
X0.41410 Y1.55030
X0.41410 Y1.54830
G04 P0 ( dwell for no time -- G64 should not smooth over this point )
G00 Z1.00000 ( retract )

G00 X2.60910 Y1.33730 ( rapid move to begin. )
G01 Z0.00100 F2.00000 ( plunge. )
G04 P0 ( dwell for no time -- G64 should not smooth over this point )
X2.60910 Y1.33730
X2.60510 Y1.33730
X2.60510 Y1.33630
X2.60210 Y1.33630
X2.60210 Y1.33530
X2.60110 Y1.33530
X2.60110 Y1.33430
X2.59910 Y1.33430
X2.59910 Y1.33330
X2.59710 Y1.33330
X2.59710 Y1.33230
X2.59510 Y1.33230
X2.59510 Y1.33130
X2.59310 Y1.33130
X2.59310 Y1.33030
X2.59110 Y1.33030
X2.59110 Y1.32930
X2.59010 Y1.32930
X2.59010 Y1.32830
X2.58810 Y1.32830
X2.58810 Y1.32730
X2.58710 Y1.32730
X2.58710 Y1.32630
X2.58610 Y1.32630
X2.58610 Y1.32530
X2.58510 Y1.32530
X2.58510 Y1.32430
X2.58310 Y1.32430
X2.58310 Y1.32330
X2.58210 Y1.32330
X2.58210 Y1.32230
X2.58110 Y1.32230
X2.58110 Y1.32130
X2.58010 Y1.32130
X2.58010 Y1.32030
X2.57910 Y1.32030
X2.57910 Y1.31930
X2.57710 Y1.31930
X2.57710 Y1.31730
X2.57610 Y1.31730
X2.57610 Y1.31630
X2.57510 Y1.31630
X2.57510 Y1.31530
X2.57410 Y1.31530
X2.57410 Y1.31430
X2.57310 Y1.31430
X2.57310 Y1.31330
X2.57210 Y1.31330
X2.57210 Y1.31130
X2.57110 Y1.31130
X2.57110 Y1.31030
X2.57010 Y1.31030
X2.57010 Y1.30930
X2.56910 Y1.30930
X2.56910 Y1.30830
X2.56810 Y1.30830
X2.56810 Y1.30630
X2.56710 Y1.30630
X2.56710 Y1.30530
X2.56610 Y1.30530
X2.56610 Y1.30330
X2.56510 Y1.30330
X2.56510 Y1.30130
X2.56410 Y1.30130
X2.56410 Y1.29930
X2.56310 Y1.29930
X2.56310 Y1.29730
X2.56210 Y1.29730
X2.56210 Y1.29530
X2.56110 Y1.29530
X2.56110 Y1.29430
X2.56010 Y1.29430
X2.56010 Y1.29130
X2.55910 Y1.29130
X2.55910 Y1.28730
X2.55810 Y1.28730
X2.55810 Y1.28430
X2.55710 Y1.28430
X2.55710 Y1.28130
X2.55610 Y1.28130
X2.55610 Y1.27730
X2.55510 Y1.27730
X2.55510 Y1.26730
X2.55410 Y1.26730
X2.55410 Y1.24830
X2.55510 Y1.24830
X2.55510 Y1.23830
X2.55610 Y1.23830
X2.55610 Y1.23430
X2.55710 Y1.23430
X2.55710 Y1.23130
X2.55810 Y1.23130
X2.55810 Y1.22830
X2.55910 Y1.22830
X2.55910 Y1.22430
X2.56010 Y1.22430
X2.56010 Y1.22130
X2.56110 Y1.22130
X2.56110 Y1.22030
X2.56210 Y1.22030
X2.56210 Y1.21830
X2.56310 Y1.21830
X2.56310 Y1.21630
X2.56410 Y1.21630
X2.56410 Y1.21430
X2.56510 Y1.21430
X2.56510 Y1.21230
X2.56610 Y1.21230
X2.56610 Y1.21030
X2.56710 Y1.21030
X2.56710 Y1.20930
X2.56810 Y1.20930
X2.56810 Y1.20730
X2.56910 Y1.20730
X2.56910 Y1.20630
X2.57010 Y1.20630
X2.57010 Y1.20530
X2.57110 Y1.20530
X2.57110 Y1.20430
X2.57210 Y1.20430
X2.57210 Y1.20230
X2.57310 Y1.20230
X2.57310 Y1.20130
X2.57410 Y1.20130
X2.57410 Y1.20030
X2.57510 Y1.20030
X2.57510 Y1.19930
X2.57610 Y1.19930
X2.57610 Y1.19830
X2.57710 Y1.19830
X2.57710 Y1.19630
X2.57910 Y1.19630
X2.57910 Y1.19530
X2.58010 Y1.19530
X2.58010 Y1.19430
X2.58110 Y1.19430
X2.58110 Y1.19330
X2.58210 Y1.19330
X2.58210 Y1.19230
X2.58310 Y1.19230
X2.58310 Y1.19130
X2.58510 Y1.19130
X2.58510 Y1.19030
X2.58610 Y1.19030
X2.58610 Y1.18930
X2.58710 Y1.18930
X2.58710 Y1.18830
X2.58810 Y1.18830
X2.58810 Y1.18730
X2.59010 Y1.18730
X2.59010 Y1.18630
X2.59110 Y1.18630
X2.59110 Y1.18530
X2.59310 Y1.18530
X2.59310 Y1.18430
X2.59510 Y1.18430
X2.59510 Y1.18330
X2.59710 Y1.18330
X2.59710 Y1.18230
X2.59910 Y1.18230
X2.59910 Y1.18130
X2.60110 Y1.18130
X2.60110 Y1.18030
X2.60210 Y1.18030
X2.60210 Y1.17930
X2.60510 Y1.17930
X2.60510 Y1.17830
X2.60910 Y1.17830
X2.60910 Y1.17730
X2.61210 Y1.17730
X2.61210 Y1.17630
X2.61510 Y1.17630
X2.61510 Y1.17530
X2.61910 Y1.17530
X2.61910 Y1.17430
X2.62910 Y1.17430
X2.62910 Y1.17330
X2.64810 Y1.17330
X2.64810 Y1.17430
X2.65810 Y1.17430
X2.65810 Y1.17530
X2.66210 Y1.17530
X2.66210 Y1.17630
X2.66510 Y1.17630
X2.66510 Y1.17730
X2.66810 Y1.17730
X2.66810 Y1.17830
X2.67210 Y1.17830
X2.67210 Y1.17930
X2.67510 Y1.17930
X2.67510 Y1.18030
X2.67610 Y1.18030
X2.67610 Y1.18130
X2.67810 Y1.18130
X2.67810 Y1.18230
X2.68010 Y1.18230
X2.68010 Y1.18330
X2.68210 Y1.18330
X2.68210 Y1.18430
X2.68410 Y1.18430
X2.68410 Y1.18530
X2.68610 Y1.18530
X2.68610 Y1.18630
X2.68710 Y1.18630
X2.68710 Y1.18730
X2.68910 Y1.18730
X2.68910 Y1.18830
X2.69010 Y1.18830
X2.69010 Y1.18930
X2.69110 Y1.18930
X2.69110 Y1.19030
X2.69210 Y1.19030
X2.69210 Y1.19130
X2.69410 Y1.19130
X2.69410 Y1.19230
X2.69510 Y1.19230
X2.69510 Y1.19330
X2.69610 Y1.19330
X2.69610 Y1.19430
X2.69710 Y1.19430
X2.69710 Y1.19530
X2.69810 Y1.19530
X2.69810 Y1.19630
X2.70010 Y1.19630
X2.70010 Y1.19830
X2.70110 Y1.19830
X2.70110 Y1.19930
X2.70210 Y1.19930
X2.70210 Y1.20030
X2.70310 Y1.20030
X2.70310 Y1.20130
X2.70410 Y1.20130
X2.70410 Y1.20230
X2.70510 Y1.20230
X2.70510 Y1.20430
X2.70610 Y1.20430
X2.70610 Y1.20530
X2.70710 Y1.20530
X2.70710 Y1.20630
X2.70810 Y1.20630
X2.70810 Y1.20730
X2.70910 Y1.20730
X2.70910 Y1.20930
X2.71010 Y1.20930
X2.71010 Y1.21030
X2.71110 Y1.21030
X2.71110 Y1.21230
X2.71210 Y1.21230
X2.71210 Y1.21430
X2.71310 Y1.21430
X2.71310 Y1.21630
X2.71410 Y1.21630
X2.71410 Y1.21830
X2.71510 Y1.21830
X2.71510 Y1.22030
X2.71610 Y1.22030
X2.71610 Y1.22130
X2.71710 Y1.22130
X2.71710 Y1.22430
X2.71810 Y1.22430
X2.71810 Y1.22830
X2.71910 Y1.22830
X2.71910 Y1.23130
X2.72010 Y1.23130
X2.72010 Y1.23430
X2.72110 Y1.23430
X2.72110 Y1.23830
X2.72210 Y1.23830
X2.72210 Y1.24830
X2.72310 Y1.24830
X2.72310 Y1.26730
X2.72210 Y1.26730
X2.72210 Y1.27730
X2.72110 Y1.27730
X2.72110 Y1.28130
X2.72010 Y1.28130
X2.72010 Y1.28430
X2.71910 Y1.28430
X2.71910 Y1.28730
X2.71810 Y1.28730
X2.71810 Y1.29130
X2.71710 Y1.29130
X2.71710 Y1.29430
X2.71610 Y1.29430
X2.71610 Y1.29530
X2.71510 Y1.29530
X2.71510 Y1.29730
X2.71410 Y1.29730
X2.71410 Y1.29930
X2.71310 Y1.29930
X2.71310 Y1.30130
X2.71210 Y1.30130
X2.71210 Y1.30330
X2.71110 Y1.30330
X2.71110 Y1.30530
X2.71010 Y1.30530
X2.71010 Y1.30630
X2.70910 Y1.30630
X2.70910 Y1.30830
X2.70810 Y1.30830
X2.70810 Y1.30930
X2.70710 Y1.30930
X2.70710 Y1.31030
X2.70610 Y1.31030
X2.70610 Y1.31130
X2.70510 Y1.31130
X2.70510 Y1.31330
X2.70410 Y1.31330
X2.70410 Y1.31430
X2.70310 Y1.31430
X2.70310 Y1.31530
X2.70210 Y1.31530
X2.70210 Y1.31630
X2.70110 Y1.31630
X2.70110 Y1.31730
X2.70010 Y1.31730
X2.70010 Y1.31930
X2.69810 Y1.31930
X2.69810 Y1.32030
X2.69710 Y1.32030
X2.69710 Y1.32130
X2.69610 Y1.32130
X2.69610 Y1.32230
X2.69510 Y1.32230
X2.69510 Y1.32330
X2.69410 Y1.32330
X2.69410 Y1.32430
X2.69210 Y1.32430
X2.69210 Y1.32530
X2.69110 Y1.32530
X2.69110 Y1.32630
X2.69010 Y1.32630
X2.69010 Y1.32730
X2.68910 Y1.32730
X2.68910 Y1.32830
X2.68710 Y1.32830
X2.68710 Y1.32930
X2.68610 Y1.32930
X2.68610 Y1.33030
X2.68410 Y1.33030
X2.68410 Y1.33130
X2.68210 Y1.33130
X2.68210 Y1.33230
X2.68010 Y1.33230
X2.68010 Y1.33330
X2.67810 Y1.33330
X2.67810 Y1.33430
X2.67610 Y1.33430
X2.67610 Y1.33530
X2.67510 Y1.33530
X2.67510 Y1.33630
X2.67210 Y1.33630
X2.67210 Y1.33730
X2.66810 Y1.33730
X2.66810 Y1.33830
X2.66510 Y1.33830
X2.66510 Y1.33930
X2.66210 Y1.33930
X2.66210 Y1.34030
X2.65810 Y1.34030
X2.65810 Y1.34130
X2.64810 Y1.34130
X2.64810 Y1.34230
X2.62910 Y1.34230
X2.62910 Y1.34130
X2.61910 Y1.34130
X2.61910 Y1.34030
X2.61510 Y1.34030
X2.61510 Y1.33930
X2.61210 Y1.33930
X2.61210 Y1.33830
X2.60910 Y1.33830
X2.60910 Y1.33730
G04 P0 ( dwell for no time -- G64 should not smooth over this point )
G00 Z1.00000 ( retract )

G00 X2.32410 Y1.23530 ( rapid move to begin. )
G01 Z0.00100 F2.00000 ( plunge. )
G04 P0 ( dwell for no time -- G64 should not smooth over this point )
X2.32410 Y1.23530
X2.32210 Y1.23530
X2.32210 Y1.23430
X2.32010 Y1.23430
X2.32010 Y1.23330
X2.31810 Y1.23330
X2.31810 Y1.23230
X2.31610 Y1.23230
X2.31610 Y1.23130
X2.31410 Y1.23130
X2.31410 Y1.23030
X2.31310 Y1.23030
X2.31310 Y1.22930
X2.31210 Y1.22930
X2.31210 Y1.22830
X2.31110 Y1.22830
X2.31110 Y1.22730
X2.30910 Y1.22730
X2.30910 Y1.22630
X2.30810 Y1.22630
X2.30810 Y1.22530
X2.30710 Y1.22530
X2.30710 Y1.22430
X2.30610 Y1.22430
X2.30610 Y1.22330
X2.30510 Y1.22330
X2.30510 Y1.22230
X2.30410 Y1.22230
X2.30410 Y1.22130
X2.30310 Y1.22130
X2.30310 Y1.22030
X2.30210 Y1.22030
X2.30210 Y1.21830
X2.30110 Y1.21830
X2.30110 Y1.21730
X2.30010 Y1.21730
X2.30010 Y1.21630
X2.29910 Y1.21630
X2.29910 Y1.21530
X2.29810 Y1.21530
X2.29810 Y1.21330
X2.29710 Y1.21330
X2.29710 Y1.21130
X2.29610 Y1.21130
X2.29610 Y1.20930
X2.29510 Y1.20930
X2.29510 Y1.20730
X2.29410 Y1.20730
X2.29410 Y1.20530
X2.29310 Y1.20530
X2.29310 Y1.20230
X2.29210 Y1.20230
X2.29210 Y1.19930
X2.29110 Y1.19930
X2.29110 Y1.19630
X2.29010 Y1.19630
X2.29010 Y1.18830
X2.28910 Y1.18830
X2.28910 Y1.16930
X2.29010 Y1.16930
X2.29010 Y1.16130
X2.29110 Y1.16130
X2.29110 Y1.15830
X2.29210 Y1.15830
X2.29210 Y1.15530
X2.29310 Y1.15530
X2.29310 Y1.15230
X2.29410 Y1.15230
X2.29410 Y1.15030
X2.29510 Y1.15030
X2.29510 Y1.14830
X2.29610 Y1.14830
X2.29610 Y1.14630
X2.29710 Y1.14630
X2.29710 Y1.14430
X2.29810 Y1.14430
X2.29810 Y1.14230
X2.29910 Y1.14230
X2.29910 Y1.14130
X2.30010 Y1.14130
X2.30010 Y1.14030
X2.30110 Y1.14030
X2.30110 Y1.13930
X2.30210 Y1.13930
X2.30210 Y1.13730
X2.30310 Y1.13730
X2.30310 Y1.13630
X2.30410 Y1.13630
X2.30410 Y1.13530
X2.30510 Y1.13530
X2.30510 Y1.13430
X2.30610 Y1.13430
X2.30610 Y1.13330
X2.30710 Y1.13330
X2.30710 Y1.13230
X2.30810 Y1.13230
X2.30810 Y1.13130
X2.30910 Y1.13130
X2.30910 Y1.13030
X2.31110 Y1.13030
X2.31110 Y1.12930
X2.31210 Y1.12930
X2.31210 Y1.12830
X2.31310 Y1.12830
X2.31310 Y1.12730
X2.31410 Y1.12730
X2.31410 Y1.12630
X2.31610 Y1.12630
X2.31610 Y1.12530
X2.31810 Y1.12530
X2.31810 Y1.12430
X2.32010 Y1.12430
X2.32010 Y1.12330
X2.32210 Y1.12330
X2.32210 Y1.12230
X2.32410 Y1.12230
X2.32410 Y1.12130
X2.32710 Y1.12130
X2.32710 Y1.12030
X2.33010 Y1.12030
X2.33010 Y1.11930
X2.33310 Y1.11930
X2.33310 Y1.11830
X2.34110 Y1.11830
X2.34110 Y1.11730
X2.36010 Y1.11730
X2.36010 Y1.11830
X2.36810 Y1.11830
X2.36810 Y1.11930
X2.37110 Y1.11930
X2.37110 Y1.12030
X2.37410 Y1.12030
X2.37410 Y1.12130
X2.37710 Y1.12130
X2.37710 Y1.12230
X2.37910 Y1.12230
X2.37910 Y1.12330
X2.38110 Y1.12330
X2.38110 Y1.12430
X2.38310 Y1.12430
X2.38310 Y1.12530
X2.38510 Y1.12530
X2.38510 Y1.12630
X2.38710 Y1.12630
X2.38710 Y1.12730
X2.38810 Y1.12730
X2.38810 Y1.12830
X2.38910 Y1.12830
X2.38910 Y1.12930
X2.39010 Y1.12930
X2.39010 Y1.13030
X2.39210 Y1.13030
X2.39210 Y1.13130
X2.39310 Y1.13130
X2.39310 Y1.13230
X2.39410 Y1.13230
X2.39410 Y1.13330
X2.39510 Y1.13330
X2.39510 Y1.13430
X2.39610 Y1.13430
X2.39610 Y1.13530
X2.39710 Y1.13530
X2.39710 Y1.13630
X2.39810 Y1.13630
X2.39810 Y1.13730
X2.39910 Y1.13730
X2.39910 Y1.13930
X2.40010 Y1.13930
X2.40010 Y1.14030
X2.40110 Y1.14030
X2.40110 Y1.14130
X2.40210 Y1.14130
X2.40210 Y1.14230
X2.40310 Y1.14230
X2.40310 Y1.14430
X2.40410 Y1.14430
X2.40410 Y1.14630
X2.40510 Y1.14630
X2.40510 Y1.14830
X2.40610 Y1.14830
X2.40610 Y1.15030
X2.40710 Y1.15030
X2.40710 Y1.15230
X2.40810 Y1.15230
X2.40810 Y1.15530
X2.40910 Y1.15530
X2.40910 Y1.15830
X2.41010 Y1.15830
X2.41010 Y1.16130
X2.41110 Y1.16130
X2.41110 Y1.16830
X2.41210 Y1.16830
X2.41210 Y1.18930
X2.41110 Y1.18930
X2.41110 Y1.19630
X2.41010 Y1.19630
X2.41010 Y1.19930
X2.40910 Y1.19930
X2.40910 Y1.20230
X2.40810 Y1.20230
X2.40810 Y1.20530
X2.40710 Y1.20530
X2.40710 Y1.20730
X2.40610 Y1.20730
X2.40610 Y1.20930
X2.40510 Y1.20930
X2.40510 Y1.21130
X2.40410 Y1.21130
X2.40410 Y1.21330
X2.40310 Y1.21330
X2.40310 Y1.21530
X2.40210 Y1.21530
X2.40210 Y1.21630
X2.40110 Y1.21630
X2.40110 Y1.21730
X2.40010 Y1.21730
X2.40010 Y1.21830
X2.39910 Y1.21830
X2.39910 Y1.22030
X2.39810 Y1.22030
X2.39810 Y1.22130
X2.39710 Y1.22130
X2.39710 Y1.22230
X2.39610 Y1.22230
X2.39610 Y1.22330
X2.39510 Y1.22330
X2.39510 Y1.22430
X2.39410 Y1.22430
X2.39410 Y1.22530
X2.39310 Y1.22530
X2.39310 Y1.22630
X2.39210 Y1.22630
X2.39210 Y1.22730
X2.39010 Y1.22730
X2.39010 Y1.22830
X2.38910 Y1.22830
X2.38910 Y1.22930
X2.38810 Y1.22930
X2.38810 Y1.23030
X2.38710 Y1.23030
X2.38710 Y1.23130
X2.38510 Y1.23130
X2.38510 Y1.23230
X2.38310 Y1.23230
X2.38310 Y1.23330
X2.38110 Y1.23330
X2.38110 Y1.23430
X2.37910 Y1.23430
X2.37910 Y1.23530
X2.37710 Y1.23530
X2.37710 Y1.23630
X2.37410 Y1.23630
X2.37410 Y1.23730
X2.37110 Y1.23730
X2.37110 Y1.23830
X2.36810 Y1.23830
X2.36810 Y1.23930
X2.36010 Y1.23930
X2.36010 Y1.24030
X2.34110 Y1.24030
X2.34110 Y1.23930
X2.33310 Y1.23930
X2.33310 Y1.23830
X2.33010 Y1.23830
X2.33010 Y1.23730
X2.32710 Y1.23730
X2.32710 Y1.23630
X2.32410 Y1.23630
X2.32410 Y1.23530
G04 P0 ( dwell for no time -- G64 should not smooth over this point )
G00 Z1.00000 ( retract )

G00 X1.66210 Y1.23530 ( rapid move to begin. )
G01 Z0.00100 F2.00000 ( plunge. )
G04 P0 ( dwell for no time -- G64 should not smooth over this point )
X1.66210 Y1.23530
X1.66010 Y1.23530
X1.66010 Y1.23430
X1.65810 Y1.23430
X1.65810 Y1.23330
X1.65610 Y1.23330
X1.65610 Y1.23230
X1.65410 Y1.23230
X1.65410 Y1.23130
X1.65210 Y1.23130
X1.65210 Y1.23030
X1.65110 Y1.23030
X1.65110 Y1.22930
X1.65010 Y1.22930
X1.65010 Y1.22830
X1.64910 Y1.22830
X1.64910 Y1.22730
X1.64710 Y1.22730
X1.64710 Y1.22630
X1.64610 Y1.22630
X1.64610 Y1.22530
X1.64510 Y1.22530
X1.64510 Y1.22430
X1.64410 Y1.22430
X1.64410 Y1.22330
X1.64310 Y1.22330
X1.64310 Y1.22230
X1.64210 Y1.22230
X1.64210 Y1.22130
X1.64110 Y1.22130
X1.64110 Y1.22030
X1.64010 Y1.22030
X1.64010 Y1.21830
X1.63910 Y1.21830
X1.63910 Y1.21730
X1.63810 Y1.21730
X1.63810 Y1.21630
X1.63710 Y1.21630
X1.63710 Y1.21530
X1.63610 Y1.21530
X1.63610 Y1.21330
X1.63510 Y1.21330
X1.63510 Y1.21130
X1.63410 Y1.21130
X1.63410 Y1.20930
X1.63310 Y1.20930
X1.63310 Y1.20730
X1.63210 Y1.20730
X1.63210 Y1.20530
X1.63110 Y1.20530
X1.63110 Y1.20230
X1.63010 Y1.20230
X1.63010 Y1.19930
X1.62910 Y1.19930
X1.62910 Y1.19630
X1.62810 Y1.19630
X1.62810 Y1.18830
X1.62710 Y1.18830
X1.62710 Y1.16930
X1.62810 Y1.16930
X1.62810 Y1.16130
X1.62910 Y1.16130
X1.62910 Y1.15830
X1.63010 Y1.15830
X1.63010 Y1.15530
X1.63110 Y1.15530
X1.63110 Y1.15230
X1.63210 Y1.15230
X1.63210 Y1.15030
X1.63310 Y1.15030
X1.63310 Y1.14830
X1.63410 Y1.14830
X1.63410 Y1.14630
X1.63510 Y1.14630
X1.63510 Y1.14430
X1.63610 Y1.14430
X1.63610 Y1.14230
X1.63710 Y1.14230
X1.63710 Y1.14130
X1.63810 Y1.14130
X1.63810 Y1.14030
X1.63910 Y1.14030
X1.63910 Y1.13930
X1.64010 Y1.13930
X1.64010 Y1.13730
X1.64110 Y1.13730
X1.64110 Y1.13630
X1.64210 Y1.13630
X1.64210 Y1.13530
X1.64310 Y1.13530
X1.64310 Y1.13430
X1.64410 Y1.13430
X1.64410 Y1.13330
X1.64510 Y1.13330
X1.64510 Y1.13230
X1.64610 Y1.13230
X1.64610 Y1.13130
X1.64710 Y1.13130
X1.64710 Y1.13030
X1.64910 Y1.13030
X1.64910 Y1.12930
X1.65010 Y1.12930
X1.65010 Y1.12830
X1.65110 Y1.12830
X1.65110 Y1.12730
X1.65210 Y1.12730
X1.65210 Y1.12630
X1.65410 Y1.12630
X1.65410 Y1.12530
X1.65610 Y1.12530
X1.65610 Y1.12430
X1.65810 Y1.12430
X1.65810 Y1.12330
X1.66010 Y1.12330
X1.66010 Y1.12230
X1.66210 Y1.12230
X1.66210 Y1.12130
X1.66510 Y1.12130
X1.66510 Y1.12030
X1.66810 Y1.12030
X1.66810 Y1.11930
X1.67110 Y1.11930
X1.67110 Y1.11830
X1.67910 Y1.11830
X1.67910 Y1.11730
X1.69810 Y1.11730
X1.69810 Y1.11830
X1.70610 Y1.11830
X1.70610 Y1.11930
X1.70910 Y1.11930
X1.70910 Y1.12030
X1.71210 Y1.12030
X1.71210 Y1.12130
X1.71510 Y1.12130
X1.71510 Y1.12230
X1.71710 Y1.12230
X1.71710 Y1.12330
X1.71910 Y1.12330
X1.71910 Y1.12430
X1.72110 Y1.12430
X1.72110 Y1.12530
X1.72310 Y1.12530
X1.72310 Y1.12630
X1.72510 Y1.12630
X1.72510 Y1.12730
X1.72610 Y1.12730
X1.72610 Y1.12830
X1.72710 Y1.12830
X1.72710 Y1.12930
X1.72810 Y1.12930
X1.72810 Y1.13030
X1.73010 Y1.13030
X1.73010 Y1.13130
X1.73110 Y1.13130
X1.73110 Y1.13230
X1.73210 Y1.13230
X1.73210 Y1.13330
X1.73310 Y1.13330
X1.73310 Y1.13430
X1.73410 Y1.13430
X1.73410 Y1.13530
X1.73510 Y1.13530
X1.73510 Y1.13630
X1.73610 Y1.13630
X1.73610 Y1.13730
X1.73710 Y1.13730
X1.73710 Y1.13930
X1.73810 Y1.13930
X1.73810 Y1.14030
X1.73910 Y1.14030
X1.73910 Y1.14130
X1.74010 Y1.14130
X1.74010 Y1.14230
X1.74110 Y1.14230
X1.74110 Y1.14430
X1.74210 Y1.14430
X1.74210 Y1.14630
X1.74310 Y1.14630
X1.74310 Y1.14830
X1.74410 Y1.14830
X1.74410 Y1.15030
X1.74510 Y1.15030
X1.74510 Y1.15230
X1.74610 Y1.15230
X1.74610 Y1.15530
X1.74710 Y1.15530
X1.74710 Y1.15830
X1.74810 Y1.15830
X1.74810 Y1.16130
X1.74910 Y1.16130
X1.74910 Y1.16830
X1.75010 Y1.16830
X1.75010 Y1.18930
X1.74910 Y1.18930
X1.74910 Y1.19630
X1.74810 Y1.19630
X1.74810 Y1.19930
X1.74710 Y1.19930
X1.74710 Y1.20230
X1.74610 Y1.20230
X1.74610 Y1.20530
X1.74510 Y1.20530
X1.74510 Y1.20730
X1.74410 Y1.20730
X1.74410 Y1.20930
X1.74310 Y1.20930
X1.74310 Y1.21130
X1.74210 Y1.21130
X1.74210 Y1.21330
X1.74110 Y1.21330
X1.74110 Y1.21530
X1.74010 Y1.21530
X1.74010 Y1.21630
X1.73910 Y1.21630
X1.73910 Y1.21730
X1.73810 Y1.21730
X1.73810 Y1.21830
X1.73710 Y1.21830
X1.73710 Y1.22030
X1.73610 Y1.22030
X1.73610 Y1.22130
X1.73510 Y1.22130
X1.73510 Y1.22230
X1.73410 Y1.22230
X1.73410 Y1.22330
X1.73310 Y1.22330
X1.73310 Y1.22430
X1.73210 Y1.22430
X1.73210 Y1.22530
X1.73110 Y1.22530
X1.73110 Y1.22630
X1.73010 Y1.22630
X1.73010 Y1.22730
X1.72810 Y1.22730
X1.72810 Y1.22830
X1.72710 Y1.22830
X1.72710 Y1.22930
X1.72610 Y1.22930
X1.72610 Y1.23030
X1.72510 Y1.23030
X1.72510 Y1.23130
X1.72310 Y1.23130
X1.72310 Y1.23230
X1.72110 Y1.23230
X1.72110 Y1.23330
X1.71910 Y1.23330
X1.71910 Y1.23430
X1.71710 Y1.23430
X1.71710 Y1.23530
X1.71510 Y1.23530
X1.71510 Y1.23630
X1.71210 Y1.23630
X1.71210 Y1.23730
X1.70910 Y1.23730
X1.70910 Y1.23830
X1.70610 Y1.23830
X1.70610 Y1.23930
X1.69810 Y1.23930
X1.69810 Y1.24030
X1.67910 Y1.24030
X1.67910 Y1.23930
X1.67110 Y1.23930
X1.67110 Y1.23830
X1.66810 Y1.23830
X1.66810 Y1.23730
X1.66510 Y1.23730
X1.66510 Y1.23630
X1.66210 Y1.23630
X1.66210 Y1.23530
G04 P0 ( dwell for no time -- G64 should not smooth over this point )
G00 Z1.00000 ( retract )

G00 X1.00110 Y1.23530 ( rapid move to begin. )
G01 Z0.00100 F2.00000 ( plunge. )
G04 P0 ( dwell for no time -- G64 should not smooth over this point )
X1.00110 Y1.23530
X0.99910 Y1.23530
X0.99910 Y1.23430
X0.99710 Y1.23430
X0.99710 Y1.23330
X0.99510 Y1.23330
X0.99510 Y1.23230
X0.99310 Y1.23230
X0.99310 Y1.23130
X0.99110 Y1.23130
X0.99110 Y1.23030
X0.99010 Y1.23030
X0.99010 Y1.22930
X0.98910 Y1.22930
X0.98910 Y1.22830
X0.98810 Y1.22830
X0.98810 Y1.22730
X0.98610 Y1.22730
X0.98610 Y1.22630
X0.98510 Y1.22630
X0.98510 Y1.22530
X0.98410 Y1.22530
X0.98410 Y1.22430
X0.98310 Y1.22430
X0.98310 Y1.22330
X0.98210 Y1.22330
X0.98210 Y1.22230
X0.98110 Y1.22230
X0.98110 Y1.22130
X0.98010 Y1.22130
X0.98010 Y1.22030
X0.97910 Y1.22030
X0.97910 Y1.21830
X0.97810 Y1.21830
X0.97810 Y1.21730
X0.97710 Y1.21730
X0.97710 Y1.21630
X0.97610 Y1.21630
X0.97610 Y1.21530
X0.97510 Y1.21530
X0.97510 Y1.21330
X0.97410 Y1.21330
X0.97410 Y1.21130
X0.97310 Y1.21130
X0.97310 Y1.20930
X0.97210 Y1.20930
X0.97210 Y1.20730
X0.97110 Y1.20730
X0.97110 Y1.20530
X0.97010 Y1.20530
X0.97010 Y1.20230
X0.96910 Y1.20230
X0.96910 Y1.19930
X0.96810 Y1.19930
X0.96810 Y1.19630
X0.96710 Y1.19630
X0.96710 Y1.18830
X0.96610 Y1.18830
X0.96610 Y1.16930
X0.96710 Y1.16930
X0.96710 Y1.16130
X0.96810 Y1.16130
X0.96810 Y1.15830
X0.96910 Y1.15830
X0.96910 Y1.15530
X0.97010 Y1.15530
X0.97010 Y1.15230
X0.97110 Y1.15230
X0.97110 Y1.15030
X0.97210 Y1.15030
X0.97210 Y1.14830
X0.97310 Y1.14830
X0.97310 Y1.14630
X0.97410 Y1.14630
X0.97410 Y1.14430
X0.97510 Y1.14430
X0.97510 Y1.14230
X0.97610 Y1.14230
X0.97610 Y1.14130
X0.97710 Y1.14130
X0.97710 Y1.14030
X0.97810 Y1.14030
X0.97810 Y1.13930
X0.97910 Y1.13930
X0.97910 Y1.13730
X0.98010 Y1.13730
X0.98010 Y1.13630
X0.98110 Y1.13630
X0.98110 Y1.13530
X0.98210 Y1.13530
X0.98210 Y1.13430
X0.98310 Y1.13430
X0.98310 Y1.13330
X0.98410 Y1.13330
X0.98410 Y1.13230
X0.98510 Y1.13230
X0.98510 Y1.13130
X0.98610 Y1.13130
X0.98610 Y1.13030
X0.98810 Y1.13030
X0.98810 Y1.12930
X0.98910 Y1.12930
X0.98910 Y1.12830
X0.99010 Y1.12830
X0.99010 Y1.12730
X0.99110 Y1.12730
X0.99110 Y1.12630
X0.99310 Y1.12630
X0.99310 Y1.12530
X0.99510 Y1.12530
X0.99510 Y1.12430
X0.99710 Y1.12430
X0.99710 Y1.12330
X0.99910 Y1.12330
X0.99910 Y1.12230
X1.00010 Y1.12230
X1.00010 Y1.12130
X1.00110 Y1.12130
X1.00110 Y1.11930
X1.00210 Y1.11930
X1.00210 Y1.11830
X1.00310 Y1.11830
X1.00310 Y1.11630
X1.00410 Y1.11630
X1.00410 Y1.11530
X1.00510 Y1.11530
X1.00510 Y1.11430
X1.00610 Y1.11430
X1.00610 Y1.11330
X1.00710 Y1.11330
X1.00710 Y1.11230
X1.00810 Y1.11230
X1.00810 Y1.11130
X1.00910 Y1.11130
X1.00910 Y1.11030
X1.01010 Y1.11030
X1.01010 Y1.10930
X1.01110 Y1.10930
X1.01110 Y1.10830
X1.01210 Y1.10830
X1.01210 Y1.10730
X1.01310 Y1.10730
X1.01310 Y1.10630
X1.01410 Y1.10630
X1.01410 Y1.10530
X1.01510 Y1.10530
X1.01510 Y1.10430
X1.01610 Y1.10430
X1.01610 Y1.10330
X1.01710 Y1.10330
X1.01710 Y1.10230
X1.01810 Y1.10230
X1.01810 Y1.10130
X1.01910 Y1.10130
X1.01910 Y1.10030
X1.02010 Y1.10030
X1.02010 Y1.09930
X1.02110 Y1.09930
X1.02110 Y1.09830
X1.02210 Y1.09830
X1.02210 Y1.09730
X1.02310 Y1.09730
X1.02310 Y1.09630
X1.02410 Y1.09630
X1.02410 Y1.09530
X1.02510 Y1.09530
X1.02510 Y1.09430
X1.02610 Y1.09430
X1.02610 Y1.09330
X1.02710 Y1.09330
X1.02710 Y1.09230
X1.02810 Y1.09230
X1.02810 Y1.09130
X1.02910 Y1.09130
X1.02910 Y1.09030
X1.03010 Y1.09030
X1.03010 Y1.08930
X1.03110 Y1.08930
X1.03110 Y1.08830
X1.03210 Y1.08830
X1.03210 Y1.08730
X1.03310 Y1.08730
X1.03310 Y1.08630
X1.03410 Y1.08630
X1.03410 Y1.08530
X1.03510 Y1.08530
X1.03510 Y1.08330
X1.03610 Y1.08330
X1.03610 Y1.08230
X1.03710 Y1.08230
X1.03710 Y1.08130
X1.03810 Y1.08130
X1.03810 Y1.08030
X1.03910 Y1.08030
X1.03910 Y1.07930
X1.04010 Y1.07930
X1.04010 Y1.07830
X1.04110 Y1.07830
X1.04110 Y1.07730
X1.04210 Y1.07730
X1.04210 Y1.07630
X1.04310 Y1.07630
X1.04310 Y1.07530
X1.04410 Y1.07530
X1.04410 Y1.07430
X1.04510 Y1.07430
X1.04510 Y1.07330
X1.04610 Y1.07330
X1.04610 Y1.07230
X1.04710 Y1.07230
X1.04710 Y1.07130
X1.04810 Y1.07130
X1.04810 Y1.07030
X1.04910 Y1.07030
X1.04910 Y1.06930
X1.05010 Y1.06930
X1.05010 Y1.06830
X1.05110 Y1.06830
X1.05110 Y1.06730
X1.05210 Y1.06730
X1.05210 Y1.06630
X1.05310 Y1.06630
X1.05310 Y1.06530
X1.05410 Y1.06530
X1.05410 Y1.06430
X1.05510 Y1.06430
X1.05510 Y1.06330
X1.05610 Y1.06330
X1.05610 Y1.06230
X1.05710 Y1.06230
X1.05710 Y1.06130
X1.05810 Y1.06130
X1.05810 Y1.06030
X1.05910 Y1.06030
X1.05910 Y1.05930
X1.06010 Y1.05930
X1.06010 Y1.05830
X1.06110 Y1.05830
X1.06110 Y1.05730
X1.06210 Y1.05730
X1.06210 Y1.05630
X1.06310 Y1.05630
X1.06310 Y1.05530
X1.06410 Y1.05530
X1.06410 Y1.05430
X1.06510 Y1.05430
X1.06510 Y1.05330
X1.06610 Y1.05330
X1.06610 Y1.05230
X1.06710 Y1.05230
X1.06710 Y1.05130
X1.06810 Y1.05130
X1.06810 Y1.05030
X1.06910 Y1.05030
X1.06910 Y1.04930
X1.07010 Y1.04930
X1.07010 Y1.04830
X1.07110 Y1.04830
X1.07110 Y1.04730
X1.07210 Y1.04730
X1.07210 Y1.04630
X1.07310 Y1.04630
X1.07310 Y1.04530
X1.07410 Y1.04530
X1.07410 Y1.04430
X1.07510 Y1.04430
X1.07510 Y1.04330
X1.07610 Y1.04330
X1.07610 Y1.04230
X1.07710 Y1.04230
X1.07710 Y1.04130
X1.07810 Y1.04130
X1.07810 Y1.04030
X1.07910 Y1.04030
X1.07910 Y1.03930
X1.08010 Y1.03930
X1.08010 Y1.03830
X1.08110 Y1.03830
X1.08110 Y1.03730
X1.08210 Y1.03730
X1.08210 Y1.03630
X1.08310 Y1.03630
X1.08310 Y1.03530
X1.08410 Y1.03530
X1.08410 Y1.03430
X1.08510 Y1.03430
X1.08510 Y1.03330
X1.08610 Y1.03330
X1.08610 Y1.03230
X1.08710 Y1.03230
X1.08710 Y1.03130
X1.08810 Y1.03130
X1.08810 Y1.03030
X1.08910 Y1.03030
X1.08910 Y1.02930
X1.09010 Y1.02930
X1.09010 Y1.02830
X1.09210 Y1.02830
X1.09210 Y1.02730
X1.09310 Y1.02730
X1.09310 Y1.02630
X1.09410 Y1.02630
X1.09410 Y0.86530
X1.09310 Y0.86530
X1.09310 Y0.86430
X1.09210 Y0.86430
X1.09210 Y0.86330
X1.09010 Y0.86330
X1.09010 Y0.86230
X1.08910 Y0.86230
X1.08910 Y0.86130
X1.08810 Y0.86130
X1.08810 Y0.86030
X1.08710 Y0.86030
X1.08710 Y0.85930
X1.08610 Y0.85930
X1.08610 Y0.85730
X1.08510 Y0.85730
X1.08510 Y0.85630
X1.08410 Y0.85630
X1.08410 Y0.85430
X1.08310 Y0.85430
X1.08310 Y0.85230
X1.08210 Y0.85230
X1.08210 Y0.84730
X1.08110 Y0.84730
X1.08110 Y0.83130
X1.08210 Y0.83130
X1.08210 Y0.82630
X1.08310 Y0.82630
X1.08310 Y0.82430
X1.08410 Y0.82430
X1.08410 Y0.82230
X1.08510 Y0.82230
X1.08510 Y0.82130
X1.08610 Y0.82130
X1.08610 Y0.81930
X1.08710 Y0.81930
X1.08710 Y0.81830
X1.08810 Y0.81830
X1.08810 Y0.81730
X1.08910 Y0.81730
X1.08910 Y0.81630
X1.09010 Y0.81630
X1.09010 Y0.81530
X1.09110 Y0.81530
X1.09110 Y0.81430
X1.09210 Y0.81430
X1.09210 Y0.81330
X1.09310 Y0.81330
X1.09310 Y0.81230
X1.09410 Y0.81230
X1.09410 Y0.81130
X1.09510 Y0.81130
X1.09510 Y0.81030
X1.09610 Y0.81030
X1.09610 Y0.80930
X1.09710 Y0.80930
X1.09710 Y0.80830
X1.09810 Y0.80830
X1.09810 Y0.80730
X1.09910 Y0.80730
X1.09910 Y0.80630
X1.10010 Y0.80630
X1.10010 Y0.80530
X1.10110 Y0.80530
X1.10110 Y0.80430
X1.10210 Y0.80430
X1.10210 Y0.80330
X1.10310 Y0.80330
X1.10310 Y0.80230
X1.10410 Y0.80230
X1.10410 Y0.80130
X1.10510 Y0.80130
X1.10510 Y0.80030
X1.10610 Y0.80030
X1.10610 Y0.79930
X1.10710 Y0.79930
X1.10710 Y0.79830
X1.10810 Y0.79830
X1.10810 Y0.79730
X1.10910 Y0.79730
X1.10910 Y0.79630
X1.11010 Y0.79630
X1.11010 Y0.79530
X1.11110 Y0.79530
X1.11110 Y0.79430
X1.11210 Y0.79430
X1.11210 Y0.79330
X1.11310 Y0.79330
X1.11310 Y0.79230
X1.11410 Y0.79230
X1.11410 Y0.79130
X1.11510 Y0.79130
X1.11510 Y0.79030
X1.11610 Y0.79030
X1.11610 Y0.78930
X1.11710 Y0.78930
X1.11710 Y0.78830
X1.11810 Y0.78830
X1.11810 Y0.78730
X1.11910 Y0.78730
X1.11910 Y0.78630
X1.12010 Y0.78630
X1.12010 Y0.78530
X1.12110 Y0.78530
X1.12110 Y0.78430
X1.12210 Y0.78430
X1.12210 Y0.78330
X1.12310 Y0.78330
X1.12310 Y0.78230
X1.12410 Y0.78230
X1.12410 Y0.78130
X1.12510 Y0.78130
X1.12510 Y0.78030
X1.12610 Y0.78030
X1.12610 Y0.77930
X1.12710 Y0.77930
X1.12710 Y0.77830
X1.12810 Y0.77830
X1.12810 Y0.77730
X1.12910 Y0.77730
X1.12910 Y0.77630
X1.13010 Y0.77630
X1.13010 Y0.77530
X1.13110 Y0.77530
X1.13110 Y0.77430
X1.13210 Y0.77430
X1.13210 Y0.77330
X1.13310 Y0.77330
X1.13310 Y0.77230
X1.13410 Y0.77230
X1.13410 Y0.77130
X1.13510 Y0.77130
X1.13510 Y0.77030
X1.13610 Y0.77030
X1.13610 Y0.76930
X1.13710 Y0.76930
X1.13710 Y0.76830
X1.13810 Y0.76830
X1.13810 Y0.76730
X1.13910 Y0.76730
X1.13910 Y0.76630
X1.14010 Y0.76630
X1.14010 Y0.76530
X1.14110 Y0.76530
X1.14110 Y0.76430
X1.14210 Y0.76430
X1.14210 Y0.76330
X1.14310 Y0.76330
X1.14310 Y0.76230
X1.14410 Y0.76230
X1.14410 Y0.76130
X1.14510 Y0.76130
X1.14510 Y0.76030
X1.14610 Y0.76030
X1.14610 Y0.75930
X1.14710 Y0.75930
X1.14710 Y0.75830
X1.14810 Y0.75830
X1.14810 Y0.75730
X1.14910 Y0.75730
X1.14910 Y0.75630
X1.15010 Y0.75630
X1.15010 Y0.75530
X1.15110 Y0.75530
X1.15110 Y0.75430
X1.15210 Y0.75430
X1.15210 Y0.75330
X1.15310 Y0.75330
X1.15310 Y0.75230
X1.15410 Y0.75230
X1.15410 Y0.75130
X1.15510 Y0.75130
X1.15510 Y0.75030
X1.15610 Y0.75030
X1.15610 Y0.74930
X1.15710 Y0.74930
X1.15710 Y0.74830
X1.15810 Y0.74830
X1.15810 Y0.74730
X1.15910 Y0.74730
X1.15910 Y0.74630
X1.16010 Y0.74630
X1.16010 Y0.74530
X1.16110 Y0.74530
X1.16110 Y0.74430
X1.16210 Y0.74430
X1.16210 Y0.74330
X1.16310 Y0.74330
X1.16310 Y0.74230
X1.16410 Y0.74230
X1.16410 Y0.74130
X1.16510 Y0.74130
X1.16510 Y0.74030
X1.16610 Y0.74030
X1.16610 Y0.73930
X1.16710 Y0.73930
X1.16710 Y0.73830
X1.16810 Y0.73830
X1.16810 Y0.73730
X1.16910 Y0.73730
X1.16910 Y0.73630
X1.17010 Y0.73630
X1.17010 Y0.73530
X1.17110 Y0.73530
X1.17110 Y0.73430
X1.17210 Y0.73430
X1.17210 Y0.73330
X1.17310 Y0.73330
X1.17310 Y0.73230
X1.17410 Y0.73230
X1.17410 Y0.73130
X1.17510 Y0.73130
X1.17510 Y0.73030
X1.17610 Y0.73030
X1.17610 Y0.72930
X1.17710 Y0.72930
X1.17710 Y0.72830
X1.17810 Y0.72830
X1.17810 Y0.72730
X1.17910 Y0.72730
X1.17910 Y0.72630
X1.18010 Y0.72630
X1.18010 Y0.72530
X1.18110 Y0.72530
X1.18110 Y0.72430
X1.18210 Y0.72430
X1.18210 Y0.72330
X1.18310 Y0.72330
X1.18310 Y0.72230
X1.18410 Y0.72230
X1.18410 Y0.72130
X1.18510 Y0.72130
X1.18510 Y0.72030
X1.18610 Y0.72030
X1.18610 Y0.71930
X1.18710 Y0.71930
X1.18710 Y0.71830
X1.18810 Y0.71830
X1.18810 Y0.71730
X1.18910 Y0.71730
X1.18910 Y0.71630
X1.19010 Y0.71630
X1.19010 Y0.71530
X1.19110 Y0.71530
X1.19110 Y0.71430
X1.19210 Y0.71430
X1.19210 Y0.71330
X1.19310 Y0.71330
X1.19310 Y0.71230
X1.19410 Y0.71230
X1.19410 Y0.71130
X1.19510 Y0.71130
X1.19510 Y0.71030
X1.19610 Y0.71030
X1.19610 Y0.70930
X1.19710 Y0.70930
X1.19710 Y0.70830
X1.19910 Y0.70830
X1.19910 Y0.70730
X1.20010 Y0.70730
X1.20010 Y0.70630
X1.20110 Y0.70630
X1.20110 Y0.70530
X1.20210 Y0.70530
X1.20210 Y0.70430
X1.20310 Y0.70430
X1.20310 Y0.70330
X1.20410 Y0.70330
X1.20410 Y0.70230
X1.20510 Y0.70230
X1.20510 Y0.70130
X1.20610 Y0.70130
X1.20610 Y0.70030
X1.20710 Y0.70030
X1.20710 Y0.69930
X1.20810 Y0.69930
X1.20810 Y0.69830
X1.20910 Y0.69830
X1.20910 Y0.69730
X1.21010 Y0.69730
X1.21010 Y0.69630
X1.21110 Y0.69630
X1.21110 Y0.69530
X1.21210 Y0.69530
X1.21210 Y0.69430
X1.21310 Y0.69430
X1.21310 Y0.69330
X1.21410 Y0.69330
X1.21410 Y0.69230
X1.21510 Y0.69230
X1.21510 Y0.69130
X1.21610 Y0.69130
X1.21610 Y0.69030
X1.21710 Y0.69030
X1.21710 Y0.68930
X1.21810 Y0.68930
X1.21810 Y0.68830
X1.21910 Y0.68830
X1.21910 Y0.68730
X1.22010 Y0.68730
X1.22010 Y0.68630
X1.22110 Y0.68630
X1.22110 Y0.68530
X1.22210 Y0.68530
X1.22210 Y0.68430
X1.22310 Y0.68430
X1.22310 Y0.68330
X1.22410 Y0.68330
X1.22410 Y0.68230
X1.22510 Y0.68230
X1.22510 Y0.68130
X1.22610 Y0.68130
X1.22610 Y0.68030
X1.22710 Y0.68030
X1.22710 Y0.67930
X1.22810 Y0.67930
X1.22810 Y0.67830
X1.22910 Y0.67830
X1.22910 Y0.67730
X1.23010 Y0.67730
X1.23010 Y0.67630
X1.23110 Y0.67630
X1.23110 Y0.67530
X1.23210 Y0.67530
X1.23210 Y0.67430
X1.23310 Y0.67430
X1.23310 Y0.67330
X1.23410 Y0.67330
X1.23410 Y0.67230
X1.23510 Y0.67230
X1.23510 Y0.67130
X1.23610 Y0.67130
X1.23610 Y0.67030
X1.23710 Y0.67030
X1.23710 Y0.66930
X1.23810 Y0.66930
X1.23810 Y0.66830
X1.23910 Y0.66830
X1.23910 Y0.66730
X1.24010 Y0.66730
X1.24010 Y0.66630
X1.24110 Y0.66630
X1.24110 Y0.66530
X1.24210 Y0.66530
X1.24210 Y0.66430
X1.24310 Y0.66430
X1.24310 Y0.66330
X1.24410 Y0.66330
X1.24410 Y0.66230
X1.24510 Y0.66230
X1.24510 Y0.66130
X1.24610 Y0.66130
X1.24610 Y0.66030
X1.24710 Y0.66030
X1.24710 Y0.65930
X1.24810 Y0.65930
X1.24810 Y0.65830
X1.24910 Y0.65830
X1.24910 Y0.65730
X1.25010 Y0.65730
X1.25010 Y0.65630
X1.25110 Y0.65630
X1.25110 Y0.65530
X1.25210 Y0.65530
X1.25210 Y0.65430
X1.25310 Y0.65430
X1.25310 Y0.65330
X1.25410 Y0.65330
X1.25410 Y0.65230
X1.25510 Y0.65230
X1.25510 Y0.65130
X1.25610 Y0.65130
X1.25610 Y0.65030
X1.25710 Y0.65030
X1.25710 Y0.64930
X1.25810 Y0.64930
X1.25810 Y0.64830
X1.25910 Y0.64830
X1.25910 Y0.64730
X1.26010 Y0.64730
X1.26010 Y0.64630
X1.26110 Y0.64630
X1.26110 Y0.64530
X1.26210 Y0.64530
X1.26210 Y0.64430
X1.26310 Y0.64430
X1.26310 Y0.64330
X1.26410 Y0.64330
X1.26410 Y0.64230
X1.26510 Y0.64230
X1.26510 Y0.64130
X1.26610 Y0.64130
X1.26610 Y0.64030
X1.26710 Y0.64030
X1.26710 Y0.63930
X1.26810 Y0.63930
X1.26810 Y0.63830
X1.26910 Y0.63830
X1.26910 Y0.63730
X1.27010 Y0.63730
X1.27010 Y0.63630
X1.27110 Y0.63630
X1.27110 Y0.63530
X1.27210 Y0.63530
X1.27210 Y0.63430
X1.27310 Y0.63430
X1.27310 Y0.63330
X1.27410 Y0.63330
X1.27410 Y0.63230
X1.27510 Y0.63230
X1.27510 Y0.63130
X1.27610 Y0.63130
X1.27610 Y0.63030
X1.27710 Y0.63030
X1.27710 Y0.62930
X1.27810 Y0.62930
X1.27810 Y0.62830
X1.27910 Y0.62830
X1.27910 Y0.62730
X1.28010 Y0.62730
X1.28010 Y0.62630
X1.28110 Y0.62630
X1.28110 Y0.62530
X1.28210 Y0.62530
X1.28210 Y0.62430
X1.28310 Y0.62430
X1.28310 Y0.62330
X1.28410 Y0.62330
X1.28410 Y0.62230
X1.28510 Y0.62230
X1.28510 Y0.62130
X1.28610 Y0.62130
X1.28610 Y0.62030
X1.28710 Y0.62030
X1.28710 Y0.61930
X1.28810 Y0.61930
X1.28810 Y0.61830
X1.28910 Y0.61830
X1.28910 Y0.61730
X1.29010 Y0.61730
X1.29010 Y0.56930
X1.28910 Y0.56930
X1.28910 Y0.56730
X1.28810 Y0.56730
X1.28810 Y0.56630
X1.28710 Y0.56630
X1.28710 Y0.56130
X1.28610 Y0.56130
X1.28610 Y0.55630
X1.28510 Y0.55630
X1.28510 Y0.54130
X1.28610 Y0.54130
X1.28610 Y0.53630
X1.28710 Y0.53630
X1.28710 Y0.53130
X1.28810 Y0.53130
X1.28810 Y0.53030
X1.28910 Y0.53030
X1.28910 Y0.52830
X1.29010 Y0.52830
X1.29010 Y0.52730
X1.29110 Y0.52730
X1.29110 Y0.52530
X1.29210 Y0.52530
X1.29210 Y0.52430
X1.29310 Y0.52430
X1.29310 Y0.52330
X1.29410 Y0.52330
X1.29410 Y0.52130
X1.29610 Y0.52130
X1.29610 Y0.52030
X1.29810 Y0.52030
X1.29810 Y0.51930
X1.29910 Y0.51930
X1.29910 Y0.51830
X1.30110 Y0.51830
X1.30110 Y0.51730
X1.30310 Y0.51730
X1.30310 Y0.51630
X1.30610 Y0.51630
X1.30610 Y0.51530
X1.31210 Y0.51530
X1.31210 Y0.51430
X1.32710 Y0.51430
X1.32710 Y0.51530
X1.33310 Y0.51530
X1.33310 Y0.51630
X1.33610 Y0.51630
X1.33610 Y0.51730
X1.33810 Y0.51730
X1.33810 Y0.51830
X1.34010 Y0.51830
X1.34010 Y0.51930
X1.34110 Y0.51930
X1.34110 Y0.52030
X1.34310 Y0.52030
X1.34310 Y0.52130
X1.34510 Y0.52130
X1.34510 Y0.52330
X1.34610 Y0.52330
X1.34610 Y0.52430
X1.34710 Y0.52430
X1.34710 Y0.52530
X1.34810 Y0.52530
X1.34810 Y0.52730
X1.34910 Y0.52730
X1.34910 Y0.52830
X1.35010 Y0.52830
X1.35010 Y0.53030
X1.35110 Y0.53030
X1.35110 Y0.53130
X1.35210 Y0.53130
X1.35210 Y0.53630
X1.35310 Y0.53630
X1.35310 Y0.54130
X1.35410 Y0.54130
X1.35410 Y0.55630
X1.35310 Y0.55630
X1.35310 Y0.56130
X1.35210 Y0.56130
X1.35210 Y0.56630
X1.35110 Y0.56630
X1.35110 Y0.56730
X1.35010 Y0.56730
X1.35010 Y0.56930
X1.34910 Y0.56930
X1.34910 Y0.57030
X1.34810 Y0.57030
X1.34810 Y0.63930
X1.34710 Y0.63930
X1.34710 Y0.64430
X1.34610 Y0.64430
X1.34610 Y0.64630
X1.34510 Y0.64630
X1.34510 Y0.64830
X1.34410 Y0.64830
X1.34410 Y0.64930
X1.34310 Y0.64930
X1.34310 Y0.65130
X1.34210 Y0.65130
X1.34210 Y0.65230
X1.34110 Y0.65230
X1.34110 Y0.65330
X1.34010 Y0.65330
X1.34010 Y0.65430
X1.33910 Y0.65430
X1.33910 Y0.65530
X1.33810 Y0.65530
X1.33810 Y0.65630
X1.33710 Y0.65630
X1.33710 Y0.65730
X1.33610 Y0.65730
X1.33610 Y0.65830
X1.33510 Y0.65830
X1.33510 Y0.65930
X1.33410 Y0.65930
X1.33410 Y0.66030
X1.33310 Y0.66030
X1.33310 Y0.66130
X1.33210 Y0.66130
X1.33210 Y0.66230
X1.33110 Y0.66230
X1.33110 Y0.66330
X1.33010 Y0.66330
X1.33010 Y0.66430
X1.32910 Y0.66430
X1.32910 Y0.66530
X1.32810 Y0.66530
X1.32810 Y0.66630
X1.32710 Y0.66630
X1.32710 Y0.66730
X1.32610 Y0.66730
X1.32610 Y0.66830
X1.32510 Y0.66830
X1.32510 Y0.66930
X1.32410 Y0.66930
X1.32410 Y0.67030
X1.32310 Y0.67030
X1.32310 Y0.67130
X1.32210 Y0.67130
X1.32210 Y0.67230
X1.32110 Y0.67230
X1.32110 Y0.67330
X1.32010 Y0.67330
X1.32010 Y0.67430
X1.31910 Y0.67430
X1.31910 Y0.67530
X1.31810 Y0.67530
X1.31810 Y0.67630
X1.31710 Y0.67630
X1.31710 Y0.67730
X1.31610 Y0.67730
X1.31610 Y0.67830
X1.31510 Y0.67830
X1.31510 Y0.67930
X1.31410 Y0.67930
X1.31410 Y0.68030
X1.31310 Y0.68030
X1.31310 Y0.68130
X1.31210 Y0.68130
X1.31210 Y0.68230
X1.31110 Y0.68230
X1.31110 Y0.68330
X1.31010 Y0.68330
X1.31010 Y0.68430
X1.30910 Y0.68430
X1.30910 Y0.68530
X1.30810 Y0.68530
X1.30810 Y0.68630
X1.30710 Y0.68630
X1.30710 Y0.68730
X1.30610 Y0.68730
X1.30610 Y0.68830
X1.30510 Y0.68830
X1.30510 Y0.68930
X1.30410 Y0.68930
X1.30410 Y0.69030
X1.30310 Y0.69030
X1.30310 Y0.69130
X1.30210 Y0.69130
X1.30210 Y0.69230
X1.30110 Y0.69230
X1.30110 Y0.69330
X1.30010 Y0.69330
X1.30010 Y0.69430
X1.29910 Y0.69430
X1.29910 Y0.69530
X1.29810 Y0.69530
X1.29810 Y0.69630
X1.29710 Y0.69630
X1.29710 Y0.69730
X1.29610 Y0.69730
X1.29610 Y0.69830
X1.29510 Y0.69830
X1.29510 Y0.69930
X1.29410 Y0.69930
X1.29410 Y0.70030
X1.29310 Y0.70030
X1.29310 Y0.70130
X1.29210 Y0.70130
X1.29210 Y0.70230
X1.29110 Y0.70230
X1.29110 Y0.70330
X1.29010 Y0.70330
X1.29010 Y0.70430
X1.28910 Y0.70430
X1.28910 Y0.70530
X1.28810 Y0.70530
X1.28810 Y0.70630
X1.28710 Y0.70630
X1.28710 Y0.70730
X1.28610 Y0.70730
X1.28610 Y0.70830
X1.28510 Y0.70830
X1.28510 Y0.70930
X1.28410 Y0.70930
X1.28410 Y0.71030
X1.28310 Y0.71030
X1.28310 Y0.71130
X1.28210 Y0.71130
X1.28210 Y0.71230
X1.28110 Y0.71230
X1.28110 Y0.71330
X1.28010 Y0.71330
X1.28010 Y0.71430
X1.27910 Y0.71430
X1.27910 Y0.71530
X1.27810 Y0.71530
X1.27810 Y0.71630
X1.27710 Y0.71630
X1.27710 Y0.71730
X1.27610 Y0.71730
X1.27610 Y0.71830
X1.27510 Y0.71830
X1.27510 Y0.71930
X1.27410 Y0.71930
X1.27410 Y0.72030
X1.27310 Y0.72030
X1.27310 Y0.72130
X1.27210 Y0.72130
X1.27210 Y0.72230
X1.27110 Y0.72230
X1.27110 Y0.72330
X1.27010 Y0.72330
X1.27010 Y0.72430
X1.26910 Y0.72430
X1.26910 Y0.72530
X1.26810 Y0.72530
X1.26810 Y0.72630
X1.26710 Y0.72630
X1.26710 Y0.72730
X1.26610 Y0.72730
X1.26610 Y0.72830
X1.26510 Y0.72830
X1.26510 Y0.72930
X1.26410 Y0.72930
X1.26410 Y0.73030
X1.26310 Y0.73030
X1.26310 Y0.73130
X1.26210 Y0.73130
X1.26210 Y0.73230
X1.26110 Y0.73230
X1.26110 Y0.73330
X1.26010 Y0.73330
X1.26010 Y0.73430
X1.25910 Y0.73430
X1.25910 Y0.73530
X1.25810 Y0.73530
X1.25810 Y0.73630
X1.25710 Y0.73630
X1.25710 Y0.73730
X1.25610 Y0.73730
X1.25610 Y0.73830
X1.25510 Y0.73830
X1.25510 Y0.73930
X1.25410 Y0.73930
X1.25410 Y0.74030
X1.25310 Y0.74030
X1.25310 Y0.74130
X1.25210 Y0.74130
X1.25210 Y0.74230
X1.25110 Y0.74230
X1.25110 Y0.74330
X1.25010 Y0.74330
X1.25010 Y0.74430
X1.24910 Y0.74430
X1.24910 Y0.74530
X1.24810 Y0.74530
X1.24810 Y0.74630
X1.24710 Y0.74630
X1.24710 Y0.74730
X1.24610 Y0.74730
X1.24610 Y0.74830
X1.24510 Y0.74830
X1.24510 Y0.74930
X1.24410 Y0.74930
X1.24410 Y0.75030
X1.24310 Y0.75030
X1.24310 Y0.75130
X1.24210 Y0.75130
X1.24210 Y0.75230
X1.24110 Y0.75230
X1.24110 Y0.75330
X1.24010 Y0.75330
X1.24010 Y0.75430
X1.23910 Y0.75430
X1.23910 Y0.75530
X1.23810 Y0.75530
X1.23810 Y0.75630
X1.23710 Y0.75630
X1.23710 Y0.75730
X1.23610 Y0.75730
X1.23610 Y0.75830
X1.23510 Y0.75830
X1.23510 Y0.75930
X1.23410 Y0.75930
X1.23410 Y0.76030
X1.23310 Y0.76030
X1.23310 Y0.76130
X1.23210 Y0.76130
X1.23210 Y0.76230
X1.23110 Y0.76230
X1.23110 Y0.76330
X1.23010 Y0.76330
X1.23010 Y0.76430
X1.22910 Y0.76430
X1.22910 Y0.76530
X1.22810 Y0.76530
X1.22810 Y0.76630
X1.22710 Y0.76630
X1.22710 Y0.76730
X1.22610 Y0.76730
X1.22610 Y0.76830
X1.22510 Y0.76830
X1.22510 Y0.76930
X1.22410 Y0.76930
X1.22410 Y0.77030
X1.22310 Y0.77030
X1.22310 Y0.77130
X1.22210 Y0.77130
X1.22210 Y0.77230
X1.22110 Y0.77230
X1.22110 Y0.77330
X1.22010 Y0.77330
X1.22010 Y0.77430
X1.21910 Y0.77430
X1.21910 Y0.77530
X1.21810 Y0.77530
X1.21810 Y0.77630
X1.21710 Y0.77630
X1.21710 Y0.77730
X1.21610 Y0.77730
X1.21610 Y0.77830
X1.21510 Y0.77830
X1.21510 Y0.77930
X1.21410 Y0.77930
X1.21410 Y0.78030
X1.21310 Y0.78030
X1.21310 Y0.78130
X1.21210 Y0.78130
X1.21210 Y0.78230
X1.21110 Y0.78230
X1.21110 Y0.78330
X1.21010 Y0.78330
X1.21010 Y0.78430
X1.20910 Y0.78430
X1.20910 Y0.78530
X1.20810 Y0.78530
X1.20810 Y0.78630
X1.20710 Y0.78630
X1.20710 Y0.78730
X1.20610 Y0.78730
X1.20610 Y0.78830
X1.20510 Y0.78830
X1.20510 Y0.78930
X1.20410 Y0.78930
X1.20410 Y0.79030
X1.20310 Y0.79030
X1.20310 Y0.79130
X1.20210 Y0.79130
X1.20210 Y0.79230
X1.20110 Y0.79230
X1.20110 Y0.79330
X1.20010 Y0.79330
X1.20010 Y0.79430
X1.19910 Y0.79430
X1.19910 Y0.79530
X1.19810 Y0.79530
X1.19810 Y0.79630
X1.19710 Y0.79630
X1.19710 Y0.79730
X1.19610 Y0.79730
X1.19610 Y0.79830
X1.19510 Y0.79830
X1.19510 Y0.79930
X1.19410 Y0.79930
X1.19410 Y0.80030
X1.19310 Y0.80030
X1.19310 Y0.80130
X1.19110 Y0.80130
X1.19110 Y0.80230
X1.19010 Y0.80230
X1.19010 Y0.80330
X1.18910 Y0.80330
X1.18910 Y0.80430
X1.18810 Y0.80430
X1.18810 Y0.80530
X1.18710 Y0.80530
X1.18710 Y0.80630
X1.18610 Y0.80630
X1.18610 Y0.80730
X1.18510 Y0.80730
X1.18510 Y0.80830
X1.18410 Y0.80830
X1.18410 Y0.80930
X1.18310 Y0.80930
X1.18310 Y0.81030
X1.18210 Y0.81030
X1.18210 Y0.81130
X1.18110 Y0.81130
X1.18110 Y0.81230
X1.18010 Y0.81230
X1.18010 Y0.81330
X1.17910 Y0.81330
X1.17910 Y0.81430
X1.17810 Y0.81430
X1.17810 Y0.81530
X1.17710 Y0.81530
X1.17710 Y0.81630
X1.17610 Y0.81630
X1.17610 Y0.81730
X1.17510 Y0.81730
X1.17510 Y0.81830
X1.17410 Y0.81830
X1.17410 Y0.81930
X1.17310 Y0.81930
X1.17310 Y0.82030
X1.17210 Y0.82030
X1.17210 Y0.82130
X1.17110 Y0.82130
X1.17110 Y0.82230
X1.17010 Y0.82230
X1.17010 Y0.82330
X1.16910 Y0.82330
X1.16910 Y0.82430
X1.16810 Y0.82430
X1.16810 Y0.82530
X1.16710 Y0.82530
X1.16710 Y0.82630
X1.16610 Y0.82630
X1.16610 Y0.82730
X1.16510 Y0.82730
X1.16510 Y0.82830
X1.16410 Y0.82830
X1.16410 Y0.82930
X1.16310 Y0.82930
X1.16310 Y0.83030
X1.16210 Y0.83030
X1.16210 Y0.83130
X1.16110 Y0.83130
X1.16110 Y0.83230
X1.16010 Y0.83230
X1.16010 Y0.83330
X1.15910 Y0.83330
X1.15910 Y0.83430
X1.15810 Y0.83430
X1.15810 Y0.83530
X1.15710 Y0.83530
X1.15710 Y0.83630
X1.15610 Y0.83630
X1.15610 Y0.83730
X1.15510 Y0.83730
X1.15510 Y0.83830
X1.15410 Y0.83830
X1.15410 Y0.83930
X1.15310 Y0.83930
X1.15310 Y0.84030
X1.15210 Y0.84030
X1.15210 Y0.84130
X1.15110 Y0.84130
X1.15110 Y0.84230
X1.15010 Y0.84230
X1.15010 Y0.84330
X1.14910 Y0.84330
X1.14910 Y0.84430
X1.14810 Y0.84430
X1.14810 Y0.84530
X1.14710 Y0.84530
X1.14710 Y0.84630
X1.14610 Y0.84630
X1.14610 Y0.84730
X1.14510 Y0.84730
X1.14510 Y0.84830
X1.14410 Y0.84830
X1.14410 Y0.84930
X1.14310 Y0.84930
X1.14310 Y0.85030
X1.14210 Y0.85030
X1.14210 Y0.85130
X1.14110 Y0.85130
X1.14110 Y0.85230
X1.14010 Y0.85230
X1.14010 Y0.85330
X1.13910 Y0.85330
X1.13910 Y0.85430
X1.13810 Y0.85430
X1.13810 Y0.85530
X1.13710 Y0.85530
X1.13710 Y0.85630
X1.13610 Y0.85630
X1.13610 Y0.85730
X1.13510 Y0.85730
X1.13510 Y0.85830
X1.13410 Y0.85830
X1.13410 Y0.85930
X1.13310 Y0.85930
X1.13310 Y0.86030
X1.13210 Y0.86030
X1.13210 Y0.86130
X1.13110 Y0.86130
X1.13110 Y0.86230
X1.13010 Y0.86230
X1.13010 Y0.86330
X1.12810 Y0.86330
X1.12810 Y0.86430
X1.12710 Y0.86430
X1.12710 Y1.02730
X1.12810 Y1.02730
X1.12810 Y1.02830
X1.13010 Y1.02830
X1.13010 Y1.02930
X1.13110 Y1.02930
X1.13110 Y1.03030
X1.13210 Y1.03030
X1.13210 Y1.03130
